app/assets/luts/cool.cube
TITLE "Cool / Clinical"
LUT_3D_SIZE 17
DOMAIN_MIN 0.0 0.0 0.0
DOMAIN_MAX 1.0 1.0 1.0
0.000000 0.000000 0.020000
0.057500 0.000000 0.020000
0.115000 0.000000 0.020000
0.172500 0.000000 0.020000
0.230000 0.000000 0.020000
0.287500 0.000000 0.020000
0.345000 0.000000 0.020000
0.402500 0.000000 0.020000
0.460000 0.000000 0.020000
0.517500 0.000000 0.020000
0.575000 0.000000 0.020000
0.632500 0.000000 0.020000
0.690000 0.000000 0.020000
0.747500 0.000000 0.020000
0.805000 0.000000 0.020000
0.862500 0.000000 0.020000
0.920000 0.000000 0.020000
0.000000 0.062500 0.020000
0.057500 0.062500 0.020000
0.115000 0.062500 0.020000
0.172500 0.062500 0.020000
0.230000 0.062500 0.020000
0.287500 0.062500 0.020000
0.345000 0.062500 0.020000
0.402500 0.062500 0.020000
0.460000 0.062500 0.020000
0.517500 0.062500 0.020000
0.575000 0.062500 0.020000
0.632500 0.062500 0.020000
0.690000 0.062500 0.020000
0.747500 0.062500 0.020000
0.805000 0.062500 0.020000
0.862500 0.062500 0.020000
0.920000 0.062500 0.020000
0.000000 0.125000 0.020000
0.057500 0.125000 0.020000
0.115000 0.125000 0.020000
0.172500 0.125000 0.020000
0.230000 0.125000 0.020000
0.287500 0.125000 0.020000
0.345000 0.125000 0.020000
0.402500 0.125000 0.020000
0.460000 0.125000 0.020000
0.517500 0.125000 0.020000
0.575000 0.125000 0.020000
0.632500 0.125000 0.020000
0.690000 0.125000 0.020000
0.747500 0.125000 0.020000
0.805000 0.125000 0.020000
0.862500 0.125000 0.020000
0.920000 0.125000 0.020000
0.000000 0.187500 0.020000
0.057500 0.187500 0.020000
0.115000 0.187500 0.020000
0.172500 0.187500 0.020000
0.230000 0.187500 0.020000
0.287500 0.187500 0.020000
0.345000 0.187500 0.020000
0.402500 0.187500 0.020000
0.460000 0.187500 0.020000
0.517500 0.187500 0.020000
0.575000 0.187500 0.020000
0.632500 0.187500 0.020000
0.690000 0.187500 0.020000
0.747500 0.187500 0.020000
0.805000 0.187500 0.020000
0.862500 0.187500 0.020000
0.920000 0.187500 0.020000
0.000000 0.250000 0.020000
0.057500 0.250000 0.020000
0.115000 0.250000 0.020000
0.172500 0.250000 0.020000
0.230000 0.250000 0.020000
0.287500 0.250000 0.020000
0.345000 0.250000 0.020000
0.402500 0.250000 0.020000
0.460000 0.250000 0.020000
0.517500 0.250000 0.020000
0.575000 0.250000 0.020000
0.632500 0.250000 0.020000
0.690000 0.250000 0.020000
0.747500 0.250000 0.020000
0.805000 0.250000 0.020000
0.862500 0.250000 0.020000
0.920000 0.250000 0.020000
0.000000 0.312500 0.020000
0.057500 0.312500 0.020000
0.115000 0.312500 0.020000
0.172500 0.312500 0.020000
0.230000 0.312500 0.020000
0.287500 0.312500 0.020000
0.345000 0.312500 0.020000
0.402500 0.312500 0.020000
0.460000 0.312500 0.020000
0.517500 0.312500 0.020000
0.575000 0.312500 0.020000
0.632500 0.312500 0.020000
0.690000 0.312500 0.020000
0.747500 0.312500 0.020000
0.805000 0.312500 0.020000
0.862500 0.312500 0.020000
0.920000 0.312500 0.020000
0.000000 0.375000 0.020000
0.057500 0.375000 0.020000
0.115000 0.375000 0.020000
0.172500 0.375000 0.020000
0.230000 0.375000 0.020000
0.287500 0.375000 0.020000
0.345000 0.375000 0.020000
0.402500 0.375000 0.020000
0.460000 0.375000 0.020000
0.517500 0.375000 0.020000
0.575000 0.375000 0.020000
0.632500 0.375000 0.020000
0.690000 0.375000 0.020000
0.747500 0.375000 0.020000
0.805000 0.375000 0.020000
0.862500 0.375000 0.020000
0.920000 0.375000 0.020000
0.000000 0.437500 0.020000
0.057500 0.437500 0.020000
0.115000 0.437500 0.020000
0.172500 0.437500 0.020000
0.230000 0.437500 0.020000
0.287500 0.437500 0.020000
0.345000 0.437500 0.020000
0.402500 0.437500 0.020000
0.460000 0.437500 0.020000
0.517500 0.437500 0.020000
0.575000 0.437500 0.020000
0.632500 0.437500 0.020000
0.690000 0.437500 0.020000
0.747500 0.437500 0.020000
0.805000 0.437500 0.020000
0.862500 0.437500 0.020000
0.920000 0.437500 0.020000
0.000000 0.500000 0.020000
0.057500 0.500000 0.020000
0.115000 0.500000 0.020000
0.172500 0.500000 0.020000
0.230000 0.500000 0.020000
0.287500 0.500000 0.020000
0.345000 0.500000 0.020000
0.402500 0.500000 0.020000
0.460000 0.500000 0.020000
0.517500 0.500000 0.020000
0.575000 0.500000 0.020000
0.632500 0.500000 0.020000
0.690000 0.500000 0.020000
0.747500 0.500000 0.020000
0.805000 0.500000 0.020000
0.862500 0.500000 0.020000
0.920000 0.500000 0.020000
0.000000 0.562500 0.020000
0.057500 0.562500 0.020000
0.115000 0.562500 0.020000
0.172500 0.562500 0.020000
0.230000 0.562500 0.020000
0.287500 0.562500 0.020000
0.345000 0.562500 0.020000
0.402500 0.562500 0.020000
0.460000 0.562500 0.020000
0.517500 0.562500 0.020000
0.575000 0.562500 0.020000
0.632500 0.562500 0.020000
0.690000 0.562500 0.020000
0.747500 0.562500 0.020000
0.805000 0.562500 0.020000
0.862500 0.562500 0.020000
0.920000 0.562500 0.020000
0.000000 0.625000 0.020000
0.057500 0.625000 0.020000
0.115000 0.625000 0.020000
0.172500 0.625000 0.020000
0.230000 0.625000 0.020000
0.287500 0.625000 0.020000
0.345000 0.625000 0.020000
0.402500 0.625000 0.020000
0.460000 0.625000 0.020000
0.517500 0.625000 0.020000
0.575000 0.625000 0.020000
0.632500 0.625000 0.020000
0.690000 0.625000 0.020000
0.747500 0.625000 0.020000
0.805000 0.625000 0.020000
0.862500 0.625000 0.020000
0.920000 0.625000 0.020000
0.000000 0.687500 0.020000
0.057500 0.687500 0.020000
0.115000 0.687500 0.020000
0.172500 0.687500 0.020000
0.230000 0.687500 0.020000
0.287500 0.687500 0.020000
0.345000 0.687500 0.020000
0.402500 0.687500 0.020000
0.460000 0.687500 0.020000
0.517500 0.687500 0.020000
0.575000 0.687500 0.020000
0.632500 0.687500 0.020000
0.690000 0.687500 0.020000
0.747500 0.687500 0.020000
0.805000 0.687500 0.020000
0.862500 0.687500 0.020000
0.920000 0.687500 0.020000
0.000000 0.750000 0.020000
0.057500 0.750000 0.020000
0.115000 0.750000 0.020000
0.172500 0.750000 0.020000
0.230000 0.750000 0.020000
0.287500 0.750000 0.020000
0.345000 0.750000 0.020000
0.402500 0.750000 0.020000
0.460000 0.750000 0.020000
0.517500 0.750000 0.020000
0.575000 0.750000 0.020000
0.632500 0.750000 0.020000
0.690000 0.750000 0.020000
0.747500 0.750000 0.020000
0.805000 0.750000 0.020000
0.862500 0.750000 0.020000
0.920000 0.750000 0.020000
0.000000 0.812500 0.020000
0.057500 0.812500 0.020000
0.115000 0.812500 0.020000
0.172500 0.812500 0.020000
0.230000 0.812500 0.020000
0.287500 0.812500 0.020000
0.345000 0.812500 0.020000
0.402500 0.812500 0.020000
0.460000 0.812500 0.020000
0.517500 0.812500 0.020000
0.575000 0.812500 0.020000
0.632500 0.812500 0.020000
0.690000 0.812500 0.020000
0.747500 0.812500 0.020000
0.805000 0.812500 0.020000
0.862500 0.812500 0.020000
0.920000 0.812500 0.020000
0.000000 0.875000 0.020000
0.057500 0.875000 0.020000
0.115000 0.875000 0.020000
0.172500 0.875000 0.020000
0.230000 0.875000 0.020000
0.287500 0.875000 0.020000
0.345000 0.875000 0.020000
0.402500 0.875000 0.020000
0.460000 0.875000 0.020000
0.517500 0.875000 0.020000
0.575000 0.875000 0.020000
0.632500 0.875000 0.020000
0.690000 0.875000 0.020000
0.747500 0.875000 0.020000
0.805000 0.875000 0.020000
0.862500 0.875000 0.020000
0.920000 0.875000 0.020000
0.000000 0.937500 0.020000
0.057500 0.937500 0.020000
0.115000 0.937500 0.020000
0.172500 0.937500 0.020000
0.230000 0.937500 0.020000
0.287500 0.937500 0.020000
0.345000 0.937500 0.020000
0.402500 0.937500 0.020000
0.460000 0.937500 0.020000
0.517500 0.937500 0.020000
0.575000 0.937500 0.020000
0.632500 0.937500 0.020000
0.690000 0.937500 0.020000
0.747500 0.937500 0.020000
0.805000 0.937500 0.020000
0.862500 0.937500 0.020000
0.920000 0.937500 0.020000
0.000000 1.000000 0.020000
0.057500 1.000000 0.020000
0.115000 1.000000 0.020000
0.172500 1.000000 0.020000
0.230000 1.000000 0.020000
0.287500 1.000000 0.020000
0.345000 1.000000 0.020000
0.402500 1.000000 0.020000
0.460000 1.000000 0.020000
0.517500 1.000000 0.020000
0.575000 1.000000 0.020000
0.632500 1.000000 0.020000
0.690000 1.000000 0.020000
0.747500 1.000000 0.020000
0.805000 1.000000 0.020000
0.862500 1.000000 0.020000
0.920000 1.000000 0.020000
0.000000 0.000000 0.088750
0.057500 0.000000 0.088750
0.115000 0.000000 0.088750
0.172500 0.000000 0.088750
0.230000 0.000000 0.088750
0.287500 0.000000 0.088750
0.345000 0.000000 0.088750
0.402500 0.000000 0.088750
0.460000 0.000000 0.088750
0.517500 0.000000 0.088750
0.575000 0.000000 0.088750
0.632500 0.000000 0.088750
0.690000 0.000000 0.088750
0.747500 0.000000 0.088750
0.805000 0.000000 0.088750
0.862500 0.000000 0.088750
0.920000 0.000000 0.088750
0.000000 0.062500 0.088750
0.057500 0.062500 0.088750
0.115000 0.062500 0.088750
0.172500 0.062500 0.088750
0.230000 0.062500 0.088750
0.287500 0.062500 0.088750
0.345000 0.062500 0.088750
0.402500 0.062500 0.088750
0.460000 0.062500 0.088750
0.517500 0.062500 0.088750
0.575000 0.062500 0.088750
0.632500 0.062500 0.088750
0.690000 0.062500 0.088750
0.747500 0.062500 0.088750
0.805000 0.062500 0.088750
0.862500 0.062500 0.088750
0.920000 0.062500 0.088750
0.000000 0.125000 0.088750
0.057500 0.125000 0.088750
0.115000 0.125000 0.088750
0.172500 0.125000 0.088750
0.230000 0.125000 0.088750
0.287500 0.125000 0.088750
0.345000 0.125000 0.088750
0.402500 0.125000 0.088750
0.460000 0.125000 0.088750
0.517500 0.125000 0.088750
0.575000 0.125000 0.088750
0.632500 0.125000 0.088750
0.690000 0.125000 0.088750
0.747500 0.125000 0.088750
0.805000 0.125000 0.088750
0.862500 0.125000 0.088750
0.920000 0.125000 0.088750
0.000000 0.187500 0.088750
0.057500 0.187500 0.088750
0.115000 0.187500 0.088750
0.172500 0.187500 0.088750
0.230000 0.187500 0.088750
0.287500 0.187500 0.088750
0.345000 0.187500 0.088750
0.402500 0.187500 0.088750
0.460000 0.187500 0.088750
0.517500 0.187500 0.088750
0.575000 0.187500 0.088750
0.632500 0.187500 0.088750
0.690000 0.187500 0.088750
0.747500 0.187500 0.088750
0.805000 0.187500 0.088750
0.862500 0.187500 0.088750
0.920000 0.187500 0.088750
0.000000 0.250000 0.088750
0.057500 0.250000 0.088750
0.115000 0.250000 0.088750
0.172500 0.250000 0.088750
0.230000 0.250000 0.088750
0.287500 0.250000 0.088750
0.345000 0.250000 0.088750
0.402500 0.250000 0.088750
0.460000 0.250000 0.088750
0.517500 0.250000 0.088750
0.575000 0.250000 0.088750
0.632500 0.250000 0.088750
0.690000 0.250000 0.088750
0.747500 0.250000 0.088750
0.805000 0.250000 0.088750
0.862500 0.250000 0.088750
0.920000 0.250000 0.088750
0.000000 0.312500 0.088750
0.057500 0.312500 0.088750
0.115000 0.312500 0.088750
0.172500 0.312500 0.088750
0.230000 0.312500 0.088750
0.287500 0.312500 0.088750
0.345000 0.312500 0.088750
0.402500 0.312500 0.088750
0.460000 0.312500 0.088750
0.517500 0.312500 0.088750
0.575000 0.312500 0.088750
0.632500 0.312500 0.088750
0.690000 0.312500 0.088750
0.747500 0.312500 0.088750
0.805000 0.312500 0.088750
0.862500 0.312500 0.088750
0.920000 0.312500 0.088750
0.000000 0.375000 0.088750
0.057500 0.375000 0.088750
0.115000 0.375000 0.088750
0.172500 0.375000 0.088750
0.230000 0.375000 0.088750
0.287500 0.375000 0.088750
0.345000 0.375000 0.088750
0.402500 0.375000 0.088750
0.460000 0.375000 0.088750
0.517500 0.375000 0.088750
0.575000 0.375000 0.088750
0.632500 0.375000 0.088750
0.690000 0.375000 0.088750
0.747500 0.375000 0.088750
0.805000 0.375000 0.088750
0.862500 0.375000 0.088750
0.920000 0.375000 0.088750
0.000000 0.437500 0.088750
0.057500 0.437500 0.088750
0.115000 0.437500 0.088750
0.172500 0.437500 0.088750
0.230000 0.437500 0.088750
0.287500 0.437500 0.088750
0.345000 0.437500 0.088750
0.402500 0.437500 0.088750
0.460000 0.437500 0.088750
0.517500 0.437500 0.088750
0.575000 0.437500 0.088750
0.632500 0.437500 0.088750
0.690000 0.437500 0.088750
0.747500 0.437500 0.088750
0.805000 0.437500 0.088750
0.862500 0.437500 0.088750
0.920000 0.437500 0.088750
0.000000 0.500000 0.088750
0.057500 0.500000 0.088750
0.115000 0.500000 0.088750
0.172500 0.500000 0.088750
0.230000 0.500000 0.088750
0.287500 0.500000 0.088750
0.345000 0.500000 0.088750
0.402500 0.500000 0.088750
0.460000 0.500000 0.088750
0.517500 0.500000 0.088750
0.575000 0.500000 0.088750
0.632500 0.500000 0.088750
0.690000 0.500000 0.088750
0.747500 0.500000 0.088750
0.805000 0.500000 0.088750
0.862500 0.500000 0.088750
0.920000 0.500000 0.088750
0.000000 0.562500 0.088750
0.057500 0.562500 0.088750
0.115000 0.562500 0.088750
0.172500 0.562500 0.088750
0.230000 0.562500 0.088750
0.287500 0.562500 0.088750
0.345000 0.562500 0.088750
0.402500 0.562500 0.088750
0.460000 0.562500 0.088750
0.517500 0.562500 0.088750
0.575000 0.562500 0.088750
0.632500 0.562500 0.088750
0.690000 0.562500 0.088750
0.747500 0.562500 0.088750
0.805000 0.562500 0.088750
0.862500 0.562500 0.088750
0.920000 0.562500 0.088750
0.000000 0.625000 0.088750
0.057500 0.625000 0.088750
0.115000 0.625000 0.088750
0.172500 0.625000 0.088750
0.230000 0.625000 0.088750
0.287500 0.625000 0.088750
0.345000 0.625000 0.088750
0.402500 0.625000 0.088750
0.460000 0.625000 0.088750
0.517500 0.625000 0.088750
0.575000 0.625000 0.088750
0.632500 0.625000 0.088750
0.690000 0.625000 0.088750
0.747500 0.625000 0.088750
0.805000 0.625000 0.088750
0.862500 0.625000 0.088750
0.920000 0.625000 0.088750
0.000000 0.687500 0.088750
0.057500 0.687500 0.088750
0.115000 0.687500 0.088750
0.172500 0.687500 0.088750
0.230000 0.687500 0.088750
0.287500 0.687500 0.088750
0.345000 0.687500 0.088750
0.402500 0.687500 0.088750
0.460000 0.687500 0.088750
0.517500 0.687500 0.088750
0.575000 0.687500 0.088750
0.632500 0.687500 0.088750
0.690000 0.687500 0.088750
0.747500 0.687500 0.088750
0.805000 0.687500 0.088750
0.862500 0.687500 0.088750
0.920000 0.687500 0.088750
0.000000 0.750000 0.088750
0.057500 0.750000 0.088750
0.115000 0.750000 0.088750
0.172500 0.750000 0.088750
0.230000 0.750000 0.088750
0.287500 0.750000 0.088750
0.345000 0.750000 0.088750
0.402500 0.750000 0.088750
0.460000 0.750000 0.088750
0.517500 0.750000 0.088750
0.575000 0.750000 0.088750
0.632500 0.750000 0.088750
0.690000 0.750000 0.088750
0.747500 0.750000 0.088750
0.805000 0.750000 0.088750
0.862500 0.750000 0.088750
0.920000 0.750000 0.088750
0.000000 0.812500 0.088750
0.057500 0.812500 0.088750
0.115000 0.812500 0.088750
0.172500 0.812500 0.088750
0.230000 0.812500 0.088750
0.287500 0.812500 0.088750
0.345000 0.812500 0.088750
0.402500 0.812500 0.088750
0.460000 0.812500 0.088750
0.517500 0.812500 0.088750
0.575000 0.812500 0.088750
0.632500 0.812500 0.088750
0.690000 0.812500 0.088750
0.747500 0.812500 0.088750
0.805000 0.812500 0.088750
0.862500 0.812500 0.088750
0.920000 0.812500 0.088750
0.000000 0.875000 0.088750
0.057500 0.875000 0.088750
0.115000 0.875000 0.088750
0.172500 0.875000 0.088750
0.230000 0.875000 0.088750
0.287500 0.875000 0.088750
0.345000 0.875000 0.088750
0.402500 0.875000 0.088750
0.460000 0.875000 0.088750
0.517500 0.875000 0.088750
0.575000 0.875000 0.088750
0.632500 0.875000 0.088750
0.690000 0.875000 0.088750
0.747500 0.875000 0.088750
0.805000 0.875000 0.088750
0.862500 0.875000 0.088750
0.920000 0.875000 0.088750
0.000000 0.937500 0.088750
0.057500 0.937500 0.088750
0.115000 0.937500 0.088750
0.172500 0.937500 0.088750
0.230000 0.937500 0.088750
0.287500 0.937500 0.088750
0.345000 0.937500 0.088750
0.402500 0.937500 0.088750
0.460000 0.937500 0.088750
0.517500 0.937500 0.088750
0.575000 0.937500 0.088750
0.632500 0.937500 0.088750
0.690000 0.937500 0.088750
0.747500 0.937500 0.088750
0.805000 0.937500 0.088750
0.862500 0.937500 0.088750
0.920000 0.937500 0.088750
0.000000 1.000000 0.088750
0.057500 1.000000 0.088750
0.115000 1.000000 0.088750
0.172500 1.000000 0.088750
0.230000 1.000000 0.088750
0.287500 1.000000 0.088750
0.345000 1.000000 0.088750
0.402500 1.000000 0.088750
0.460000 1.000000 0.088750
0.517500 1.000000 0.088750
0.575000 1.000000 0.088750
0.632500 1.000000 0.088750
0.690000 1.000000 0.088750
0.747500 1.000000 0.088750
0.805000 1.000000 0.088750
0.862500 1.000000 0.088750
0.920000 1.000000 0.088750
0.000000 0.000000 0.157500
0.057500 0.000000 0.157500
0.115000 0.000000 0.157500
0.172500 0.000000 0.157500
0.230000 0.000000 0.157500
0.287500 0.000000 0.157500
0.345000 0.000000 0.157500
0.402500 0.000000 0.157500
0.460000 0.000000 0.157500
0.517500 0.000000 0.157500
0.575000 0.000000 0.157500
0.632500 0.000000 0.157500
0.690000 0.000000 0.157500
0.747500 0.000000 0.157500
0.805000 0.000000 0.157500
0.862500 0.000000 0.157500
0.920000 0.000000 0.157500
0.000000 0.062500 0.157500
0.057500 0.062500 0.157500
0.115000 0.062500 0.157500
0.172500 0.062500 0.157500
0.230000 0.062500 0.157500
0.287500 0.062500 0.157500
0.345000 0.062500 0.157500
0.402500 0.062500 0.157500
0.460000 0.062500 0.157500
0.517500 0.062500 0.157500
0.575000 0.062500 0.157500
0.632500 0.062500 0.157500
0.690000 0.062500 0.157500
0.747500 0.062500 0.157500
0.805000 0.062500 0.157500
0.862500 0.062500 0.157500
0.920000 0.062500 0.157500
0.000000 0.125000 0.157500
0.057500 0.125000 0.157500
0.115000 0.125000 0.157500
0.172500 0.125000 0.157500
0.230000 0.125000 0.157500
0.287500 0.125000 0.157500
0.345000 0.125000 0.157500
0.402500 0.125000 0.157500
0.460000 0.125000 0.157500
0.517500 0.125000 0.157500
0.575000 0.125000 0.157500
0.632500 0.125000 0.157500
0.690000 0.125000 0.157500
0.747500 0.125000 0.157500
0.805000 0.125000 0.157500
0.862500 0.125000 0.157500
0.920000 0.125000 0.157500
0.000000 0.187500 0.157500
0.057500 0.187500 0.157500
0.115000 0.187500 0.157500
0.172500 0.187500 0.157500
0.230000 0.187500 0.157500
0.287500 0.187500 0.157500
0.345000 0.187500 0.157500
0.402500 0.187500 0.157500
0.460000 0.187500 0.157500
0.517500 0.187500 0.157500
0.575000 0.187500 0.157500
0.632500 0.187500 0.157500
0.690000 0.187500 0.157500
0.747500 0.187500 0.157500
0.805000 0.187500 0.157500
0.862500 0.187500 0.157500
0.920000 0.187500 0.157500
0.000000 0.250000 0.157500
0.057500 0.250000 0.157500
0.115000 0.250000 0.157500
0.172500 0.250000 0.157500
0.230000 0.250000 0.157500
0.287500 0.250000 0.157500
0.345000 0.250000 0.157500
0.402500 0.250000 0.157500
0.460000 0.250000 0.157500
0.517500 0.250000 0.157500
0.575000 0.250000 0.157500
0.632500 0.250000 0.157500
0.690000 0.250000 0.157500
0.747500 0.250000 0.157500
0.805000 0.250000 0.157500
0.862500 0.250000 0.157500
0.920000 0.250000 0.157500
0.000000 0.312500 0.157500
0.057500 0.312500 0.157500
0.115000 0.312500 0.157500
0.172500 0.312500 0.157500
0.230000 0.312500 0.157500
0.287500 0.312500 0.157500
0.345000 0.312500 0.157500
0.402500 0.312500 0.157500
0.460000 0.312500 0.157500
0.517500 0.312500 0.157500
0.575000 0.312500 0.157500
0.632500 0.312500 0.157500
0.690000 0.312500 0.157500
0.747500 0.312500 0.157500
0.805000 0.312500 0.157500
0.862500 0.312500 0.157500
0.920000 0.312500 0.157500
0.000000 0.375000 0.157500
0.057500 0.375000 0.157500
0.115000 0.375000 0.157500
0.172500 0.375000 0.157500
0.230000 0.375000 0.157500
0.287500 0.375000 0.157500
0.345000 0.375000 0.157500
0.402500 0.375000 0.157500
0.460000 0.375000 0.157500
0.517500 0.375000 0.157500
0.575000 0.375000 0.157500
0.632500 0.375000 0.157500
0.690000 0.375000 0.157500
0.747500 0.375000 0.157500
0.805000 0.375000 0.157500
0.862500 0.375000 0.157500
0.920000 0.375000 0.157500
0.000000 0.437500 0.157500
0.057500 0.437500 0.157500
0.115000 0.437500 0.157500
0.172500 0.437500 0.157500
0.230000 0.437500 0.157500
0.287500 0.437500 0.157500
0.345000 0.437500 0.157500
0.402500 0.437500 0.157500
0.460000 0.437500 0.157500
0.517500 0.437500 0.157500
0.575000 0.437500 0.157500
0.632500 0.437500 0.157500
0.690000 0.437500 0.157500
0.747500 0.437500 0.157500
0.805000 0.437500 0.157500
0.862500 0.437500 0.157500
0.920000 0.437500 0.157500
0.000000 0.500000 0.157500
0.057500 0.500000 0.157500
0.115000 0.500000 0.157500
0.172500 0.500000 0.157500
0.230000 0.500000 0.157500
0.287500 0.500000 0.157500
0.345000 0.500000 0.157500
0.402500 0.500000 0.157500
0.460000 0.500000 0.157500
0.517500 0.500000 0.157500
0.575000 0.500000 0.157500
0.632500 0.500000 0.157500
0.690000 0.500000 0.157500
0.747500 0.500000 0.157500
0.805000 0.500000 0.157500
0.862500 0.500000 0.157500
0.920000 0.500000 0.157500
0.000000 0.562500 0.157500
0.057500 0.562500 0.157500
0.115000 0.562500 0.157500
0.172500 0.562500 0.157500
0.230000 0.562500 0.157500
0.287500 0.562500 0.157500
0.345000 0.562500 0.157500
0.402500 0.562500 0.157500
0.460000 0.562500 0.157500
0.517500 0.562500 0.157500
0.575000 0.562500 0.157500
0.632500 0.562500 0.157500
0.690000 0.562500 0.157500
0.747500 0.562500 0.157500
0.805000 0.562500 0.157500
0.862500 0.562500 0.157500
0.920000 0.562500 0.157500
0.000000 0.625000 0.157500
0.057500 0.625000 0.157500
0.115000 0.625000 0.157500
0.172500 0.625000 0.157500
0.230000 0.625000 0.157500
0.287500 0.625000 0.157500
0.345000 0.625000 0.157500
0.402500 0.625000 0.157500
0.460000 0.625000 0.157500
0.517500 0.625000 0.157500
0.575000 0.625000 0.157500
0.632500 0.625000 0.157500
0.690000 0.625000 0.157500
0.747500 0.625000 0.157500
0.805000 0.625000 0.157500
0.862500 0.625000 0.157500
0.920000 0.625000 0.157500
0.000000 0.687500 0.157500
0.057500 0.687500 0.157500
0.115000 0.687500 0.157500
0.172500 0.687500 0.157500
0.230000 0.687500 0.157500
0.287500 0.687500 0.157500
0.345000 0.687500 0.157500
0.402500 0.687500 0.157500
0.460000 0.687500 0.157500
0.517500 0.687500 0.157500
0.575000 0.687500 0.157500
0.632500 0.687500 0.157500
0.690000 0.687500 0.157500
0.747500 0.687500 0.157500
0.805000 0.687500 0.157500
0.862500 0.687500 0.157500
0.920000 0.687500 0.157500
0.000000 0.750000 0.157500
0.057500 0.750000 0.157500
0.115000 0.750000 0.157500
0.172500 0.750000 0.157500
0.230000 0.750000 0.157500
0.287500 0.750000 0.157500
0.345000 0.750000 0.157500
0.402500 0.750000 0.157500
0.460000 0.750000 0.157500
0.517500 0.750000 0.157500
0.575000 0.750000 0.157500
0.632500 0.750000 0.157500
0.690000 0.750000 0.157500
0.747500 0.750000 0.157500
0.805000 0.750000 0.157500
0.862500 0.750000 0.157500
0.920000 0.750000 0.157500
0.000000 0.812500 0.157500
0.057500 0.812500 0.157500
0.115000 0.812500 0.157500
0.172500 0.812500 0.157500
0.230000 0.812500 0.157500
0.287500 0.812500 0.157500
0.345000 0.812500 0.157500
0.402500 0.812500 0.157500
0.460000 0.812500 0.157500
0.517500 0.812500 0.157500
0.575000 0.812500 0.157500
0.632500 0.812500 0.157500
0.690000 0.812500 0.157500
0.747500 0.812500 0.157500
0.805000 0.812500 0.157500
0.862500 0.812500 0.157500
0.920000 0.812500 0.157500
0.000000 0.875000 0.157500
0.057500 0.875000 0.157500
0.115000 0.875000 0.157500
0.172500 0.875000 0.157500
0.230000 0.875000 0.157500
0.287500 0.875000 0.157500
0.345000 0.875000 0.157500
0.402500 0.875000 0.157500
0.460000 0.875000 0.157500
0.517500 0.875000 0.157500
0.575000 0.875000 0.157500
0.632500 0.875000 0.157500
0.690000 0.875000 0.157500
0.747500 0.875000 0.157500
0.805000 0.875000 0.157500
0.862500 0.875000 0.157500
0.920000 0.875000 0.157500
0.000000 0.937500 0.157500
0.057500 0.937500 0.157500
0.115000 0.937500 0.157500
0.172500 0.937500 0.157500
0.230000 0.937500 0.157500
0.287500 0.937500 0.157500
0.345000 0.937500 0.157500
0.402500 0.937500 0.157500
0.460000 0.937500 0.157500
0.517500 0.937500 0.157500
0.575000 0.937500 0.157500
0.632500 0.937500 0.157500
0.690000 0.937500 0.157500
0.747500 0.937500 0.157500
0.805000 0.937500 0.157500
0.862500 0.937500 0.157500
0.920000 0.937500 0.157500
0.000000 1.000000 0.157500
0.057500 1.000000 0.157500
0.115000 1.000000 0.157500
0.172500 1.000000 0.157500
0.230000 1.000000 0.157500
0.287500 1.000000 0.157500
0.345000 1.000000 0.157500
0.402500 1.000000 0.157500
0.460000 1.000000 0.157500
0.517500 1.000000 0.157500
0.575000 1.000000 0.157500
0.632500 1.000000 0.157500
0.690000 1.000000 0.157500
0.747500 1.000000 0.157500
0.805000 1.000000 0.157500
0.862500 1.000000 0.157500
0.920000 1.000000 0.157500
0.000000 0.000000 0.226250
0.057500 0.000000 0.226250
0.115000 0.000000 0.226250
0.172500 0.000000 0.226250
0.230000 0.000000 0.226250
0.287500 0.000000 0.226250
0.345000 0.000000 0.226250
0.402500 0.000000 0.226250
0.460000 0.000000 0.226250
0.517500 0.000000 0.226250
0.575000 0.000000 0.226250
0.632500 0.000000 0.226250
0.690000 0.000000 0.226250
0.747500 0.000000 0.226250
0.805000 0.000000 0.226250
0.862500 0.000000 0.226250
0.920000 0.000000 0.226250
0.000000 0.062500 0.226250
