app/assets/luts/warm.cube
TITLE "Warm / Golden Hour"
LUT_3D_SIZE 9
DOMAIN_MIN 0.0 0.0 0.0
DOMAIN_MAX 1.0 1.0 1.0
0.020000 0.000000 0.000000
0.155000 0.000000 0.000000
0.290000 0.000000 0.000000
0.425000 0.000000 0.000000
0.560000 0.000000 0.000000
0.695000 0.000000 0.000000
0.830000 0.000000 0.000000
0.965000 0.000000 0.000000
1.000000 0.000000 0.000000
0.020000 0.127500 0.000000
0.155000 0.127500 0.000000
0.290000 0.127500 0.000000
0.425000 0.127500 0.000000
0.560000 0.127500 0.000000
0.695000 0.127500 0.000000
0.830000 0.127500 0.000000
0.965000 0.127500 0.000000
1.000000 0.127500 0.000000
0.020000 0.255000 0.000000
0.155000 0.255000 0.000000
0.290000 0.255000 0.000000
0.425000 0.255000 0.000000
0.560000 0.255000 0.000000
0.695000 0.255000 0.000000
0.830000 0.255000 0.000000
0.965000 0.255000 0.000000
1.000000 0.255000 0.000000
0.020000 0.382500 0.000000
0.155000 0.382500 0.000000
0.290000 0.382500 0.000000
0.425000 0.382500 0.000000
0.560000 0.382500 0.000000
0.695000 0.382500 0.000000
0.830000 0.382500 0.000000
0.965000 0.382500 0.000000
1.000000 0.382500 0.000000
0.020000 0.510000 0.000000
0.155000 0.510000 0.000000
0.290000 0.510000 0.000000
0.425000 0.510000 0.000000
0.560000 0.510000 0.000000
0.695000 0.510000 0.000000
0.830000 0.510000 0.000000
0.965000 0.510000 0.000000
1.000000 0.510000 0.000000
0.020000 0.637500 0.000000
0.155000 0.637500 0.000000
0.290000 0.637500 0.000000
0.425000 0.637500 0.000000
0.560000 0.637500 0.000000
0.695000 0.637500 0.000000
0.830000 0.637500 0.000000
0.965000 0.637500 0.000000
1.000000 0.637500 0.000000
0.020000 0.765000 0.000000
0.155000 0.765000 0.000000
0.290000 0.765000 0.000000
0.425000 0.765000 0.000000
0.560000 0.765000 0.000000
0.695000 0.765000 0.000000
0.830000 0.765000 0.000000
0.965000 0.765000 0.000000
1.000000 0.765000 0.000000
0.020000 0.892500 0.000000
0.155000 0.892500 0.000000
0.290000 0.892500 0.000000
0.425000 0.892500 0.000000
0.560000 0.892500 0.000000
0.695000 0.892500 0.000000
0.830000 0.892500 0.000000
0.965000 0.892500 0.000000
1.000000 0.892500 0.000000
0.020000 1.000000 0.000000
0.155000 1.000000 0.000000
0.290000 1.000000 0.000000
0.425000 1.000000 0.000000
0.560000 1.000000 0.000000
0.695000 1.000000 0.000000
0.830000 1.000000 0.000000
0.965000 1.000000 0.000000
1.000000 1.000000 0.000000
0.020000 0.000000 0.112500
0.155000 0.000000 0.112500
0.290000 0.000000 0.112500
0.425000 0.000000 0.112500
0.560000 0.000000 0.112500
0.695000 0.000000 0.112500
0.830000 0.000000 0.112500
0.965000 0.000000 0.112500
1.000000 0.000000 0.112500
0.020000 0.127500 0.112500
0.155000 0.127500 0.112500
0.290000 0.127500 0.112500
0.425000 0.127500 0.112500
0.560000 0.127500 0.112500
0.695000 0.127500 0.112500
0.830000 0.127500 0.112500
0.965000 0.127500 0.112500
1.000000 0.127500 0.112500
0.020000 0.255000 0.112500
0.155000 0.255000 0.112500
0.290000 0.255000 0.112500
0.425000 0.255000 0.112500
0.560000 0.255000 0.112500
0.695000 0.255000 0.112500
0.830000 0.255000 0.112500
0.965000 0.255000 0.112500
1.000000 0.255000 0.112500
0.020000 0.382500 0.112500
0.155000 0.382500 0.112500
0.290000 0.382500 0.112500
0.425000 0.382500 0.112500
0.560000 0.382500 0.112500
0.695000 0.382500 0.112500
0.830000 0.382500 0.112500
0.965000 0.382500 0.112500
1.000000 0.382500 0.112500
0.020000 0.510000 0.112500
0.155000 0.510000 0.112500
0.290000 0.510000 0.112500
0.425000 0.510000 0.112500
0.560000 0.510000 0.112500
0.695000 0.510000 0.112500
0.830000 0.510000 0.112500
0.965000 0.510000 0.112500
1.000000 0.510000 0.112500
0.020000 0.637500 0.112500
0.155000 0.637500 0.112500
0.290000 0.637500 0.112500
0.425000 0.637500 0.112500
0.560000 0.637500 0.112500
0.695000 0.637500 0.112500
0.830000 0.637500 0.112500
0.965000 0.637500 0.112500
1.000000 0.637500 0.112500
0.020000 0.765000 0.112500
0.155000 0.765000 0.112500
0.290000 0.765000 0.112500
0.425000 0.765000 0.112500
0.560000 0.765000 0.112500
0.695000 0.765000 0.112500
0.830000 0.765000 0.112500
0.965000 0.765000 0.112500
1.000000 0.765000 0.112500
0.020000 0.892500 0.112500
0.155000 0.892500 0.112500
0.290000 0.892500 0.112500
0.425000 0.892500 0.112500
0.560000 0.892500 0.112500
0.695000 0.892500 0.112500
0.830000 0.892500 0.112500
0.965000 0.892500 0.112500
1.000000 0.892500 0.112500
0.020000 1.000000 0.112500
0.155000 1.000000 0.112500
0.290000 1.000000 0.112500
0.425000 1.000000 0.112500
0.560000 1.000000 0.112500
0.695000 1.000000 0.112500
0.830000 1.000000 0.112500
0.965000 1.000000 0.112500
1.000000 1.000000 0.112500
0.020000 0.000000 0.225000
0.155000 0.000000 0.225000
0.290000 0.000000 0.225000
0.425000 0.000000 0.225000
0.560000 0.000000 0.225000
0.695000 0.000000 0.225000
0.830000 0.000000 0.225000
0.965000 0.000000 0.225000
1.000000 0.000000 0.225000
0.020000 0.127500 0.225000
0.155000 0.127500 0.225000
0.290000 0.127500 0.225000
0.425000 0.127500 0.225000
0.560000 0.127500 0.225000
0.695000 0.127500 0.225000
0.830000 0.127500 0.225000
0.965000 0.127500 0.225000
1.000000 0.127500 0.225000
0.020000 0.255000 0.225000
0.155000 0.255000 0.225000
0.290000 0.255000 0.225000
0.425000 0.255000 0.225000
0.560000 0.255000 0.225000
0.695000 0.255000 0.225000
0.830000 0.255000 0.225000
0.965000 0.255000 0.225000
1.000000 0.255000 0.225000
0.020000 0.382500 0.225000
0.155000 0.382500 0.225000
0.290000 0.382500 0.225000
0.425000 0.382500 0.225000
0.560000 0.382500 0.225000
0.695000 0.382500 0.225000
0.830000 0.382500 0.225000
0.965000 0.382500 0.225000
1.000000 0.382500 0.225000
0.020000 0.510000 0.225000
0.155000 0.510000 0.225000
0.290000 0.510000 0.225000
0.425000 0.510000 0.225000
0.560000 0.510000 0.225000
0.695000 0.510000 0.225000
0.830000 0.510000 0.225000
0.965000 0.510000 0.225000
1.000000 0.510000 0.225000
0.020000 0.637500 0.225000
0.155000 0.637500 0.225000
0.290000 0.637500 0.225000
0.425000 0.637500 0.225000
0.560000 0.637500 0.225000
0.695000 0.637500 0.225000
0.830000 0.637500 0.225000
0.965000 0.637500 0.225000
1.000000 0.637500 0.225000
0.020000 0.765000 0.225000
0.155000 0.765000 0.225000
0.290000 0.765000 0.225000
0.425000 0.765000 0.225000
0.560000 0.765000 0.225000
0.695000 0.765000 0.225000
0.830000 0.765000 0.225000
0.965000 0.765000 0.225000
1.000000 0.765000 0.225000
0.020000 0.892500 0.225000
0.155000 0.892500 0.225000
0.290000 0.892500 0.225000
0.425000 0.892500 0.225000
0.560000 0.892500 0.225000
0.695000 0.892500 0.225000
0.830000 0.892500 0.225000
0.965000 0.892500 0.225000
1.000000 0.892500 0.225000
0.020000 1.000000 0.225000
0.155000 1.000000 0.225000
0.290000 1.000000 0.225000
0.425000 1.000000 0.225000
0.560000 1.000000 0.225000
0.695000 1.000000 0.225000
0.830000 1.000000 0.225000
0.965000 1.000000 0.225000
1.000000 1.000000 0.225000
0.020000 0.000000 0.337500
0.155000 0.000000 0.337500
0.290000 0.000000 0.337500
0.425000 0.000000 0.337500
0.560000 0.000000 0.337500
0.695000 0.000000 0.337500
0.830000 0.000000 0.337500
0.965000 0.000000 0.337500
1.000000 0.000000 0.337500
0.020000 0.127500 0.337500
0.155000 0.127500 0.337500
0.290000 0.127500 0.337500
0.425000 0.127500 0.337500
0.560000 0.127500 0.337500
0.695000 0.127500 0.337500
0.830000 0.127500 0.337500
0.965000 0.127500 0.337500
1.000000 0.127500 0.337500
0.020000 0.255000 0.337500
0.155000 0.255000 0.337500
0.290000 0.255000 0.337500
0.425000 0.255000 0.337500
0.560000 0.255000 0.337500
0.695000 0.255000 0.337500
0.830000 0.255000 0.337500
0.965000 0.255000 0.337500
1.000000 0.255000 0.337500
0.020000 0.382500 0.337500
0.155000 0.382500 0.337500
0.290000 0.382500 0.337500
0.425000 0.382500 0.337500
0.560000 0.382500 0.337500
0.695000 0.382500 0.337500
0.830000 0.382500 0.337500
0.965000 0.382500 0.337500
1.000000 0.382500 0.337500
0.020000 0.510000 0.337500
0.155000 0.510000 0.337500
0.290000 0.510000 0.337500
0.425000 0.510000 0.337500
0.560000 0.510000 0.337500
0.695000 0.510000 0.337500
0.830000 0.510000 0.337500
0.965000 0.510000 0.337500
1.000000 0.510000 0.337500
0.020000 0.637500 0.337500
0.155000 0.637500 0.337500
0.290000 0.637500 0.337500
0.425000 0.637500 0.337500
0.560000 0.637500 0.337500
0.695000 0.637500 0.337500
0.830000 0.637500 0.337500
0.965000 0.637500 0.337500
1.000000 0.637500 0.337500
0.020000 0.765000 0.337500
0.155000 0.765000 0.337500
0.290000 0.765000 0.337500
0.425000 0.765000 0.337500
0.560000 0.765000 0.337500
0.695000 0.765000 0.337500
0.830000 0.765000 0.337500
0.965000 0.765000 0.337500
1.000000 0.765000 0.337500
0.020000 0.892500 0.337500
0.155000 0.892500 0.337500
0.290000 0.892500 0.337500
0.425000 0.892500 0.337500
0.560000 0.892500 0.337500
0.695000 0.892500 0.337500
0.830000 0.892500 0.337500
0.965000 0.892500 0.337500
1.000000 0.892500 0.337500
0.020000 1.000000 0.337500
0.155000 1.000000 0.337500
0.290000 1.000000 0.337500
0.425000 1.000000 0.337500
0.560000 1.000000 0.337500
0.695000 1.000000 0.337500
0.830000 1.000000 0.337500
0.965000 1.000000 0.337500
1.000000 1.000000 0.337500
0.020000 0.000000 0.450000
0.155000 0.000000 0.450000
0.290000 0.000000 0.450000
0.425000 0.000000 0.450000
0.560000 0.000000 0.450000
0.695000 0.000000 0.450000
0.830000 0.000000 0.450000
0.965000 0.000000 0.450000
1.000000 0.000000 0.450000
0.020000 0.127500 0.450000
0.155000 0.127500 0.450000
0.290000 0.127500 0.450000
0.425000 0.127500 0.450000
0.560000 0.127500 0.450000
0.695000 0.127500 0.450000
0.830000 0.127500 0.450000
0.965000 0.127500 0.450000
1.000000 0.127500 0.450000
0.020000 0.255000 0.450000
0.155000 0.255000 0.450000
0.290000 0.255000 0.450000
0.425000 0.255000 0.450000
0.560000 0.255000 0.450000
0.695000 0.255000 0.450000
0.830000 0.255000 0.450000
0.965000 0.255000 0.450000
1.000000 0.255000 0.450000
0.020000 0.382500 0.450000
0.155000 0.382500 0.450000
0.290000 0.382500 0.450000
0.425000 0.382500 0.450000
0.560000 0.382500 0.450000
0.695000 0.382500 0.450000
0.830000 0.382500 0.450000
0.965000 0.382500 0.450000
1.000000 0.382500 0.450000
0.020000 0.510000 0.450000
0.155000 0.510000 0.450000
0.290000 0.510000 0.450000
0.425000 0.510000 0.450000
0.560000 0.510000 0.450000
0.695000 0.510000 0.450000
0.830000 0.510000 0.450000
0.965000 0.510000 0.450000
1.000000 0.510000 0.450000
0.020000 0.637500 0.450000
0.155000 0.637500 0.450000
0.290000 0.637500 0.450000
0.425000 0.637500 0.450000
0.560000 0.637500 0.450000
0.695000 0.637500 0.450000
0.830000 0.637500 0.450000
0.965000 0.637500 0.450000
1.000000 0.637500 0.450000
0.020000 0.765000 0.450000
0.155000 0.765000 0.450000
0.290000 0.765000 0.450000
0.425000 0.765000 0.450000
0.560000 0.765000 0.450000
0.695000 0.765000 0.450000
0.830000 0.765000 0.450000
0.965000 0.765000 0.450000
1.000000 0.765000 0.450000
0.020000 0.892500 0.450000
0.155000 0.892500 0.450000
0.290000 0.892500 0.450000
0.425000 0.892500 0.450000
0.560000 0.892500 0.450000
0.695000 0.892500 0.450000
0.830000 0.892500 0.450000
0.965000 0.892500 0.450000
1.000000 0.892500 0.450000
0.020000 1.000000 0.450000
0.155000 1.000000 0.450000
0.290000 1.000000 0.450000
0.425000 1.000000 0.450000
0.560000 1.000000 0.450000
0.695000 1.000000 0.450000
0.830000 1.000000 0.450000
0.965000 1.000000 0.450000
1.000000 1.000000 0.450000
0.020000 0.000000 0.562500
0.155000 0.000000 0.562500
0.290000 0.000000 0.562500
0.425000 0.000000 0.562500
0.560000 0.000000 0.562500
0.695000 0.000000 0.562500
0.830000 0.000000 0.562500
0.965000 0.000000 0.562500
1.000000 0.000000 0.562500
0.020000 0.127500 0.562500
0.155000 0.127500 0.562500
0.290000 0.127500 0.562500
0.425000 0.127500 0.562500
0.560000 0.127500 0.562500
0.695000 0.127500 0.562500
0.830000 0.127500 0.562500
0.965000 0.127500 0.562500
1.000000 0.127500 0.562500
0.020000 0.255000 0.562500
0.155000 0.255000 0.562500
0.290000 0.255000 0.562500
0.425000 0.255000 0.562500
0.560000 0.255000 0.562500
0.695000 0.255000 0.562500
0.830000 0.255000 0.562500
0.965000 0.255000 0.562500
1.000000 0.255000 0.562500
0.020000 0.382500 0.562500
0.155000 0.382500 0.562500
0.290000 0.382500 0.562500
0.425000 0.382500 0.562500
0.560000 0.382500 0.562500
0.695000 0.382500 0.562500
0.830000 0.382500 0.562500
0.965000 0.382500 0.562500
1.000000 0.382500 0.562500
0.020000 0.510000 0.562500
0.155000 0.510000 0.562500
0.290000 0.510000 0.562500
0.425000 0.510000 0.562500
0.560000 0.510000 0.562500
0.695000 0.510000 0.562500
0.830000 0.510000 0.562500
0.965000 0.510000 0.562500
1.000000 0.510000 0.562500
0.020000 0.637500 0.562500
0.155000 0.637500 0.562500
0.290000 0.637500 0.562500
0.425000 0.637500 0.562500
0.560000 0.637500 0.562500
0.695000 0.637500 0.562500
0.830000 0.637500 0.562500
0.965000 0.637500 0.562500
1.000000 0.637500 0.562500
0.020000 0.765000 0.562500
0.155000 0.765000 0.562500
0.290000 0.765000 0.562500
0.425000 0.765000 0.562500
0.560000 0.765000 0.562500
0.695000 0.765000 0.562500
0.830000 0.765000 0.562500
0.965000 0.765000 0.562500
1.000000 0.765000 0.562500
0.020000 0.892500 0.562500
0.155000 0.892500 0.562500
0.290000 0.892500 0.562500
0.425000 0.892500 0.562500
0.560000 0.892500 0.562500
0.695000 0.892500 0.562500
0.830000 0.892500 0.562500
0.965000 0.892500 0.562500
1.000000 0.892500 0.562500
0.020000 1.000000 0.562500
0.155000 1.000000 0.562500
0.290000 1.000000 0.562500
0.425000 1.000000 0.562500
0.560000 1.000000 0.562500
0.695000 1.000000 0.562500
0.830000 1.000000 0.562500
0.965000 1.000000 0.562500
1.000000 1.000000 0.562500
0.020000 0.000000 0.675000
0.155000 0.000000 0.675000
0.290000 0.000000 0.675000
0.425000 0.000000 0.675000
0.560000 0.000000 0.675000
0.695000 0.000000 0.675000
0.830000 0.000000 0.675000
0.965000 0.000000 0.675000
1.000000 0.000000 0.675000
0.020000 0.127500 0.675000
0.155000 0.127500 0.675000
0.290000 0.127500 0.675000
0.425000 0.127500 0.675000
0.560000 0.127500 0.675000
0.695000 0.127500 0.675000
0.830000 0.127500 0.675000
0.965000 0.127500 0.675000
1.000000 0.127500 0.675000
0.020000 0.255000 0.675000
0.155000 0.255000 0.675000
0.290000 0.255000 0.675000
0.425000 0.255000 0.675000
0.560000 0.255000 0.675000
0.695000 0.255000 0.675000
0.830000 0.255000 0.675000
0.965000 0.255000 0.675000
1.000000 0.255000 0.675000
0.020000 0.382500 0.675000
0.155000 0.382500 0.675000
0.290000 0.382500 0.675000
0.425000 0.382500 0.675000
0.560000 0.382500 0.675000
0.695000 0.382500 0.675000
0.830000 0.382500 0.675000
0.965000 0.382500 0.675000
1.000000 0.382500 0.675000
0.020000 0.510000 0.675000
0.155000 0.510000 0.675000
0.290000 0.510000 0.675000
0.425000 0.510000 0.675000
0.560000 0.510000 0.675000
0.695000 0.510000 0.675000
0.830000 0.510000 0.675000
0.965000 0.510000 0.675000
1.000000 0.510000 0.675000
0.020000 0.637500 0.675000
0.155000 0.637500 0.675000
0.290000 0.637500 0.675000
0.425000 0.637500 0.675000
0.560000 0.637500 0.675000
0.695000 0.637500 0.675000
0.830000 0.637500 0.675000
0.965000 0.637500 0.675000
1.000000 0.637500 0.675000
0.020000 0.765000 0.675000
0.155000 0.765000 0.675000
0.290000 0.765000 0.675000
0.425000 0.765000 0.675000
0.560000 0.765000 0.675000
0.695000 0.765000 0.675000
0.830000 0.765000 0.675000
0.965000 0.765000 0.675000
1.000000 0.765000 0.675000
0.020000 0.892500 0.675000
0.155000 0.892500 0.675000
0.290000 0.892500 0.675000
0.425000 0.892500 0.675000
0.560000 0.892500 0.675000
0.695000 0.892500 0.675000
0.830000 0.892500 0.675000
0.965000 0.892500 0.675000
1.000000 0.892500 0.675000
0.020000 1.000000 0.675000
0.155000 1.000000 0.675000
0.290000 1.000000 0.675000
0.425000 1.000000 0.675000
0.560000 1.000000 0.675000
0.695000 1.000000 0.675000
0.830000 1.000000 0.675000
0.965000 1.000000 0.675000
1.000000 1.000000 0.675000
0.020000 0.000000 0.787500
0.155000 0.000000 0.787500
0.290000 0.000000 0.787500
0.425000 0.000000 0.787500
0.560000 0.000000 0.787500
0.695000 0.000000 0.787500
0.830000 0.000000 0.787500
0.965000 0.000000 0.787500
1.000000 0.000000 0.787500
0.020000 0.127500 0.787500
0.155000 0.127500 0.787500
0.290000 0.127500 0.787500
0.425000 0.127500 0.787500
0.560000 0.127500 0.787500
0.695000 0.127500 0.787500
0.830000 0.127500 0.787500
0.965000 0.127500 0.787500
1.000000 0.127500 0.787500
0.020000 0.255000 0.787500
0.155000 0.255000 0.787500
0.290000 0.255000 0.787500
0.425000 0.255000 0.787500
0.560000 0.255000 0.787500
0.695000 0.255000 0.787500
0.830000 0.255000 0.787500
0.965000 0.255000 0.787500
1.000000 0.255000 0.787500
0.020000 0.382500 0.787500
0.155000 0.382500 0.787500
0.290000 0.382500 0.787500
0.425000 0.382500 0.787500
0.560000 0.382500 0.787500
0.695000 0.382500 0.787500
0.830000 0.382500 0.787500
0.965000 0.382500 0.787500
1.000000 0.382500 0.787500
0.020000 0.510000 0.787500
0.155000 0.510000 0.787500
0.290000 0.510000 0.787500
0.425000 0.510000 0.787500
0.560000 0.510000 0.787500
0.695000 0.510000 0.787500
0.830000 0.510000 0.787500
0.965000 0.510000 0.787500
1.000000 0.510000 0.787500
0.020000 0.637500 0.787500
0.155000 0.637500 0.787500
0.290000 0.637500 0.787500
0.425000 0.637500 0.787500
0.560000 0.637500 0.787500
0.695000 0.637500 0.787500
0.830000 0.637500 0.787500
0.965000 0.637500 0.787500
1.000000 0.637500 0.787500
0.020000 0.765000 0.787500
0.155000 0.765000 0.787500
0.290000 0.765000 0.787500
0.425000 0.765000 0.787500
0.560000 0.765000 0.787500
0.695000 0.765000 0.787500
0.830000 0.765000 0.787500
0.965000 0.765000 0.787500
1.000000 0.765000 0.787500
0.020000 0.892500 0.787500
0.155000 0.892500 0.787500
0.290000 0.892500 0.787500
0.425000 0.892500 0.787500
0.560000 0.892500 0.787500
0.695000 0.892500 0.787500
0.830000 0.892500 0.787500
0.965000 0.892500 0.787500
1.000000 0.892500 0.787500
0.020000 1.000000 0.787500
0.155000 1.000000 0.787500
0.290000 1.000000 0.787500
0.425000 1.000000 0.787500
0.560000 1.000000 0.787500
0.695000 1.000000 0.787500
0.830000 1.000000 0.787500
0.965000 1.000000 0.787500
1.000000 1.000000 0.787500
0.020000 0.000000 0.900000
0.155000 0.000000 0.900000
0.290000 0.000000 0.900000
0.425000 0.000000 0.900000
0.560000 0.000000 0.900000
0.695000 0.000000 0.900000
0.830000 0.000000 0.900000
0.965000 0.000000 0.900000
1.000000 0.000000 0.900000
0.020000 0.127500 0.900000
0.155000 0.127500 0.900000
0.290000 0.127500 0.900000
0.425000 0.127500 0.900000
0.560000 0.127500 0.900000
0.695000 0.127500 0.900000
0.830000 0.127500 0.900000
0.965000 0.127500 0.900000
1.000000 0.127500 0.900000
0.020000 0.255000 0.900000
0.155000 0.255000 0.900000
0.290000 0.255000 0.900000
0.425000 0.255000 0.900000
0.560000 0.255000 0.900000
0.695000 0.255000 0.900000
0.830000 0.255000 0.900000
0.965000 0.255000 0.900000
1.000000 0.255000 0.900000
0.020000 0.382500 0.900000
0.155000 0.382500 0.900000
0.290000 0.382500 0.900000
0.425000 0.382500 0.900000
0.560000 0.382500 0.900000
0.695000 0.382500 0.900000
0.830000 0.382500 0.900000
0.965000 0.382500 0.900000
1.000000 0.382500 0.900000
0.020000 0.510000 0.900000
0.155000 0.510000 0.900000
0.290000 0.510000 0.900000
0.425000 0.510000 0.900000
0.560000 0.510000 0.900000
0.695000 0.510000 0.900000
0.830000 0.510000 0.900000
0.965000 0.510000 0.900000
1.000000 0.510000 0.900000
0.020000 0.637500 0.900000
0.155000 0.637500 0.900000
0.290000 0.637500 0.900000
0.425000 0.637500 0.900000
0.560000 0.637500 0.900000
0.695000 0.637500 0.900000
0.830000 0.637500 0.900000
0.965000 0.637500 0.900000
1.000000 0.637500 0.900000
0.020000 0.765000 0.900000
0.155000 0.765000 0.900000
0.290000 0.765000 0.900000
0.425000 0.765000 0.900000
0.560000 0.765000 0.900000
0.695000 0.765000 0.900000
0.830000 0.765000 0.900000
0.965000 0.765000 0.900000
1.000000 0.765000 0.900000
0.020000 0.892500 0.900000
0.155000 0.892500 0.900000
0.290000 0.892500 0.900000
0.425000 0.892500 0.900000
0.560000 0.892500 0.900000
0.695000 0.892500 0.900000
0.830000 0.892500 0.900000
0.965000 0.892500 0.900000
1.000000 0.892500 0.900000
0.020000 1.000000 0.900000
0.155000 1.000000 0.900000
0.290000 1.000000 0.900000
0.425000 1.000000 0.900000
0.560000 1.000000 0.900000
0.695000 1.000000 0.900000
0.830000 1.000000 0.900000
0.965000 1.000000 0.900000
1.000000 1.000000 0.900000
