deploy-fix/app/assets/luts/flat_log_look.cube
TITLE "Flat / Log-ish"
LUT_3D_SIZE 9
DOMAIN_MIN 0.0 0.0 0.0
DOMAIN_MAX 1.0 1.0 1.0
0.080000 0.080000 0.080000
0.185000 0.080000 0.080000
0.290000 0.080000 0.080000
0.395000 0.080000 0.080000
0.500000 0.080000 0.080000
0.605000 0.080000 0.080000
0.710000 0.080000 0.080000
0.815000 0.080000 0.080000
0.920000 0.080000 0.080000
0.080000 0.185000 0.080000
0.185000 0.185000 0.080000
0.290000 0.185000 0.080000
0.395000 0.185000 0.080000
0.500000 0.185000 0.080000
0.605000 0.185000 0.080000
0.710000 0.185000 0.080000
0.815000 0.185000 0.080000
0.920000 0.185000 0.080000
0.080000 0.290000 0.080000
0.185000 0.290000 0.080000
0.290000 0.290000 0.080000
0.395000 0.290000 0.080000
0.500000 0.290000 0.080000
0.605000 0.290000 0.080000
0.710000 0.290000 0.080000
0.815000 0.290000 0.080000
0.920000 0.290000 0.080000
0.080000 0.395000 0.080000
0.185000 0.395000 0.080000
0.290000 0.395000 0.080000
0.395000 0.395000 0.080000
0.500000 0.395000 0.080000
0.605000 0.395000 0.080000
0.710000 0.395000 0.080000
0.815000 0.395000 0.080000
0.920000 0.395000 0.080000
0.080000 0.500000 0.080000
0.185000 0.500000 0.080000
0.290000 0.500000 0.080000
0.395000 0.500000 0.080000
0.500000 0.500000 0.080000
0.605000 0.500000 0.080000
0.710000 0.500000 0.080000
0.815000 0.500000 0.080000
0.920000 0.500000 0.080000
0.080000 0.605000 0.080000
0.185000 0.605000 0.080000
0.290000 0.605000 0.080000
0.395000 0.605000 0.080000
0.500000 0.605000 0.080000
0.605000 0.605000 0.080000
0.710000 0.605000 0.080000
0.815000 0.605000 0.080000
0.920000 0.605000 0.080000
0.080000 0.710000 0.080000
0.185000 0.710000 0.080000
0.290000 0.710000 0.080000
0.395000 0.710000 0.080000
0.500000 0.710000 0.080000
0.605000 0.710000 0.080000
0.710000 0.710000 0.080000
0.815000 0.710000 0.080000
0.920000 0.710000 0.080000
0.080000 0.815000 0.080000
0.185000 0.815000 0.080000
0.290000 0.815000 0.080000
0.395000 0.815000 0.080000
0.500000 0.815000 0.080000
0.605000 0.815000 0.080000
0.710000 0.815000 0.080000
0.815000 0.815000 0.080000
0.920000 0.815000 0.080000
0.080000 0.920000 0.080000
0.185000 0.920000 0.080000
0.290000 0.920000 0.080000
0.395000 0.920000 0.080000
0.500000 0.920000 0.080000
0.605000 0.920000 0.080000
0.710000 0.920000 0.080000
0.815000 0.920000 0.080000
0.920000 0.920000 0.080000
0.080000 0.080000 0.185000
0.185000 0.080000 0.185000
0.290000 0.080000 0.185000
0.395000 0.080000 0.185000
0.500000 0.080000 0.185000
0.605000 0.080000 0.185000
0.710000 0.080000 0.185000
0.815000 0.080000 0.185000
0.920000 0.080000 0.185000
0.080000 0.185000 0.185000
0.185000 0.185000 0.185000
0.290000 0.185000 0.185000
0.395000 0.185000 0.185000
0.500000 0.185000 0.185000
0.605000 0.185000 0.185000
0.710000 0.185000 0.185000
0.815000 0.185000 0.185000
0.920000 0.185000 0.185000
0.080000 0.290000 0.185000
0.185000 0.290000 0.185000
0.290000 0.290000 0.185000
0.395000 0.290000 0.185000
0.500000 0.290000 0.185000
0.605000 0.290000 0.185000
0.710000 0.290000 0.185000
0.815000 0.290000 0.185000
0.920000 0.290000 0.185000
0.080000 0.395000 0.185000
0.185000 0.395000 0.185000
0.290000 0.395000 0.185000
0.395000 0.395000 0.185000
0.500000 0.395000 0.185000
0.605000 0.395000 0.185000
0.710000 0.395000 0.185000
0.815000 0.395000 0.185000
0.920000 0.395000 0.185000
0.080000 0.500000 0.185000
0.185000 0.500000 0.185000
0.290000 0.500000 0.185000
0.395000 0.500000 0.185000
0.500000 0.500000 0.185000
0.605000 0.500000 0.185000
0.710000 0.500000 0.185000
0.815000 0.500000 0.185000
0.920000 0.500000 0.185000
0.080000 0.605000 0.185000
0.185000 0.605000 0.185000
0.290000 0.605000 0.185000
0.395000 0.605000 0.185000
0.500000 0.605000 0.185000
0.605000 0.605000 0.185000
0.710000 0.605000 0.185000
0.815000 0.605000 0.185000
0.920000 0.605000 0.185000
0.080000 0.710000 0.185000
0.185000 0.710000 0.185000
0.290000 0.710000 0.185000
0.395000 0.710000 0.185000
0.500000 0.710000 0.185000
0.605000 0.710000 0.185000
0.710000 0.710000 0.185000
0.815000 0.710000 0.185000
0.920000 0.710000 0.185000
0.080000 0.815000 0.185000
0.185000 0.815000 0.185000
0.290000 0.815000 0.185000
0.395000 0.815000 0.185000
0.500000 0.815000 0.185000
0.605000 0.815000 0.185000
0.710000 0.815000 0.185000
0.815000 0.815000 0.185000
0.920000 0.815000 0.185000
0.080000 0.920000 0.185000
0.185000 0.920000 0.185000
0.290000 0.920000 0.185000
0.395000 0.920000 0.185000
0.500000 0.920000 0.185000
0.605000 0.920000 0.185000
0.710000 0.920000 0.185000
0.815000 0.920000 0.185000
0.920000 0.920000 0.185000
0.080000 0.080000 0.290000
0.185000 0.080000 0.290000
0.290000 0.080000 0.290000
0.395000 0.080000 0.290000
0.500000 0.080000 0.290000
0.605000 0.080000 0.290000
0.710000 0.080000 0.290000
0.815000 0.080000 0.290000
0.920000 0.080000 0.290000
0.080000 0.185000 0.290000
0.185000 0.185000 0.290000
0.290000 0.185000 0.290000
0.395000 0.185000 0.290000
0.500000 0.185000 0.290000
0.605000 0.185000 0.290000
0.710000 0.185000 0.290000
0.815000 0.185000 0.290000
0.920000 0.185000 0.290000
0.080000 0.290000 0.290000
0.185000 0.290000 0.290000
0.290000 0.290000 0.290000
0.395000 0.290000 0.290000
0.500000 0.290000 0.290000
0.605000 0.290000 0.290000
0.710000 0.290000 0.290000
0.815000 0.290000 0.290000
0.920000 0.290000 0.290000
0.080000 0.395000 0.290000
0.185000 0.395000 0.290000
0.290000 0.395000 0.290000
0.395000 0.395000 0.290000
0.500000 0.395000 0.290000
0.605000 0.395000 0.290000
0.710000 0.395000 0.290000
0.815000 0.395000 0.290000
0.920000 0.395000 0.290000
0.080000 0.500000 0.290000
0.185000 0.500000 0.290000
0.290000 0.500000 0.290000
0.395000 0.500000 0.290000
0.500000 0.500000 0.290000
0.605000 0.500000 0.290000
0.710000 0.500000 0.290000
0.815000 0.500000 0.290000
0.920000 0.500000 0.290000
0.080000 0.605000 0.290000
0.185000 0.605000 0.290000
0.290000 0.605000 0.290000
0.395000 0.605000 0.290000
0.500000 0.605000 0.290000
0.605000 0.605000 0.290000
0.710000 0.605000 0.290000
0.815000 0.605000 0.290000
0.920000 0.605000 0.290000
0.080000 0.710000 0.290000
0.185000 0.710000 0.290000
0.290000 0.710000 0.290000
0.395000 0.710000 0.290000
0.500000 0.710000 0.290000
0.605000 0.710000 0.290000
0.710000 0.710000 0.290000
0.815000 0.710000 0.290000
0.920000 0.710000 0.290000
0.080000 0.815000 0.290000
0.185000 0.815000 0.290000
0.290000 0.815000 0.290000
0.395000 0.815000 0.290000
0.500000 0.815000 0.290000
0.605000 0.815000 0.290000
0.710000 0.815000 0.290000
0.815000 0.815000 0.290000
0.920000 0.815000 0.290000
0.080000 0.920000 0.290000
0.185000 0.920000 0.290000
0.290000 0.920000 0.290000
0.395000 0.920000 0.290000
0.500000 0.920000 0.290000
0.605000 0.920000 0.290000
0.710000 0.920000 0.290000
0.815000 0.920000 0.290000
0.920000 0.920000 0.290000
0.080000 0.080000 0.395000
0.185000 0.080000 0.395000
0.290000 0.080000 0.395000
0.395000 0.080000 0.395000
0.500000 0.080000 0.395000
0.605000 0.080000 0.395000
0.710000 0.080000 0.395000
0.815000 0.080000 0.395000
0.920000 0.080000 0.395000
0.080000 0.185000 0.395000
0.185000 0.185000 0.395000
0.290000 0.185000 0.395000
0.395000 0.185000 0.395000
0.500000 0.185000 0.395000
0.605000 0.185000 0.395000
0.710000 0.185000 0.395000
0.815000 0.185000 0.395000
0.920000 0.185000 0.395000
0.080000 0.290000 0.395000
0.185000 0.290000 0.395000
0.290000 0.290000 0.395000
0.395000 0.290000 0.395000
0.500000 0.290000 0.395000
0.605000 0.290000 0.395000
0.710000 0.290000 0.395000
0.815000 0.290000 0.395000
0.920000 0.290000 0.395000
0.080000 0.395000 0.395000
0.185000 0.395000 0.395000
0.290000 0.395000 0.395000
0.395000 0.395000 0.395000
0.500000 0.395000 0.395000
0.605000 0.395000 0.395000
0.710000 0.395000 0.395000
0.815000 0.395000 0.395000
0.920000 0.395000 0.395000
0.080000 0.500000 0.395000
0.185000 0.500000 0.395000
0.290000 0.500000 0.395000
0.395000 0.500000 0.395000
0.500000 0.500000 0.395000
0.605000 0.500000 0.395000
0.710000 0.500000 0.395000
0.815000 0.500000 0.395000
0.920000 0.500000 0.395000
0.080000 0.605000 0.395000
0.185000 0.605000 0.395000
0.290000 0.605000 0.395000
0.395000 0.605000 0.395000
0.500000 0.605000 0.395000
0.605000 0.605000 0.395000
0.710000 0.605000 0.395000
0.815000 0.605000 0.395000
0.920000 0.605000 0.395000
0.080000 0.710000 0.395000
0.185000 0.710000 0.395000
0.290000 0.710000 0.395000
0.395000 0.710000 0.395000
0.500000 0.710000 0.395000
0.605000 0.710000 0.395000
0.710000 0.710000 0.395000
0.815000 0.710000 0.395000
0.920000 0.710000 0.395000
0.080000 0.815000 0.395000
0.185000 0.815000 0.395000
0.290000 0.815000 0.395000
0.395000 0.815000 0.395000
0.500000 0.815000 0.395000
0.605000 0.815000 0.395000
0.710000 0.815000 0.395000
0.815000 0.815000 0.395000
0.920000 0.815000 0.395000
0.080000 0.920000 0.395000
0.185000 0.920000 0.395000
0.290000 0.920000 0.395000
0.395000 0.920000 0.395000
0.500000 0.920000 0.395000
0.605000 0.920000 0.395000
0.710000 0.920000 0.395000
0.815000 0.920000 0.395000
0.920000 0.920000 0.395000
0.080000 0.080000 0.500000
0.185000 0.080000 0.500000
0.290000 0.080000 0.500000
0.395000 0.080000 0.500000
0.500000 0.080000 0.500000
0.605000 0.080000 0.500000
0.710000 0.080000 0.500000
0.815000 0.080000 0.500000
0.920000 0.080000 0.500000
0.080000 0.185000 0.500000
0.185000 0.185000 0.500000
0.290000 0.185000 0.500000
0.395000 0.185000 0.500000
0.500000 0.185000 0.500000
0.605000 0.185000 0.500000
0.710000 0.185000 0.500000
0.815000 0.185000 0.500000
0.920000 0.185000 0.500000
0.080000 0.290000 0.500000
0.185000 0.290000 0.500000
0.290000 0.290000 0.500000
0.395000 0.290000 0.500000
0.500000 0.290000 0.500000
0.605000 0.290000 0.500000
0.710000 0.290000 0.500000
0.815000 0.290000 0.500000
0.920000 0.290000 0.500000
0.080000 0.395000 0.500000
0.185000 0.395000 0.500000
0.290000 0.395000 0.500000
0.395000 0.395000 0.500000
0.500000 0.395000 0.500000
0.605000 0.395000 0.500000
0.710000 0.395000 0.500000
0.815000 0.395000 0.500000
0.920000 0.395000 0.500000
0.080000 0.500000 0.500000
0.185000 0.500000 0.500000
0.290000 0.500000 0.500000
0.395000 0.500000 0.500000
0.500000 0.500000 0.500000
0.605000 0.500000 0.500000
0.710000 0.500000 0.500000
0.815000 0.500000 0.500000
0.920000 0.500000 0.500000
0.080000 0.605000 0.500000
0.185000 0.605000 0.500000
0.290000 0.605000 0.500000
0.395000 0.605000 0.500000
0.500000 0.605000 0.500000
0.605000 0.605000 0.500000
0.710000 0.605000 0.500000
0.815000 0.605000 0.500000
0.920000 0.605000 0.500000
0.080000 0.710000 0.500000
0.185000 0.710000 0.500000
0.290000 0.710000 0.500000
0.395000 0.710000 0.500000
0.500000 0.710000 0.500000
0.605000 0.710000 0.500000
0.710000 0.710000 0.500000
0.815000 0.710000 0.500000
0.920000 0.710000 0.500000
0.080000 0.815000 0.500000
0.185000 0.815000 0.500000
0.290000 0.815000 0.500000
0.395000 0.815000 0.500000
0.500000 0.815000 0.500000
0.605000 0.815000 0.500000
0.710000 0.815000 0.500000
0.815000 0.815000 0.500000
0.920000 0.815000 0.500000
0.080000 0.920000 0.500000
0.185000 0.920000 0.500000
0.290000 0.920000 0.500000
0.395000 0.920000 0.500000
0.500000 0.920000 0.500000
0.605000 0.920000 0.500000
0.710000 0.920000 0.500000
0.815000 0.920000 0.500000
0.920000 0.920000 0.500000
0.080000 0.080000 0.605000
0.185000 0.080000 0.605000
0.290000 0.080000 0.605000
0.395000 0.080000 0.605000
0.500000 0.080000 0.605000
0.605000 0.080000 0.605000
0.710000 0.080000 0.605000
0.815000 0.080000 0.605000
0.920000 0.080000 0.605000
0.080000 0.185000 0.605000
0.185000 0.185000 0.605000
0.290000 0.185000 0.605000
0.395000 0.185000 0.605000
0.500000 0.185000 0.605000
0.605000 0.185000 0.605000
0.710000 0.185000 0.605000
0.815000 0.185000 0.605000
0.920000 0.185000 0.605000
0.080000 0.290000 0.605000
0.185000 0.290000 0.605000
0.290000 0.290000 0.605000
0.395000 0.290000 0.605000
0.500000 0.290000 0.605000
0.605000 0.290000 0.605000
0.710000 0.290000 0.605000
0.815000 0.290000 0.605000
0.920000 0.290000 0.605000
0.080000 0.395000 0.605000
0.185000 0.395000 0.605000
0.290000 0.395000 0.605000
0.395000 0.395000 0.605000
0.500000 0.395000 0.605000
0.605000 0.395000 0.605000
0.710000 0.395000 0.605000
0.815000 0.395000 0.605000
0.920000 0.395000 0.605000
0.080000 0.500000 0.605000
0.185000 0.500000 0.605000
0.290000 0.500000 0.605000
0.395000 0.500000 0.605000
0.500000 0.500000 0.605000
0.605000 0.500000 0.605000
0.710000 0.500000 0.605000
0.815000 0.500000 0.605000
0.920000 0.500000 0.605000
0.080000 0.605000 0.605000
0.185000 0.605000 0.605000
0.290000 0.605000 0.605000
0.395000 0.605000 0.605000
0.500000 0.605000 0.605000
0.605000 0.605000 0.605000
0.710000 0.605000 0.605000
0.815000 0.605000 0.605000
0.920000 0.605000 0.605000
0.080000 0.710000 0.605000
0.185000 0.710000 0.605000
0.290000 0.710000 0.605000
0.395000 0.710000 0.605000
0.500000 0.710000 0.605000
0.605000 0.710000 0.605000
0.710000 0.710000 0.605000
0.815000 0.710000 0.605000
0.920000 0.710000 0.605000
0.080000 0.815000 0.605000
0.185000 0.815000 0.605000
0.290000 0.815000 0.605000
0.395000 0.815000 0.605000
0.500000 0.815000 0.605000
0.605000 0.815000 0.605000
0.710000 0.815000 0.605000
0.815000 0.815000 0.605000
0.920000 0.815000 0.605000
0.080000 0.920000 0.605000
0.185000 0.920000 0.605000
0.290000 0.920000 0.605000
0.395000 0.920000 0.605000
0.500000 0.920000 0.605000
0.605000 0.920000 0.605000
0.710000 0.920000 0.605000
0.815000 0.920000 0.605000
0.920000 0.920000 0.605000
0.080000 0.080000 0.710000
0.185000 0.080000 0.710000
0.290000 0.080000 0.710000
0.395000 0.080000 0.710000
0.500000 0.080000 0.710000
0.605000 0.080000 0.710000
0.710000 0.080000 0.710000
0.815000 0.080000 0.710000
0.920000 0.080000 0.710000
0.080000 0.185000 0.710000
0.185000 0.185000 0.710000
0.290000 0.185000 0.710000
0.395000 0.185000 0.710000
0.500000 0.185000 0.710000
0.605000 0.185000 0.710000
0.710000 0.185000 0.710000
0.815000 0.185000 0.710000
0.920000 0.185000 0.710000
0.080000 0.290000 0.710000
0.185000 0.290000 0.710000
0.290000 0.290000 0.710000
0.395000 0.290000 0.710000
0.500000 0.290000 0.710000
0.605000 0.290000 0.710000
0.710000 0.290000 0.710000
0.815000 0.290000 0.710000
0.920000 0.290000 0.710000
0.080000 0.395000 0.710000
0.185000 0.395000 0.710000
0.290000 0.395000 0.710000
0.395000 0.395000 0.710000
0.500000 0.395000 0.710000
0.605000 0.395000 0.710000
0.710000 0.395000 0.710000
0.815000 0.395000 0.710000
0.920000 0.395000 0.710000
0.080000 0.500000 0.710000
0.185000 0.500000 0.710000
0.290000 0.500000 0.710000
0.395000 0.500000 0.710000
0.500000 0.500000 0.710000
0.605000 0.500000 0.710000
0.710000 0.500000 0.710000
0.815000 0.500000 0.710000
0.920000 0.500000 0.710000
0.080000 0.605000 0.710000
0.185000 0.605000 0.710000
0.290000 0.605000 0.710000
0.395000 0.605000 0.710000
0.500000 0.605000 0.710000
0.605000 0.605000 0.710000
0.710000 0.605000 0.710000
0.815000 0.605000 0.710000
0.920000 0.605000 0.710000
0.080000 0.710000 0.710000
0.185000 0.710000 0.710000
0.290000 0.710000 0.710000
0.395000 0.710000 0.710000
0.500000 0.710000 0.710000
0.605000 0.710000 0.710000
0.710000 0.710000 0.710000
0.815000 0.710000 0.710000
0.920000 0.710000 0.710000
0.080000 0.815000 0.710000
0.185000 0.815000 0.710000
0.290000 0.815000 0.710000
0.395000 0.815000 0.710000
0.500000 0.815000 0.710000
0.605000 0.815000 0.710000
0.710000 0.815000 0.710000
0.815000 0.815000 0.710000
0.920000 0.815000 0.710000
0.080000 0.920000 0.710000
0.185000 0.920000 0.710000
0.290000 0.920000 0.710000
0.395000 0.920000 0.710000
0.500000 0.920000 0.710000
0.605000 0.920000 0.710000
0.710000 0.920000 0.710000
0.815000 0.920000 0.710000
0.920000 0.920000 0.710000
0.080000 0.080000 0.815000
0.185000 0.080000 0.815000
0.290000 0.080000 0.815000
0.395000 0.080000 0.815000
0.500000 0.080000 0.815000
0.605000 0.080000 0.815000
0.710000 0.080000 0.815000
0.815000 0.080000 0.815000
0.920000 0.080000 0.815000
0.080000 0.185000 0.815000
0.185000 0.185000 0.815000
0.290000 0.185000 0.815000
0.395000 0.185000 0.815000
0.500000 0.185000 0.815000
0.605000 0.185000 0.815000
0.710000 0.185000 0.815000
0.815000 0.185000 0.815000
0.920000 0.185000 0.815000
0.080000 0.290000 0.815000
0.185000 0.290000 0.815000
0.290000 0.290000 0.815000
0.395000 0.290000 0.815000
0.500000 0.290000 0.815000
0.605000 0.290000 0.815000
0.710000 0.290000 0.815000
0.815000 0.290000 0.815000
0.920000 0.290000 0.815000
0.080000 0.395000 0.815000
0.185000 0.395000 0.815000
0.290000 0.395000 0.815000
0.395000 0.395000 0.815000
0.500000 0.395000 0.815000
0.605000 0.395000 0.815000
0.710000 0.395000 0.815000
0.815000 0.395000 0.815000
0.920000 0.395000 0.815000
0.080000 0.500000 0.815000
0.185000 0.500000 0.815000
0.290000 0.500000 0.815000
0.395000 0.500000 0.815000
0.500000 0.500000 0.815000
0.605000 0.500000 0.815000
0.710000 0.500000 0.815000
0.815000 0.500000 0.815000
0.920000 0.500000 0.815000
0.080000 0.605000 0.815000
0.185000 0.605000 0.815000
0.290000 0.605000 0.815000
0.395000 0.605000 0.815000
0.500000 0.605000 0.815000
0.605000 0.605000 0.815000
0.710000 0.605000 0.815000
0.815000 0.605000 0.815000
0.920000 0.605000 0.815000
0.080000 0.710000 0.815000
0.185000 0.710000 0.815000
0.290000 0.710000 0.815000
0.395000 0.710000 0.815000
0.500000 0.710000 0.815000
0.605000 0.710000 0.815000
0.710000 0.710000 0.815000
0.815000 0.710000 0.815000
0.920000 0.710000 0.815000
0.080000 0.815000 0.815000
0.185000 0.815000 0.815000
0.290000 0.815000 0.815000
0.395000 0.815000 0.815000
0.500000 0.815000 0.815000
0.605000 0.815000 0.815000
0.710000 0.815000 0.815000
0.815000 0.815000 0.815000
0.920000 0.815000 0.815000
0.080000 0.920000 0.815000
0.185000 0.920000 0.815000
0.290000 0.920000 0.815000
0.395000 0.920000 0.815000
0.500000 0.920000 0.815000
0.605000 0.920000 0.815000
0.710000 0.920000 0.815000
0.815000 0.920000 0.815000
0.920000 0.920000 0.815000
0.080000 0.080000 0.920000
0.185000 0.080000 0.920000
0.290000 0.080000 0.920000
0.395000 0.080000 0.920000
0.500000 0.080000 0.920000
0.605000 0.080000 0.920000
0.710000 0.080000 0.920000
0.815000 0.080000 0.920000
0.920000 0.080000 0.920000
0.080000 0.185000 0.920000
0.185000 0.185000 0.920000
0.290000 0.185000 0.920000
0.395000 0.185000 0.920000
0.500000 0.185000 0.920000
0.605000 0.185000 0.920000
0.710000 0.185000 0.920000
0.815000 0.185000 0.920000
0.920000 0.185000 0.920000
0.080000 0.290000 0.920000
0.185000 0.290000 0.920000
0.290000 0.290000 0.920000
0.395000 0.290000 0.920000
0.500000 0.290000 0.920000
0.605000 0.290000 0.920000
0.710000 0.290000 0.920000
0.815000 0.290000 0.920000
0.920000 0.290000 0.920000
0.080000 0.395000 0.920000
0.185000 0.395000 0.920000
0.290000 0.395000 0.920000
0.395000 0.395000 0.920000
0.500000 0.395000 0.920000
0.605000 0.395000 0.920000
0.710000 0.395000 0.920000
0.815000 0.395000 0.920000
0.920000 0.395000 0.920000
0.080000 0.500000 0.920000
0.185000 0.500000 0.920000
0.290000 0.500000 0.920000
0.395000 0.500000 0.920000
0.500000 0.500000 0.920000
0.605000 0.500000 0.920000
0.710000 0.500000 0.920000
0.815000 0.500000 0.920000
0.920000 0.500000 0.920000
0.080000 0.605000 0.920000
0.185000 0.605000 0.920000
0.290000 0.605000 0.920000
0.395000 0.605000 0.920000
0.500000 0.605000 0.920000
0.605000 0.605000 0.920000
0.710000 0.605000 0.920000
0.815000 0.605000 0.920000
0.920000 0.605000 0.920000
0.080000 0.710000 0.920000
0.185000 0.710000 0.920000
0.290000 0.710000 0.920000
0.395000 0.710000 0.920000
0.500000 0.710000 0.920000
0.605000 0.710000 0.920000
0.710000 0.710000 0.920000
0.815000 0.710000 0.920000
0.920000 0.710000 0.920000
0.080000 0.815000 0.920000
0.185000 0.815000 0.920000
0.290000 0.815000 0.920000
0.395000 0.815000 0.920000
0.500000 0.815000 0.920000
0.605000 0.815000 0.920000
0.710000 0.815000 0.920000
0.815000 0.815000 0.920000
0.920000 0.815000 0.920000
0.080000 0.920000 0.920000
0.185000 0.920000 0.920000
0.290000 0.920000 0.920000
0.395000 0.920000 0.920000
0.500000 0.920000 0.920000
0.605000 0.920000 0.920000
0.710000 0.920000 0.920000
0.815000 0.920000 0.920000
0.920000 0.920000 0.920000
