deploy-fix/app/assets/luts/flat_log_look.cube
TITLE "Flat / Log-ish"
LUT_3D_SIZE 17
DOMAIN_MIN 0.0 0.0 0.0
DOMAIN_MAX 1.0 1.0 1.0
0.080000 0.080000 0.080000
0.132500 0.080000 0.080000
0.185000 0.080000 0.080000
0.237500 0.080000 0.080000
0.290000 0.080000 0.080000
0.342500 0.080000 0.080000
0.395000 0.080000 0.080000
0.447500 0.080000 0.080000
0.500000 0.080000 0.080000
0.552500 0.080000 0.080000
0.605000 0.080000 0.080000
0.657500 0.080000 0.080000
0.710000 0.080000 0.080000
0.762500 0.080000 0.080000
0.815000 0.080000 0.080000
0.867500 0.080000 0.080000
0.920000 0.080000 0.080000
0.080000 0.132500 0.080000
0.132500 0.132500 0.080000
0.185000 0.132500 0.080000
0.237500 0.132500 0.080000
0.290000 0.132500 0.080000
0.342500 0.132500 0.080000
0.395000 0.132500 0.080000
0.447500 0.132500 0.080000
0.500000 0.132500 0.080000
0.552500 0.132500 0.080000
0.605000 0.132500 0.080000
0.657500 0.132500 0.080000
0.710000 0.132500 0.080000
0.762500 0.132500 0.080000
0.815000 0.132500 0.080000
0.867500 0.132500 0.080000
0.920000 0.132500 0.080000
0.080000 0.185000 0.080000
0.132500 0.185000 0.080000
0.185000 0.185000 0.080000
0.237500 0.185000 0.080000
0.290000 0.185000 0.080000
0.342500 0.185000 0.080000
0.395000 0.185000 0.080000
0.447500 0.185000 0.080000
0.500000 0.185000 0.080000
0.552500 0.185000 0.080000
0.605000 0.185000 0.080000
0.657500 0.185000 0.080000
0.710000 0.185000 0.080000
0.762500 0.185000 0.080000
0.815000 0.185000 0.080000
0.867500 0.185000 0.080000
0.920000 0.185000 0.080000
0.080000 0.237500 0.080000
0.132500 0.237500 0.080000
0.185000 0.237500 0.080000
0.237500 0.237500 0.080000
0.290000 0.237500 0.080000
0.342500 0.237500 0.080000
0.395000 0.237500 0.080000
0.447500 0.237500 0.080000
0.500000 0.237500 0.080000
0.552500 0.237500 0.080000
0.605000 0.237500 0.080000
0.657500 0.237500 0.080000
0.710000 0.237500 0.080000
0.762500 0.237500 0.080000
0.815000 0.237500 0.080000
0.867500 0.237500 0.080000
0.920000 0.237500 0.080000
0.080000 0.290000 0.080000
0.132500 0.290000 0.080000
0.185000 0.290000 0.080000
0.237500 0.290000 0.080000
0.290000 0.290000 0.080000
0.342500 0.290000 0.080000
0.395000 0.290000 0.080000
0.447500 0.290000 0.080000
0.500000 0.290000 0.080000
0.552500 0.290000 0.080000
0.605000 0.290000 0.080000
0.657500 0.290000 0.080000
0.710000 0.290000 0.080000
0.762500 0.290000 0.080000
0.815000 0.290000 0.080000
0.867500 0.290000 0.080000
0.920000 0.290000 0.080000
0.080000 0.342500 0.080000
0.132500 0.342500 0.080000
0.185000 0.342500 0.080000
0.237500 0.342500 0.080000
0.290000 0.342500 0.080000
0.342500 0.342500 0.080000
0.395000 0.342500 0.080000
0.447500 0.342500 0.080000
0.500000 0.342500 0.080000
0.552500 0.342500 0.080000
0.605000 0.342500 0.080000
0.657500 0.342500 0.080000
0.710000 0.342500 0.080000
0.762500 0.342500 0.080000
0.815000 0.342500 0.080000
0.867500 0.342500 0.080000
0.920000 0.342500 0.080000
0.080000 0.395000 0.080000
0.132500 0.395000 0.080000
0.185000 0.395000 0.080000
0.237500 0.395000 0.080000
0.290000 0.395000 0.080000
0.342500 0.395000 0.080000
0.395000 0.395000 0.080000
0.447500 0.395000 0.080000
0.500000 0.395000 0.080000
0.552500 0.395000 0.080000
0.605000 0.395000 0.080000
0.657500 0.395000 0.080000
0.710000 0.395000 0.080000
0.762500 0.395000 0.080000
0.815000 0.395000 0.080000
0.867500 0.395000 0.080000
0.920000 0.395000 0.080000
0.080000 0.447500 0.080000
0.132500 0.447500 0.080000
0.185000 0.447500 0.080000
0.237500 0.447500 0.080000
0.290000 0.447500 0.080000
0.342500 0.447500 0.080000
0.395000 0.447500 0.080000
0.447500 0.447500 0.080000
0.500000 0.447500 0.080000
0.552500 0.447500 0.080000
0.605000 0.447500 0.080000
0.657500 0.447500 0.080000
0.710000 0.447500 0.080000
0.762500 0.447500 0.080000
0.815000 0.447500 0.080000
0.867500 0.447500 0.080000
0.920000 0.447500 0.080000
0.080000 0.500000 0.080000
0.132500 0.500000 0.080000
0.185000 0.500000 0.080000
0.237500 0.500000 0.080000
0.290000 0.500000 0.080000
0.342500 0.500000 0.080000
0.395000 0.500000 0.080000
0.447500 0.500000 0.080000
0.500000 0.500000 0.080000
0.552500 0.500000 0.080000
0.605000 0.500000 0.080000
0.657500 0.500000 0.080000
0.710000 0.500000 0.080000
0.762500 0.500000 0.080000
0.815000 0.500000 0.080000
0.867500 0.500000 0.080000
0.920000 0.500000 0.080000
0.080000 0.552500 0.080000
0.132500 0.552500 0.080000
0.185000 0.552500 0.080000
0.237500 0.552500 0.080000
0.290000 0.552500 0.080000
0.342500 0.552500 0.080000
0.395000 0.552500 0.080000
0.447500 0.552500 0.080000
0.500000 0.552500 0.080000
0.552500 0.552500 0.080000
0.605000 0.552500 0.080000
0.657500 0.552500 0.080000
0.710000 0.552500 0.080000
0.762500 0.552500 0.080000
0.815000 0.552500 0.080000
0.867500 0.552500 0.080000
0.920000 0.552500 0.080000
0.080000 0.605000 0.080000
0.132500 0.605000 0.080000
0.185000 0.605000 0.080000
0.237500 0.605000 0.080000
0.290000 0.605000 0.080000
0.342500 0.605000 0.080000
0.395000 0.605000 0.080000
0.447500 0.605000 0.080000
0.500000 0.605000 0.080000
0.552500 0.605000 0.080000
0.605000 0.605000 0.080000
0.657500 0.605000 0.080000
0.710000 0.605000 0.080000
0.762500 0.605000 0.080000
0.815000 0.605000 0.080000
0.867500 0.605000 0.080000
0.920000 0.605000 0.080000
0.080000 0.657500 0.080000
0.132500 0.657500 0.080000
0.185000 0.657500 0.080000
0.237500 0.657500 0.080000
0.290000 0.657500 0.080000
0.342500 0.657500 0.080000
0.395000 0.657500 0.080000
0.447500 0.657500 0.080000
0.500000 0.657500 0.080000
0.552500 0.657500 0.080000
0.605000 0.657500 0.080000
0.657500 0.657500 0.080000
0.710000 0.657500 0.080000
0.762500 0.657500 0.080000
0.815000 0.657500 0.080000
0.867500 0.657500 0.080000
0.920000 0.657500 0.080000
0.080000 0.710000 0.080000
0.132500 0.710000 0.080000
0.185000 0.710000 0.080000
0.237500 0.710000 0.080000
0.290000 0.710000 0.080000
0.342500 0.710000 0.080000
0.395000 0.710000 0.080000
0.447500 0.710000 0.080000
0.500000 0.710000 0.080000
0.552500 0.710000 0.080000
0.605000 0.710000 0.080000
0.657500 0.710000 0.080000
0.710000 0.710000 0.080000
0.762500 0.710000 0.080000
0.815000 0.710000 0.080000
0.867500 0.710000 0.080000
0.920000 0.710000 0.080000
0.080000 0.762500 0.080000
0.132500 0.762500 0.080000
0.185000 0.762500 0.080000
0.237500 0.762500 0.080000
0.290000 0.762500 0.080000
0.342500 0.762500 0.080000
0.395000 0.762500 0.080000
0.447500 0.762500 0.080000
0.500000 0.762500 0.080000
0.552500 0.762500 0.080000
0.605000 0.762500 0.080000
0.657500 0.762500 0.080000
0.710000 0.762500 0.080000
0.762500 0.762500 0.080000
0.815000 0.762500 0.080000
0.867500 0.762500 0.080000
0.920000 0.762500 0.080000
0.080000 0.815000 0.080000
0.132500 0.815000 0.080000
0.185000 0.815000 0.080000
0.237500 0.815000 0.080000
0.290000 0.815000 0.080000
0.342500 0.815000 0.080000
0.395000 0.815000 0.080000
0.447500 0.815000 0.080000
0.500000 0.815000 0.080000
0.552500 0.815000 0.080000
0.605000 0.815000 0.080000
0.657500 0.815000 0.080000
0.710000 0.815000 0.080000
0.762500 0.815000 0.080000
0.815000 0.815000 0.080000
0.867500 0.815000 0.080000
0.920000 0.815000 0.080000
0.080000 0.867500 0.080000
0.132500 0.867500 0.080000
0.185000 0.867500 0.080000
0.237500 0.867500 0.080000
0.290000 0.867500 0.080000
0.342500 0.867500 0.080000
0.395000 0.867500 0.080000
0.447500 0.867500 0.080000
0.500000 0.867500 0.080000
0.552500 0.867500 0.080000
0.605000 0.867500 0.080000
0.657500 0.867500 0.080000
0.710000 0.867500 0.080000
0.762500 0.867500 0.080000
0.815000 0.867500 0.080000
0.867500 0.867500 0.080000
0.920000 0.867500 0.080000
0.080000 0.920000 0.080000
0.132500 0.920000 0.080000
0.185000 0.920000 0.080000
0.237500 0.920000 0.080000
0.290000 0.920000 0.080000
0.342500 0.920000 0.080000
0.395000 0.920000 0.080000
0.447500 0.920000 0.080000
0.500000 0.920000 0.080000
0.552500 0.920000 0.080000
0.605000 0.920000 0.080000
0.657500 0.920000 0.080000
0.710000 0.920000 0.080000
0.762500 0.920000 0.080000
0.815000 0.920000 0.080000
0.867500 0.920000 0.080000
0.920000 0.920000 0.080000
0.080000 0.080000 0.132500
0.132500 0.080000 0.132500
0.185000 0.080000 0.132500
0.237500 0.080000 0.132500
0.290000 0.080000 0.132500
0.342500 0.080000 0.132500
0.395000 0.080000 0.132500
0.447500 0.080000 0.132500
0.500000 0.080000 0.132500
0.552500 0.080000 0.132500
0.605000 0.080000 0.132500
0.657500 0.080000 0.132500
0.710000 0.080000 0.132500
0.762500 0.080000 0.132500
0.815000 0.080000 0.132500
0.867500 0.080000 0.132500
0.920000 0.080000 0.132500
0.080000 0.132500 0.132500
0.132500 0.132500 0.132500
0.185000 0.132500 0.132500
0.237500 0.132500 0.132500
0.290000 0.132500 0.132500
0.342500 0.132500 0.132500
0.395000 0.132500 0.132500
0.447500 0.132500 0.132500
0.500000 0.132500 0.132500
0.552500 0.132500 0.132500
0.605000 0.132500 0.132500
0.657500 0.132500 0.132500
0.710000 0.132500 0.132500
0.762500 0.132500 0.132500
0.815000 0.132500 0.132500
0.867500 0.132500 0.132500
0.920000 0.132500 0.132500
0.080000 0.185000 0.132500
0.132500 0.185000 0.132500
0.185000 0.185000 0.132500
0.237500 0.185000 0.132500
0.290000 0.185000 0.132500
0.342500 0.185000 0.132500
0.395000 0.185000 0.132500
0.447500 0.185000 0.132500
0.500000 0.185000 0.132500
0.552500 0.185000 0.132500
0.605000 0.185000 0.132500
0.657500 0.185000 0.132500
0.710000 0.185000 0.132500
0.762500 0.185000 0.132500
0.815000 0.185000 0.132500
0.867500 0.185000 0.132500
0.920000 0.185000 0.132500
0.080000 0.237500 0.132500
0.132500 0.237500 0.132500
0.185000 0.237500 0.132500
0.237500 0.237500 0.132500
0.290000 0.237500 0.132500
0.342500 0.237500 0.132500
0.395000 0.237500 0.132500
0.447500 0.237500 0.132500
0.500000 0.237500 0.132500
0.552500 0.237500 0.132500
0.605000 0.237500 0.132500
0.657500 0.237500 0.132500
0.710000 0.237500 0.132500
0.762500 0.237500 0.132500
0.815000 0.237500 0.132500
0.867500 0.237500 0.132500
0.920000 0.237500 0.132500
0.080000 0.290000 0.132500
0.132500 0.290000 0.132500
0.185000 0.290000 0.132500
0.237500 0.290000 0.132500
0.290000 0.290000 0.132500
0.342500 0.290000 0.132500
0.395000 0.290000 0.132500
0.447500 0.290000 0.132500
0.500000 0.290000 0.132500
0.552500 0.290000 0.132500
0.605000 0.290000 0.132500
0.657500 0.290000 0.132500
0.710000 0.290000 0.132500
0.762500 0.290000 0.132500
0.815000 0.290000 0.132500
0.867500 0.290000 0.132500
0.920000 0.290000 0.132500
0.080000 0.342500 0.132500
0.132500 0.342500 0.132500
0.185000 0.342500 0.132500
0.237500 0.342500 0.132500
0.290000 0.342500 0.132500
0.342500 0.342500 0.132500
0.395000 0.342500 0.132500
0.447500 0.342500 0.132500
0.500000 0.342500 0.132500
0.552500 0.342500 0.132500
0.605000 0.342500 0.132500
0.657500 0.342500 0.132500
0.710000 0.342500 0.132500
0.762500 0.342500 0.132500
0.815000 0.342500 0.132500
0.867500 0.342500 0.132500
0.920000 0.342500 0.132500
0.080000 0.395000 0.132500
0.132500 0.395000 0.132500
0.185000 0.395000 0.132500
0.237500 0.395000 0.132500
0.290000 0.395000 0.132500
0.342500 0.395000 0.132500
0.395000 0.395000 0.132500
0.447500 0.395000 0.132500
0.500000 0.395000 0.132500
0.552500 0.395000 0.132500
0.605000 0.395000 0.132500
0.657500 0.395000 0.132500
0.710000 0.395000 0.132500
0.762500 0.395000 0.132500
0.815000 0.395000 0.132500
0.867500 0.395000 0.132500
0.920000 0.395000 0.132500
0.080000 0.447500 0.132500
0.132500 0.447500 0.132500
0.185000 0.447500 0.132500
0.237500 0.447500 0.132500
0.290000 0.447500 0.132500
0.342500 0.447500 0.132500
0.395000 0.447500 0.132500
0.447500 0.447500 0.132500
0.500000 0.447500 0.132500
0.552500 0.447500 0.132500
0.605000 0.447500 0.132500
0.657500 0.447500 0.132500
0.710000 0.447500 0.132500
0.762500 0.447500 0.132500
0.815000 0.447500 0.132500
0.867500 0.447500 0.132500
0.920000 0.447500 0.132500
0.080000 0.500000 0.132500
0.132500 0.500000 0.132500
0.185000 0.500000 0.132500
0.237500 0.500000 0.132500
0.290000 0.500000 0.132500
0.342500 0.500000 0.132500
0.395000 0.500000 0.132500
0.447500 0.500000 0.132500
0.500000 0.500000 0.132500
0.552500 0.500000 0.132500
0.605000 0.500000 0.132500
0.657500 0.500000 0.132500
0.710000 0.500000 0.132500
0.762500 0.500000 0.132500
0.815000 0.500000 0.132500
0.867500 0.500000 0.132500
0.920000 0.500000 0.132500
0.080000 0.552500 0.132500
0.132500 0.552500 0.132500
0.185000 0.552500 0.132500
0.237500 0.552500 0.132500
0.290000 0.552500 0.132500
0.342500 0.552500 0.132500
0.395000 0.552500 0.132500
0.447500 0.552500 0.132500
0.500000 0.552500 0.132500
0.552500 0.552500 0.132500
0.605000 0.552500 0.132500
0.657500 0.552500 0.132500
0.710000 0.552500 0.132500
0.762500 0.552500 0.132500
0.815000 0.552500 0.132500
0.867500 0.552500 0.132500
0.920000 0.552500 0.132500
0.080000 0.605000 0.132500
0.132500 0.605000 0.132500
0.185000 0.605000 0.132500
0.237500 0.605000 0.132500
0.290000 0.605000 0.132500
0.342500 0.605000 0.132500
0.395000 0.605000 0.132500
0.447500 0.605000 0.132500
0.500000 0.605000 0.132500
0.552500 0.605000 0.132500
0.605000 0.605000 0.132500
0.657500 0.605000 0.132500
0.710000 0.605000 0.132500
0.762500 0.605000 0.132500
0.815000 0.605000 0.132500
0.867500 0.605000 0.132500
0.920000 0.605000 0.132500
0.080000 0.657500 0.132500
0.132500 0.657500 0.132500
0.185000 0.657500 0.132500
0.237500 0.657500 0.132500
0.290000 0.657500 0.132500
0.342500 0.657500 0.132500
0.395000 0.657500 0.132500
0.447500 0.657500 0.132500
0.500000 0.657500 0.132500
0.552500 0.657500 0.132500
0.605000 0.657500 0.132500
0.657500 0.657500 0.132500
0.710000 0.657500 0.132500
0.762500 0.657500 0.132500
0.815000 0.657500 0.132500
0.867500 0.657500 0.132500
0.920000 0.657500 0.132500
0.080000 0.710000 0.132500
0.132500 0.710000 0.132500
0.185000 0.710000 0.132500
0.237500 0.710000 0.132500
0.290000 0.710000 0.132500
0.342500 0.710000 0.132500
0.395000 0.710000 0.132500
0.447500 0.710000 0.132500
0.500000 0.710000 0.132500
0.552500 0.710000 0.132500
0.605000 0.710000 0.132500
0.657500 0.710000 0.132500
0.710000 0.710000 0.132500
0.762500 0.710000 0.132500
0.815000 0.710000 0.132500
0.867500 0.710000 0.132500
0.920000 0.710000 0.132500
0.080000 0.762500 0.132500
0.132500 0.762500 0.132500
0.185000 0.762500 0.132500
0.237500 0.762500 0.132500
0.290000 0.762500 0.132500
0.342500 0.762500 0.132500
0.395000 0.762500 0.132500
0.447500 0.762500 0.132500
0.500000 0.762500 0.132500
0.552500 0.762500 0.132500
0.605000 0.762500 0.132500
0.657500 0.762500 0.132500
0.710000 0.762500 0.132500
0.762500 0.762500 0.132500
0.815000 0.762500 0.132500
0.867500 0.762500 0.132500
0.920000 0.762500 0.132500
0.080000 0.815000 0.132500
0.132500 0.815000 0.132500
0.185000 0.815000 0.132500
0.237500 0.815000 0.132500
0.290000 0.815000 0.132500
0.342500 0.815000 0.132500
0.395000 0.815000 0.132500
0.447500 0.815000 0.132500
0.500000 0.815000 0.132500
0.552500 0.815000 0.132500
0.605000 0.815000 0.132500
0.657500 0.815000 0.132500
0.710000 0.815000 0.132500
0.762500 0.815000 0.132500
0.815000 0.815000 0.132500
0.867500 0.815000 0.132500
0.920000 0.815000 0.132500
0.080000 0.867500 0.132500
0.132500 0.867500 0.132500
0.185000 0.867500 0.132500
0.237500 0.867500 0.132500
0.290000 0.867500 0.132500
0.342500 0.867500 0.132500
0.395000 0.867500 0.132500
0.447500 0.867500 0.132500
0.500000 0.867500 0.132500
0.552500 0.867500 0.132500
0.605000 0.867500 0.132500
0.657500 0.867500 0.132500
0.710000 0.867500 0.132500
0.762500 0.867500 0.132500
0.815000 0.867500 0.132500
0.867500 0.867500 0.132500
0.920000 0.867500 0.132500
0.080000 0.920000 0.132500
0.132500 0.920000 0.132500
0.185000 0.920000 0.132500
0.237500 0.920000 0.132500
0.290000 0.920000 0.132500
0.342500 0.920000 0.132500
0.395000 0.920000 0.132500
0.447500 0.920000 0.132500
0.500000 0.920000 0.132500
0.552500 0.920000 0.132500
0.605000 0.920000 0.132500
0.657500 0.920000 0.132500
0.710000 0.920000 0.132500
0.762500 0.920000 0.132500
0.815000 0.920000 0.132500
0.867500 0.920000 0.132500
0.920000 0.920000 0.132500
0.080000 0.080000 0.185000
0.132500 0.080000 0.185000
0.185000 0.080000 0.185000
0.237500 0.080000 0.185000
0.290000 0.080000 0.185000
0.342500 0.080000 0.185000
0.395000 0.080000 0.185000
0.447500 0.080000 0.185000
0.500000 0.080000 0.185000
0.552500 0.080000 0.185000
0.605000 0.080000 0.185000
0.657500 0.080000 0.185000
0.710000 0.080000 0.185000
0.762500 0.080000 0.185000
0.815000 0.080000 0.185000
0.867500 0.080000 0.185000
0.920000 0.080000 0.185000
0.080000 0.132500 0.185000
0.132500 0.132500 0.185000
0.185000 0.132500 0.185000
0.237500 0.132500 0.185000
0.290000 0.132500 0.185000
0.342500 0.132500 0.185000
0.395000 0.132500 0.185000
0.447500 0.132500 0.185000
0.500000 0.132500 0.185000
0.552500 0.132500 0.185000
0.605000 0.132500 0.185000
0.657500 0.132500 0.185000
0.710000 0.132500 0.185000
0.762500 0.132500 0.185000
0.815000 0.132500 0.185000
0.867500 0.132500 0.185000
0.920000 0.132500 0.185000
0.080000 0.185000 0.185000
0.132500 0.185000 0.185000
0.185000 0.185000 0.185000
0.237500 0.185000 0.185000
0.290000 0.185000 0.185000
0.342500 0.185000 0.185000
0.395000 0.185000 0.185000
0.447500 0.185000 0.185000
0.500000 0.185000 0.185000
0.552500 0.185000 0.185000
0.605000 0.185000 0.185000
0.657500 0.185000 0.185000
0.710000 0.185000 0.185000
0.762500 0.185000 0.185000
0.815000 0.185000 0.185000
0.867500 0.185000 0.185000
0.920000 0.185000 0.185000
0.080000 0.237500 0.185000
0.132500 0.237500 0.185000
0.185000 0.237500 0.185000
0.237500 0.237500 0.185000
0.290000 0.237500 0.185000
0.342500 0.237500 0.185000
0.395000 0.237500 0.185000
0.447500 0.237500 0.185000
0.500000 0.237500 0.185000
0.552500 0.237500 0.185000
0.605000 0.237500 0.185000
0.657500 0.237500 0.185000
0.710000 0.237500 0.185000
0.762500 0.237500 0.185000
0.815000 0.237500 0.185000
0.867500 0.237500 0.185000
0.920000 0.237500 0.185000
0.080000 0.290000 0.185000
0.132500 0.290000 0.185000
0.185000 0.290000 0.185000
0.237500 0.290000 0.185000
0.290000 0.290000 0.185000
0.342500 0.290000 0.185000
0.395000 0.290000 0.185000
0.447500 0.290000 0.185000
0.500000 0.290000 0.185000
0.552500 0.290000 0.185000
0.605000 0.290000 0.185000
0.657500 0.290000 0.185000
0.710000 0.290000 0.185000
0.762500 0.290000 0.185000
0.815000 0.290000 0.185000
0.867500 0.290000 0.185000
0.920000 0.290000 0.185000
0.080000 0.342500 0.185000
0.132500 0.342500 0.185000
0.185000 0.342500 0.185000
0.237500 0.342500 0.185000
0.290000 0.342500 0.185000
0.342500 0.342500 0.185000
0.395000 0.342500 0.185000
0.447500 0.342500 0.185000
0.500000 0.342500 0.185000
0.552500 0.342500 0.185000
0.605000 0.342500 0.185000
0.657500 0.342500 0.185000
0.710000 0.342500 0.185000
0.762500 0.342500 0.185000
0.815000 0.342500 0.185000
0.867500 0.342500 0.185000
0.920000 0.342500 0.185000
0.080000 0.395000 0.185000
0.132500 0.395000 0.185000
0.185000 0.395000 0.185000
0.237500 0.395000 0.185000
0.290000 0.395000 0.185000
0.342500 0.395000 0.185000
0.395000 0.395000 0.185000
0.447500 0.395000 0.185000
0.500000 0.395000 0.185000
0.552500 0.395000 0.185000
0.605000 0.395000 0.185000
0.657500 0.395000 0.185000
0.710000 0.395000 0.185000
0.762500 0.395000 0.185000
0.815000 0.395000 0.185000
0.867500 0.395000 0.185000
0.920000 0.395000 0.185000
0.080000 0.447500 0.185000
0.132500 0.447500 0.185000
0.185000 0.447500 0.185000
0.237500 0.447500 0.185000
0.290000 0.447500 0.185000
0.342500 0.447500 0.185000
0.395000 0.447500 0.185000
0.447500 0.447500 0.185000
0.500000 0.447500 0.185000
0.552500 0.447500 0.185000
0.605000 0.447500 0.185000
0.657500 0.447500 0.185000
0.710000 0.447500 0.185000
0.762500 0.447500 0.185000
0.815000 0.447500 0.185000
0.867500 0.447500 0.185000
0.920000 0.447500 0.185000
0.080000 0.500000 0.185000
0.132500 0.500000 0.185000
0.185000 0.500000 0.185000
0.237500 0.500000 0.185000
0.290000 0.500000 0.185000
0.342500 0.500000 0.185000
0.395000 0.500000 0.185000
0.447500 0.500000 0.185000
0.500000 0.500000 0.185000
0.552500 0.500000 0.185000
0.605000 0.500000 0.185000
0.657500 0.500000 0.185000
0.710000 0.500000 0.185000
0.762500 0.500000 0.185000
0.815000 0.500000 0.185000
0.867500 0.500000 0.185000
0.920000 0.500000 0.185000
0.080000 0.552500 0.185000
0.132500 0.552500 0.185000
0.185000 0.552500 0.185000
0.237500 0.552500 0.185000
0.290000 0.552500 0.185000
0.342500 0.552500 0.185000
0.395000 0.552500 0.185000
0.447500 0.552500 0.185000
0.500000 0.552500 0.185000
0.552500 0.552500 0.185000
0.605000 0.552500 0.185000
0.657500 0.552500 0.185000
0.710000 0.552500 0.185000
0.762500 0.552500 0.185000
0.815000 0.552500 0.185000
0.867500 0.552500 0.185000
0.920000 0.552500 0.185000
0.080000 0.605000 0.185000
0.132500 0.605000 0.185000
0.185000 0.605000 0.185000
0.237500 0.605000 0.185000
0.290000 0.605000 0.185000
0.342500 0.605000 0.185000
0.395000 0.605000 0.185000
0.447500 0.605000 0.185000
0.500000 0.605000 0.185000
0.552500 0.605000 0.185000
0.605000 0.605000 0.185000
0.657500 0.605000 0.185000
0.710000 0.605000 0.185000
0.762500 0.605000 0.185000
0.815000 0.605000 0.185000
0.867500 0.605000 0.185000
0.920000 0.605000 0.185000
0.080000 0.657500 0.185000
0.132500 0.657500 0.185000
0.185000 0.657500 0.185000
0.237500 0.657500 0.185000
0.290000 0.657500 0.185000
0.342500 0.657500 0.185000
0.395000 0.657500 0.185000
0.447500 0.657500 0.185000
0.500000 0.657500 0.185000
0.552500 0.657500 0.185000
0.605000 0.657500 0.185000
0.657500 0.657500 0.185000
0.710000 0.657500 0.185000
0.762500 0.657500 0.185000
0.815000 0.657500 0.185000
0.867500 0.657500 0.185000
0.920000 0.657500 0.185000
0.080000 0.710000 0.185000
0.132500 0.710000 0.185000
0.185000 0.710000 0.185000
0.237500 0.710000 0.185000
0.290000 0.710000 0.185000
0.342500 0.710000 0.185000
0.395000 0.710000 0.185000
0.447500 0.710000 0.185000
0.500000 0.710000 0.185000
0.552500 0.710000 0.185000
0.605000 0.710000 0.185000
0.657500 0.710000 0.185000
0.710000 0.710000 0.185000
0.762500 0.710000 0.185000
0.815000 0.710000 0.185000
0.867500 0.710000 0.185000
0.920000 0.710000 0.185000
0.080000 0.762500 0.185000
0.132500 0.762500 0.185000
0.185000 0.762500 0.185000
0.237500 0.762500 0.185000
0.290000 0.762500 0.185000
0.342500 0.762500 0.185000
0.395000 0.762500 0.185000
0.447500 0.762500 0.185000
0.500000 0.762500 0.185000
0.552500 0.762500 0.185000
0.605000 0.762500 0.185000
0.657500 0.762500 0.185000
0.710000 0.762500 0.185000
0.762500 0.762500 0.185000
0.815000 0.762500 0.185000
0.867500 0.762500 0.185000
0.920000 0.762500 0.185000
0.080000 0.815000 0.185000
0.132500 0.815000 0.185000
0.185000 0.815000 0.185000
0.237500 0.815000 0.185000
0.290000 0.815000 0.185000
0.342500 0.815000 0.185000
0.395000 0.815000 0.185000
0.447500 0.815000 0.185000
0.500000 0.815000 0.185000
0.552500 0.815000 0.185000
0.605000 0.815000 0.185000
0.657500 0.815000 0.185000
0.710000 0.815000 0.185000
0.762500 0.815000 0.185000
0.815000 0.815000 0.185000
0.867500 0.815000 0.185000
0.920000 0.815000 0.185000
0.080000 0.867500 0.185000
0.132500 0.867500 0.185000
0.185000 0.867500 0.185000
0.237500 0.867500 0.185000
0.290000 0.867500 0.185000
0.342500 0.867500 0.185000
0.395000 0.867500 0.185000
0.447500 0.867500 0.185000
0.500000 0.867500 0.185000
0.552500 0.867500 0.185000
0.605000 0.867500 0.185000
0.657500 0.867500 0.185000
0.710000 0.867500 0.185000
0.762500 0.867500 0.185000
0.815000 0.867500 0.185000
0.867500 0.867500 0.185000
0.920000 0.867500 0.185000
0.080000 0.920000 0.185000
0.132500 0.920000 0.185000
0.185000 0.920000 0.185000
0.237500 0.920000 0.185000
0.290000 0.920000 0.185000
0.342500 0.920000 0.185000
0.395000 0.920000 0.185000
0.447500 0.920000 0.185000
0.500000 0.920000 0.185000
0.552500 0.920000 0.185000
0.605000 0.920000 0.185000
0.657500 0.920000 0.185000
0.710000 0.920000 0.185000
0.762500 0.920000 0.185000
0.815000 0.920000 0.185000
0.867500 0.920000 0.185000
0.920000 0.920000 0.185000
0.080000 0.080000 0.237500
0.132500 0.080000 0.237500
0.185000 0.080000 0.237500
0.237500 0.080000 0.237500
0.290000 0.080000 0.237500
0.342500 0.080000 0.237500
0.395000 0.080000 0.237500
0.447500 0.080000 0.237500
0.500000 0.080000 0.237500
0.552500 0.080000 0.237500
0.605000 0.080000 0.237500
0.657500 0.080000 0.237500
0.710000 0.080000 0.237500
0.762500 0.080000 0.237500
0.815000 0.080000 0.237500
0.867500 0.080000 0.237500
0.920000 0.080000 0.237500
0.080000 0.132500 0.237500
