deploy-fix/app/assets/luts/high_contrast_bw.cube
TITLE "High Contrast B&W"
LUT_3D_SIZE 9
DOMAIN_MIN 0.0 0.0 0.0
DOMAIN_MAX 1.0 1.0 1.0
0.000000 0.000000 0.000000
0.000000 0.000000 0.000000
0.000000 0.000000 0.000000
0.000000 0.000000 0.000000
0.000000 0.000000 0.000000
0.004381 0.004381 0.004381
0.040257 0.040257 0.040257
0.076134 0.076134 0.076134
0.112010 0.112010 0.112010
0.000000 0.000000 0.000000
0.000000 0.000000 0.000000
0.017442 0.017442 0.017442
0.053319 0.053319 0.053319
0.089195 0.089195 0.089195
0.125071 0.125071 0.125071
0.160948 0.160948 0.160948
0.196824 0.196824 0.196824
0.232700 0.232700 0.232700
0.066380 0.066380 0.066380
0.102256 0.102256 0.102256
0.138132 0.138132 0.138132
0.174009 0.174009 0.174009
0.209885 0.209885 0.209885
0.245761 0.245761 0.245761
0.281637 0.281637 0.281637
0.317514 0.317514 0.317514
0.353390 0.353390 0.353390
0.187070 0.187070 0.187070
0.222946 0.222946 0.222946
0.258823 0.258823 0.258823
0.294699 0.294699 0.294699
0.330575 0.330575 0.330575
0.366451 0.366451 0.366451
0.402327 0.402327 0.402327
0.438204 0.438204 0.438204
0.474080 0.474080 0.474080
0.307760 0.307760 0.307760
0.343636 0.343636 0.343636
0.379512 0.379512 0.379512
0.415389 0.415389 0.415389
0.451265 0.451265 0.451265
0.487141 0.487141 0.487141
0.523018 0.523018 0.523018
0.558894 0.558894 0.558894
0.594770 0.594770 0.594770
0.428450 0.428450 0.428450
0.464326 0.464326 0.464326
0.500202 0.500202 0.500202
0.536079 0.536079 0.536079
0.571955 0.571955 0.571955
0.607831 0.607831 0.607831
0.643707 0.643707 0.643707
0.679584 0.679584 0.679584
0.715460 0.715460 0.715460
0.549140 0.549140 0.549140
0.585016 0.585016 0.585016
0.620893 0.620893 0.620893
0.656769 0.656769 0.656769
0.692645 0.692645 0.692645
0.728521 0.728521 0.728521
0.764397 0.764397 0.764397
0.800274 0.800274 0.800274
0.836150 0.836150 0.836150
0.669830 0.669830 0.669830
0.705706 0.705706 0.705706
0.741582 0.741582 0.741582
0.777459 0.777459 0.777459
0.813335 0.813335 0.813335
0.849211 0.849211 0.849211
0.885087 0.885087 0.885087
0.920964 0.920964 0.920964
0.956840 0.956840 0.956840
0.790520 0.790520 0.790520
0.826396 0.826396 0.826396
0.862272 0.862272 0.862272
0.898149 0.898149 0.898149
0.934025 0.934025 0.934025
0.969901 0.969901 0.969901
1.000000 1.000000 1.000000
1.000000 1.000000 1.000000
1.000000 1.000000 1.000000
0.000000 0.000000 0.000000
0.000000 0.000000 0.000000
0.000000 0.000000 0.000000
0.000000 0.000000 0.000000
0.000000 0.000000 0.000000
0.016565 0.016565 0.016565
0.052441 0.052441 0.052441
0.088317 0.088317 0.088317
0.124194 0.124194 0.124194
0.000000 0.000000 0.000000
0.000000 0.000000 0.000000
0.029626 0.029626 0.029626
0.065503 0.065503 0.065503
0.101379 0.101379 0.101379
0.137255 0.137255 0.137255
0.173131 0.173131 0.173131
0.209007 0.209007 0.209007
0.244884 0.244884 0.244884
0.078564 0.078564 0.078564
0.114440 0.114440 0.114440
0.150316 0.150316 0.150316
0.186192 0.186192 0.186192
0.222069 0.222069 0.222069
0.257945 0.257945 0.257945
0.293821 0.293821 0.293821
0.329697 0.329697 0.329697
0.365574 0.365574 0.365574
0.199254 0.199254 0.199254
0.235130 0.235130 0.235130
0.271006 0.271006 0.271006
0.306882 0.306882 0.306882
0.342759 0.342759 0.342759
0.378635 0.378635 0.378635
0.414511 0.414511 0.414511
0.450387 0.450387 0.450387
0.486264 0.486264 0.486264
0.319944 0.319944 0.319944
0.355820 0.355820 0.355820
0.391696 0.391696 0.391696
0.427572 0.427572 0.427572
0.463449 0.463449 0.463449
0.499325 0.499325 0.499325
0.535201 0.535201 0.535201
0.571078 0.571078 0.571078
0.606954 0.606954 0.606954
0.440634 0.440634 0.440634
0.476510 0.476510 0.476510
0.512386 0.512386 0.512386
0.548262 0.548262 0.548262
0.584139 0.584139 0.584139
0.620015 0.620015 0.620015
0.655891 0.655891 0.655891
0.691767 0.691767 0.691767
0.727644 0.727644 0.727644
0.561324 0.561324 0.561324
0.597200 0.597200 0.597200
0.633076 0.633076 0.633076
0.668952 0.668952 0.668952
0.704829 0.704829 0.704829
0.740705 0.740705 0.740705
0.776581 0.776581 0.776581
0.812457 0.812457 0.812457
0.848334 0.848334 0.848334
0.682014 0.682014 0.682014
0.717890 0.717890 0.717890
0.753766 0.753766 0.753766
0.789642 0.789642 0.789642
0.825519 0.825519 0.825519
0.861395 0.861395 0.861395
0.897271 0.897271 0.897271
0.933147 0.933147 0.933147
0.969024 0.969024 0.969024
0.802704 0.802704 0.802704
0.838580 0.838580 0.838580
0.874456 0.874456 0.874456
0.910332 0.910332 0.910332
0.946209 0.946209 0.946209
0.982085 0.982085 0.982085
1.000000 1.000000 1.000000
1.000000 1.000000 1.000000
1.000000 1.000000 1.000000
0.000000 0.000000 0.000000
0.000000 0.000000 0.000000
0.000000 0.000000 0.000000
0.000000 0.000000 0.000000
0.000000 0.000000 0.000000
0.028749 0.028749 0.028749
0.064625 0.064625 0.064625
0.100501 0.100501 0.100501
0.136377 0.136377 0.136377
0.000000 0.000000 0.000000
0.005934 0.005934 0.005934
0.041810 0.041810 0.041810
0.077686 0.077686 0.077686
0.113562 0.113562 0.113562
0.149439 0.149439 0.149439
0.185315 0.185315 0.185315
0.221191 0.221191 0.221191
0.257068 0.257068 0.257068
0.090747 0.090747 0.090747
0.126624 0.126624 0.126624
0.162500 0.162500 0.162500
0.198376 0.198376 0.198376
0.234253 0.234253 0.234253
0.270129 0.270129 0.270129
0.306005 0.306005 0.306005
0.341881 0.341881 0.341881
0.377757 0.377757 0.377757
0.211438 0.211438 0.211438
0.247314 0.247314 0.247314
0.283190 0.283190 0.283190
0.319066 0.319066 0.319066
0.354942 0.354942 0.354942
0.390819 0.390819 0.390819
0.426695 0.426695 0.426695
0.462571 0.462571 0.462571
0.498448 0.498448 0.498448
0.332127 0.332127 0.332127
0.368004 0.368004 0.368004
0.403880 0.403880 0.403880
0.439756 0.439756 0.439756
0.475633 0.475633 0.475633
0.511509 0.511509 0.511509
0.547385 0.547385 0.547385
0.583261 0.583261 0.583261
0.619138 0.619138 0.619138
0.452817 0.452817 0.452817
0.488694 0.488694 0.488694
0.524570 0.524570 0.524570
0.560446 0.560446 0.560446
0.596322 0.596322 0.596322
0.632199 0.632199 0.632199
0.668075 0.668075 0.668075
0.703951 0.703951 0.703951
0.739827 0.739827 0.739827
0.573508 0.573508 0.573508
0.609384 0.609384 0.609384
0.645260 0.645260 0.645260
0.681136 0.681136 0.681136
0.717013 0.717013 0.717013
0.752889 0.752889 0.752889
0.788765 0.788765 0.788765
0.824641 0.824641 0.824641
0.860518 0.860518 0.860518
0.694197 0.694197 0.694197
0.730074 0.730074 0.730074
0.765950 0.765950 0.765950
0.801826 0.801826 0.801826
0.837703 0.837703 0.837703
0.873579 0.873579 0.873579
0.909455 0.909455 0.909455
0.945331 0.945331 0.945331
0.981208 0.981208 0.981208
0.814887 0.814887 0.814887
0.850764 0.850764 0.850764
0.886640 0.886640 0.886640
0.922516 0.922516 0.922516
0.958392 0.958392 0.958392
0.994269 0.994269 0.994269
1.000000 1.000000 1.000000
1.000000 1.000000 1.000000
1.000000 1.000000 1.000000
0.000000 0.000000 0.000000
0.000000 0.000000 0.000000
0.000000 0.000000 0.000000
0.000000 0.000000 0.000000
0.005056 0.005056 0.005056
0.040933 0.040933 0.040933
0.076809 0.076809 0.076809
0.112685 0.112685 0.112685
0.148561 0.148561 0.148561
0.000000 0.000000 0.000000
0.018118 0.018118 0.018118
0.053994 0.053994 0.053994
0.089870 0.089870 0.089870
0.125746 0.125746 0.125746
0.161623 0.161623 0.161623
0.197499 0.197499 0.197499
0.233375 0.233375 0.233375
0.269251 0.269251 0.269251
0.102931 0.102931 0.102931
0.138807 0.138807 0.138807
0.174684 0.174684 0.174684
0.210560 0.210560 0.210560
0.246436 0.246436 0.246436
0.282313 0.282313 0.282313
0.318189 0.318189 0.318189
0.354065 0.354065 0.354065
0.389941 0.389941 0.389941
0.223621 0.223621 0.223621
0.259498 0.259498 0.259498
0.295374 0.295374 0.295374
0.331250 0.331250 0.331250
0.367126 0.367126 0.367126
0.403003 0.403003 0.403003
0.438879 0.438879 0.438879
0.474755 0.474755 0.474755
0.510631 0.510631 0.510631
0.344311 0.344311 0.344311
0.380188 0.380188 0.380188
0.416064 0.416064 0.416064
0.451940 0.451940 0.451940
0.487816 0.487816 0.487816
0.523692 0.523692 0.523692
0.559569 0.559569 0.559569
0.595445 0.595445 0.595445
0.631321 0.631321 0.631321
0.465001 0.465001 0.465001
0.500877 0.500877 0.500877
0.536754 0.536754 0.536754
0.572630 0.572630 0.572630
0.608506 0.608506 0.608506
0.644382 0.644382 0.644382
0.680259 0.680259 0.680259
0.716135 0.716135 0.716135
0.752011 0.752011 0.752011
0.585691 0.585691 0.585691
0.621567 0.621567 0.621567
0.657444 0.657444 0.657444
0.693320 0.693320 0.693320
0.729196 0.729196 0.729196
0.765073 0.765073 0.765073
0.800949 0.800949 0.800949
0.836825 0.836825 0.836825
0.872701 0.872701 0.872701
0.706381 0.706381 0.706381
0.742257 0.742257 0.742257
0.778134 0.778134 0.778134
0.814010 0.814010 0.814010
0.849886 0.849886 0.849886
0.885763 0.885763 0.885763
0.921639 0.921639 0.921639
0.957515 0.957515 0.957515
0.993391 0.993391 0.993391
0.827071 0.827071 0.827071
0.862947 0.862947 0.862947
0.898824 0.898824 0.898824
0.934700 0.934700 0.934700
0.970576 0.970576 0.970576
1.000000 1.000000 1.000000
1.000000 1.000000 1.000000
1.000000 1.000000 1.000000
1.000000 1.000000 1.000000
0.000000 0.000000 0.000000
0.000000 0.000000 0.000000
0.000000 0.000000 0.000000
0.000000 0.000000 0.000000
0.017240 0.017240 0.017240
0.053116 0.053116 0.053116
0.088992 0.088992 0.088992
0.124869 0.124869 0.124869
0.160745 0.160745 0.160745
0.000000 0.000000 0.000000
0.030301 0.030301 0.030301
0.066177 0.066177 0.066177
0.102054 0.102054 0.102054
0.137930 0.137930 0.137930
0.173806 0.173806 0.173806
0.209683 0.209683 0.209683
0.245559 0.245559 0.245559
0.281435 0.281435 0.281435
0.115115 0.115115 0.115115
0.150991 0.150991 0.150991
0.186868 0.186868 0.186868
0.222744 0.222744 0.222744
0.258620 0.258620 0.258620
0.294496 0.294496 0.294496
0.330373 0.330373 0.330373
0.366249 0.366249 0.366249
0.402125 0.402125 0.402125
0.235805 0.235805 0.235805
0.271681 0.271681 0.271681
0.307558 0.307558 0.307558
0.343434 0.343434 0.343434
0.379310 0.379310 0.379310
0.415186 0.415186 0.415186
0.451062 0.451062 0.451062
0.486939 0.486939 0.486939
0.522815 0.522815 0.522815
0.356495 0.356495 0.356495
0.392371 0.392371 0.392371
0.428247 0.428247 0.428247
0.464124 0.464124 0.464124
0.500000 0.500000 0.500000
0.535876 0.535876 0.535876
0.571753 0.571753 0.571753
0.607629 0.607629 0.607629
0.643505 0.643505 0.643505
0.477185 0.477185 0.477185
0.513061 0.513061 0.513061
0.548937 0.548937 0.548937
0.584814 0.584814 0.584814
0.620690 0.620690 0.620690
0.656566 0.656566 0.656566
0.692442 0.692442 0.692442
0.728319 0.728319 0.728319
0.764195 0.764195 0.764195
0.597875 0.597875 0.597875
0.633751 0.633751 0.633751
0.669628 0.669628 0.669628
0.705504 0.705504 0.705504
0.741380 0.741380 0.741380
0.777256 0.777256 0.777256
0.813133 0.813133 0.813133
0.849009 0.849009 0.849009
0.884885 0.884885 0.884885
0.718565 0.718565 0.718565
0.754441 0.754441 0.754441
0.790318 0.790318 0.790318
0.826194 0.826194 0.826194
0.862070 0.862070 0.862070
0.897946 0.897946 0.897946
0.933822 0.933822 0.933822
0.969699 0.969699 0.969699
1.000000 1.000000 1.000000
0.839255 0.839255 0.839255
0.875131 0.875131 0.875131
0.911007 0.911007 0.911007
0.946884 0.946884 0.946884
0.982760 0.982760 0.982760
1.000000 1.000000 1.000000
1.000000 1.000000 1.000000
1.000000 1.000000 1.000000
1.000000 1.000000 1.000000
0.000000 0.000000 0.000000
0.000000 0.000000 0.000000
0.000000 0.000000 0.000000
0.000000 0.000000 0.000000
0.029424 0.029424 0.029424
0.065300 0.065300 0.065300
0.101176 0.101176 0.101176
0.137052 0.137052 0.137052
0.172929 0.172929 0.172929
0.006609 0.006609 0.006609
0.042485 0.042485 0.042485
0.078361 0.078361 0.078361
0.114237 0.114237 0.114237
0.150114 0.150114 0.150114
0.185990 0.185990 0.185990
0.221866 0.221866 0.221866
0.257742 0.257742 0.257742
0.293619 0.293619 0.293619
0.127299 0.127299 0.127299
0.163175 0.163175 0.163175
0.199051 0.199051 0.199051
0.234927 0.234927 0.234927
0.270804 0.270804 0.270804
0.306680 0.306680 0.306680
0.342556 0.342556 0.342556
0.378432 0.378432 0.378432
0.414309 0.414309 0.414309
0.247989 0.247989 0.247989
0.283865 0.283865 0.283865
0.319741 0.319741 0.319741
0.355618 0.355618 0.355618
0.391494 0.391494 0.391494
0.427370 0.427370 0.427370
0.463246 0.463246 0.463246
0.499122 0.499122 0.499122
0.534999 0.534999 0.534999
0.368679 0.368679 0.368679
0.404555 0.404555 0.404555
0.440431 0.440431 0.440431
0.476307 0.476307 0.476307
0.512184 0.512184 0.512184
0.548060 0.548060 0.548060
0.583936 0.583936 0.583936
0.619812 0.619812 0.619812
0.655689 0.655689 0.655689
0.489369 0.489369 0.489369
0.525245 0.525245 0.525245
0.561121 0.561121 0.561121
0.596997 0.596997 0.596997
0.632874 0.632874 0.632874
0.668750 0.668750 0.668750
0.704626 0.704626 0.704626
0.740502 0.740502 0.740502
0.776379 0.776379 0.776379
0.610059 0.610059 0.610059
0.645935 0.645935 0.645935
0.681811 0.681811 0.681811
0.717688 0.717688 0.717688
0.753564 0.753564 0.753564
0.789440 0.789440 0.789440
0.825316 0.825316 0.825316
0.861193 0.861193 0.861193
0.897069 0.897069 0.897069
0.730749 0.730749 0.730749
0.766625 0.766625 0.766625
0.802501 0.802501 0.802501
0.838377 0.838377 0.838377
0.874254 0.874254 0.874254
0.910130 0.910130 0.910130
0.946006 0.946006 0.946006
0.981882 0.981882 0.981882
1.000000 1.000000 1.000000
0.851439 0.851439 0.851439
0.887315 0.887315 0.887315
0.923191 0.923191 0.923191
0.959067 0.959067 0.959067
0.994944 0.994944 0.994944
1.000000 1.000000 1.000000
1.000000 1.000000 1.000000
1.000000 1.000000 1.000000
1.000000 1.000000 1.000000
0.000000 0.000000 0.000000
0.000000 0.000000 0.000000
0.000000 0.000000 0.000000
0.005731 0.005731 0.005731
0.041607 0.041607 0.041607
0.077484 0.077484 0.077484
0.113360 0.113360 0.113360
0.149236 0.149236 0.149236
0.185113 0.185113 0.185113
0.018792 0.018792 0.018792
0.054669 0.054669 0.054669
0.090545 0.090545 0.090545
0.126421 0.126421 0.126421
0.162297 0.162297 0.162297
0.198174 0.198174 0.198174
0.234050 0.234050 0.234050
0.269926 0.269926 0.269926
0.305802 0.305802 0.305802
0.139482 0.139482 0.139482
0.175359 0.175359 0.175359
0.211235 0.211235 0.211235
0.247111 0.247111 0.247111
0.282988 0.282988 0.282988
0.318864 0.318864 0.318864
0.354740 0.354740 0.354740
0.390616 0.390616 0.390616
0.426492 0.426492 0.426492
0.260173 0.260173 0.260173
0.296049 0.296049 0.296049
0.331925 0.331925 0.331925
0.367801 0.367801 0.367801
0.403677 0.403677 0.403677
0.439554 0.439554 0.439554
0.475430 0.475430 0.475430
0.511306 0.511306 0.511306
0.547183 0.547183 0.547183
0.380862 0.380862 0.380862
0.416739 0.416739 0.416739
0.452615 0.452615 0.452615
0.488491 0.488491 0.488491
0.524367 0.524367 0.524367
0.560244 0.560244 0.560244
0.596120 0.596120 0.596120
0.631996 0.631996 0.631996
0.667873 0.667873 0.667873
0.501552 0.501552 0.501552
0.537429 0.537429 0.537429
0.573305 0.573305 0.573305
0.609181 0.609181 0.609181
0.645057 0.645057 0.645057
0.680934 0.680934 0.680934
0.716810 0.716810 0.716810
0.752686 0.752686 0.752686
0.788563 0.788563 0.788563
0.622243 0.622243 0.622243
0.658119 0.658119 0.658119
0.693995 0.693995 0.693995
0.729871 0.729871 0.729871
0.765748 0.765748 0.765748
0.801624 0.801624 0.801624
0.837500 0.837500 0.837500
0.873376 0.873376 0.873376
0.909253 0.909253 0.909253
0.742932 0.742932 0.742932
0.778809 0.778809 0.778809
0.814685 0.814685 0.814685
0.850561 0.850561 0.850561
0.886437 0.886437 0.886437
0.922314 0.922314 0.922314
0.958190 0.958190 0.958190
0.994066 0.994066 0.994066
1.000000 1.000000 1.000000
0.863622 0.863622 0.863622
0.899499 0.899499 0.899499
0.935375 0.935375 0.935375
0.971251 0.971251 0.971251
1.000000 1.000000 1.000000
1.000000 1.000000 1.000000
1.000000 1.000000 1.000000
1.000000 1.000000 1.000000
1.000000 1.000000 1.000000
0.000000 0.000000 0.000000
0.000000 0.000000 0.000000
0.000000 0.000000 0.000000
0.017915 0.017915 0.017915
0.053791 0.053791 0.053791
0.089667 0.089667 0.089667
0.125544 0.125544 0.125544
0.161420 0.161420 0.161420
0.197296 0.197296 0.197296
0.030976 0.030976 0.030976
0.066852 0.066852 0.066852
0.102729 0.102729 0.102729
0.138605 0.138605 0.138605
0.174481 0.174481 0.174481
0.210357 0.210357 0.210357
0.246234 0.246234 0.246234
0.282110 0.282110 0.282110
0.317986 0.317986 0.317986
0.151666 0.151666 0.151666
0.187542 0.187542 0.187542
0.223419 0.223419 0.223419
0.259295 0.259295 0.259295
0.295171 0.295171 0.295171
0.331048 0.331048 0.331048
0.366924 0.366924 0.366924
0.402800 0.402800 0.402800
0.438676 0.438676 0.438676
0.272356 0.272356 0.272356
0.308232 0.308232 0.308232
0.344109 0.344109 0.344109
0.379985 0.379985 0.379985
0.415861 0.415861 0.415861
0.451738 0.451738 0.451738
0.487614 0.487614 0.487614
0.523490 0.523490 0.523490
0.559366 0.559366 0.559366
0.393046 0.393046 0.393046
0.428922 0.428922 0.428922
0.464799 0.464799 0.464799
0.500675 0.500675 0.500675
0.536551 0.536551 0.536551
0.572427 0.572427 0.572427
0.608304 0.608304 0.608304
0.644180 0.644180 0.644180
0.680056 0.680056 0.680056
0.513736 0.513736 0.513736
0.549612 0.549612 0.549612
0.585489 0.585489 0.585489
0.621365 0.621365 0.621365
0.657241 0.657241 0.657241
0.693117 0.693117 0.693117
0.728994 0.728994 0.728994
0.764870 0.764870 0.764870
0.800746 0.800746 0.800746
0.634426 0.634426 0.634426
0.670303 0.670303 0.670303
0.706179 0.706179 0.706179
0.742055 0.742055 0.742055
0.777931 0.777931 0.777931
0.813808 0.813808 0.813808
0.849684 0.849684 0.849684
0.885560 0.885560 0.885560
0.921436 0.921436 0.921436
0.755116 0.755116 0.755116
0.790992 0.790992 0.790992
0.826869 0.826869 0.826869
0.862745 0.862745 0.862745
0.898621 0.898621 0.898621
0.934497 0.934497 0.934497
0.970374 0.970374 0.970374
1.000000 1.000000 1.000000
1.000000 1.000000 1.000000
0.875806 0.875806 0.875806
0.911682 0.911682 0.911682
0.947559 0.947559 0.947559
0.983435 0.983435 0.983435
1.000000 1.000000 1.000000
1.000000 1.000000 1.000000
1.000000 1.000000 1.000000
1.000000 1.000000 1.000000
1.000000 1.000000 1.000000
0.000000 0.000000 0.000000
0.000000 0.000000 0.000000
0.000000 0.000000 0.000000
0.030099 0.030099 0.030099
0.065975 0.065975 0.065975
0.101851 0.101851 0.101851
0.137728 0.137728 0.137728
0.173604 0.173604 0.173604
0.209480 0.209480 0.209480
0.043160 0.043160 0.043160
0.079036 0.079036 0.079036
0.114912 0.114912 0.114912
0.150789 0.150789 0.150789
0.186665 0.186665 0.186665
0.222541 0.222541 0.222541
0.258417 0.258417 0.258417
0.294294 0.294294 0.294294
0.330170 0.330170 0.330170
0.163850 0.163850 0.163850
0.199726 0.199726 0.199726
0.235602 0.235602 0.235602
0.271479 0.271479 0.271479
0.307355 0.307355 0.307355
0.343231 0.343231 0.343231
0.379107 0.379107 0.379107
0.414984 0.414984 0.414984
0.450860 0.450860 0.450860
0.284540 0.284540 0.284540
0.320416 0.320416 0.320416
0.356293 0.356293 0.356293
0.392169 0.392169 0.392169
0.428045 0.428045 0.428045
0.463921 0.463921 0.463921
0.499797 0.499797 0.499797
0.535674 0.535674 0.535674
0.571550 0.571550 0.571550
0.405230 0.405230 0.405230
0.441106 0.441106 0.441106
0.476982 0.476982 0.476982
0.512859 0.512859 0.512859
0.548735 0.548735 0.548735
0.584611 0.584611 0.584611
0.620488 0.620488 0.620488
0.656364 0.656364 0.656364
0.692240 0.692240 0.692240
0.525920 0.525920 0.525920
0.561796 0.561796 0.561796
0.597673 0.597673 0.597673
0.633549 0.633549 0.633549
0.669425 0.669425 0.669425
0.705301 0.705301 0.705301
0.741178 0.741178 0.741178
0.777054 0.777054 0.777054
0.812930 0.812930 0.812930
0.646610 0.646610 0.646610
0.682486 0.682486 0.682486
0.718363 0.718363 0.718363
0.754239 0.754239 0.754239
0.790115 0.790115 0.790115
0.825991 0.825991 0.825991
0.861868 0.861868 0.861868
0.897744 0.897744 0.897744
0.933620 0.933620 0.933620
0.767300 0.767300 0.767300
0.803176 0.803176 0.803176
0.839052 0.839052 0.839052
0.874929 0.874929 0.874929
0.910805 0.910805 0.910805
0.946681 0.946681 0.946681
0.982557 0.982557 0.982557
1.000000 1.000000 1.000000
1.000000 1.000000 1.000000
0.887990 0.887990 0.887990
0.923866 0.923866 0.923866
0.959743 0.959743 0.959743
0.995619 0.995619 0.995619
1.000000 1.000000 1.000000
1.000000 1.000000 1.000000
1.000000 1.000000 1.000000
1.000000 1.000000 1.000000
1.000000 1.000000 1.000000
