deploy-fix/app/assets/luts/high_contrast_bw.cube
TITLE "High Contrast B&W"
LUT_3D_SIZE 5
DOMAIN_MIN 0.0 0.0 0.0
DOMAIN_MAX 1.0 1.0 1.0
0.000000 0.000000 0.000000
0.000000 0.000000 0.000000
0.000000 0.000000 0.000000
0.040257 0.040257 0.040257
0.112010 0.112010 0.112010
0.066380 0.066380 0.066380
0.138132 0.138132 0.138132
0.209885 0.209885 0.209885
0.281637 0.281637 0.281637
0.353390 0.353390 0.353390
0.307760 0.307760 0.307760
0.379512 0.379512 0.379512
0.451265 0.451265 0.451265
0.523018 0.523018 0.523018
0.594770 0.594770 0.594770
0.549140 0.549140 0.549140
0.620893 0.620893 0.620893
0.692645 0.692645 0.692645
0.764397 0.764397 0.764397
0.836150 0.836150 0.836150
0.790520 0.790520 0.790520
0.862272 0.862272 0.862272
0.934025 0.934025 0.934025
1.000000 1.000000 1.000000
1.000000 1.000000 1.000000
0.000000 0.000000 0.000000
0.000000 0.000000 0.000000
0.000000 0.000000 0.000000
0.064625 0.064625 0.064625
0.136377 0.136377 0.136377
0.090747 0.090747 0.090747
0.162500 0.162500 0.162500
0.234253 0.234253 0.234253
0.306005 0.306005 0.306005
0.377757 0.377757 0.377757
0.332127 0.332127 0.332127
0.403880 0.403880 0.403880
0.475633 0.475633 0.475633
0.547385 0.547385 0.547385
0.619138 0.619138 0.619138
0.573508 0.573508 0.573508
0.645260 0.645260 0.645260
0.717013 0.717013 0.717013
0.788765 0.788765 0.788765
0.860518 0.860518 0.860518
0.814887 0.814887 0.814887
0.886640 0.886640 0.886640
0.958392 0.958392 0.958392
1.000000 1.000000 1.000000
1.000000 1.000000 1.000000
0.000000 0.000000 0.000000
0.000000 0.000000 0.000000
0.017240 0.017240 0.017240
0.088992 0.088992 0.088992
0.160745 0.160745 0.160745
0.115115 0.115115 0.115115
0.186868 0.186868 0.186868
0.258620 0.258620 0.258620
0.330373 0.330373 0.330373
0.402125 0.402125 0.402125
0.356495 0.356495 0.356495
0.428247 0.428247 0.428247
0.500000 0.500000 0.500000
0.571753 0.571753 0.571753
0.643505 0.643505 0.643505
0.597875 0.597875 0.597875
0.669628 0.669628 0.669628
0.741380 0.741380 0.741380
0.813133 0.813133 0.813133
0.884885 0.884885 0.884885
0.839255 0.839255 0.839255
0.911007 0.911007 0.911007
0.982760 0.982760 0.982760
1.000000 1.000000 1.000000
1.000000 1.000000 1.000000
0.000000 0.000000 0.000000
0.000000 0.000000 0.000000
0.041607 0.041607 0.041607
0.113360 0.113360 0.113360
0.185113 0.185113 0.185113
0.139482 0.139482 0.139482
0.211235 0.211235 0.211235
0.282988 0.282988 0.282988
0.354740 0.354740 0.354740
0.426492 0.426492 0.426492
0.380862 0.380862 0.380862
0.452615 0.452615 0.452615
0.524367 0.524367 0.524367
0.596120 0.596120 0.596120
0.667873 0.667873 0.667873
0.622243 0.622243 0.622243
0.693995 0.693995 0.693995
0.765748 0.765748 0.765748
0.837500 0.837500 0.837500
0.909253 0.909253 0.909253
0.863622 0.863622 0.863622
0.935375 0.935375 0.935375
1.000000 1.000000 1.000000
1.000000 1.000000 1.000000
1.000000 1.000000 1.000000
0.000000 0.000000 0.000000
0.000000 0.000000 0.000000
0.065975 0.065975 0.065975
0.137728 0.137728 0.137728
0.209480 0.209480 0.209480
0.163850 0.163850 0.163850
0.235602 0.235602 0.235602
0.307355 0.307355 0.307355
0.379107 0.379107 0.379107
0.450860 0.450860 0.450860
0.405230 0.405230 0.405230
0.476982 0.476982 0.476982
0.548735 0.548735 0.548735
0.620488 0.620488 0.620488
0.692240 0.692240 0.692240
0.646610 0.646610 0.646610
0.718363 0.718363 0.718363
0.790115 0.790115 0.790115
0.861868 0.861868 0.861868
0.933620 0.933620 0.933620
0.887990 0.887990 0.887990
0.959743 0.959743 0.959743
1.000000 1.000000 1.000000
1.000000 1.000000 1.000000
1.000000 1.000000 1.000000
