deploy-fix/app/assets/luts/high_contrast_bw.cube
TITLE "High Contrast B&W"
LUT_3D_SIZE 17
DOMAIN_MIN 0.0 0.0 0.0
DOMAIN_MAX 1.0 1.0 1.0
0.000000 0.000000 0.000000
0.000000 0.000000 0.000000
0.000000 0.000000 0.000000
0.000000 0.000000 0.000000
0.000000 0.000000 0.000000
0.000000 0.000000 0.000000
0.000000 0.000000 0.000000
0.000000 0.000000 0.000000
0.000000 0.000000 0.000000
0.000000 0.000000 0.000000
0.004381 0.004381 0.004381
0.022319 0.022319 0.022319
0.040257 0.040257 0.040257
0.058196 0.058196 0.058196
0.076134 0.076134 0.076134
0.094072 0.094072 0.094072
0.112010 0.112010 0.112010
0.000000 0.000000 0.000000
0.000000 0.000000 0.000000
0.000000 0.000000 0.000000
0.000000 0.000000 0.000000
0.000000 0.000000 0.000000
0.000000 0.000000 0.000000
0.000000 0.000000 0.000000
0.010912 0.010912 0.010912
0.028850 0.028850 0.028850
0.046788 0.046788 0.046788
0.064726 0.064726 0.064726
0.082664 0.082664 0.082664
0.100602 0.100602 0.100602
0.118541 0.118541 0.118541
0.136479 0.136479 0.136479
0.154417 0.154417 0.154417
0.172355 0.172355 0.172355
0.000000 0.000000 0.000000
0.000000 0.000000 0.000000
0.000000 0.000000 0.000000
0.000000 0.000000 0.000000
0.017442 0.017442 0.017442
0.035381 0.035381 0.035381
0.053319 0.053319 0.053319
0.071257 0.071257 0.071257
0.089195 0.089195 0.089195
0.107133 0.107133 0.107133
0.125071 0.125071 0.125071
0.143009 0.143009 0.143009
0.160948 0.160948 0.160948
0.178886 0.178886 0.178886
0.196824 0.196824 0.196824
0.214762 0.214762 0.214762
0.232700 0.232700 0.232700
0.006035 0.006035 0.006035
0.023973 0.023973 0.023973
0.041911 0.041911 0.041911
0.059849 0.059849 0.059849
0.077788 0.077788 0.077788
0.095726 0.095726 0.095726
0.113664 0.113664 0.113664
0.131602 0.131602 0.131602
0.149540 0.149540 0.149540
0.167478 0.167478 0.167478
0.185416 0.185416 0.185416
0.203354 0.203354 0.203354
0.221292 0.221292 0.221292
0.239231 0.239231 0.239231
0.257169 0.257169 0.257169
0.275107 0.275107 0.275107
0.293045 0.293045 0.293045
0.066380 0.066380 0.066380
0.084318 0.084318 0.084318
0.102256 0.102256 0.102256
0.120194 0.120194 0.120194
0.138132 0.138132 0.138132
0.156071 0.156071 0.156071
0.174009 0.174009 0.174009
0.191947 0.191947 0.191947
0.209885 0.209885 0.209885
0.227823 0.227823 0.227823
0.245761 0.245761 0.245761
0.263699 0.263699 0.263699
0.281637 0.281637 0.281637
0.299576 0.299576 0.299576
0.317514 0.317514 0.317514
0.335452 0.335452 0.335452
0.353390 0.353390 0.353390
0.126725 0.126725 0.126725
0.144663 0.144663 0.144663
0.162601 0.162601 0.162601
0.180539 0.180539 0.180539
0.198477 0.198477 0.198477
0.216416 0.216416 0.216416
0.234354 0.234354 0.234354
0.252292 0.252292 0.252292
0.270230 0.270230 0.270230
0.288168 0.288168 0.288168
0.306106 0.306106 0.306106
0.324044 0.324044 0.324044
0.341982 0.341982 0.341982
0.359921 0.359921 0.359921
0.377859 0.377859 0.377859
0.395797 0.395797 0.395797
0.413735 0.413735 0.413735
0.187070 0.187070 0.187070
0.205008 0.205008 0.205008
0.222946 0.222946 0.222946
0.240884 0.240884 0.240884
0.258823 0.258823 0.258823
0.276761 0.276761 0.276761
0.294699 0.294699 0.294699
0.312637 0.312637 0.312637
0.330575 0.330575 0.330575
0.348513 0.348513 0.348513
0.366451 0.366451 0.366451
0.384389 0.384389 0.384389
0.402327 0.402327 0.402327
0.420266 0.420266 0.420266
0.438204 0.438204 0.438204
0.456142 0.456142 0.456142
0.474080 0.474080 0.474080
0.247415 0.247415 0.247415
0.265353 0.265353 0.265353
0.283291 0.283291 0.283291
0.301229 0.301229 0.301229
0.319167 0.319167 0.319167
0.337106 0.337106 0.337106
0.355044 0.355044 0.355044
0.372982 0.372982 0.372982
0.390920 0.390920 0.390920
0.408858 0.408858 0.408858
0.426796 0.426796 0.426796
0.444734 0.444734 0.444734
0.462672 0.462672 0.462672
0.480611 0.480611 0.480611
0.498549 0.498549 0.498549
0.516487 0.516487 0.516487
0.534425 0.534425 0.534425
0.307760 0.307760 0.307760
0.325698 0.325698 0.325698
0.343636 0.343636 0.343636
0.361574 0.361574 0.361574
0.379512 0.379512 0.379512
0.397451 0.397451 0.397451
0.415389 0.415389 0.415389
0.433327 0.433327 0.433327
0.451265 0.451265 0.451265
0.469203 0.469203 0.469203
0.487141 0.487141 0.487141
0.505079 0.505079 0.505079
0.523018 0.523018 0.523018
0.540956 0.540956 0.540956
0.558894 0.558894 0.558894
0.576832 0.576832 0.576832
0.594770 0.594770 0.594770
0.368105 0.368105 0.368105
0.386043 0.386043 0.386043
0.403981 0.403981 0.403981
0.421919 0.421919 0.421919
0.439858 0.439858 0.439858
0.457796 0.457796 0.457796
0.475734 0.475734 0.475734
0.493672 0.493672 0.493672
0.511610 0.511610 0.511610
0.529548 0.529548 0.529548
0.547486 0.547486 0.547486
0.565424 0.565424 0.565424
0.583363 0.583363 0.583363
0.601301 0.601301 0.601301
0.619239 0.619239 0.619239
0.637177 0.637177 0.637177
0.655115 0.655115 0.655115
0.428450 0.428450 0.428450
0.446388 0.446388 0.446388
0.464326 0.464326 0.464326
0.482264 0.482264 0.482264
0.500202 0.500202 0.500202
0.518141 0.518141 0.518141
0.536079 0.536079 0.536079
0.554017 0.554017 0.554017
0.571955 0.571955 0.571955
0.589893 0.589893 0.589893
0.607831 0.607831 0.607831
0.625769 0.625769 0.625769
0.643707 0.643707 0.643707
0.661646 0.661646 0.661646
0.679584 0.679584 0.679584
0.697522 0.697522 0.697522
0.715460 0.715460 0.715460
0.488795 0.488795 0.488795
0.506733 0.506733 0.506733
0.524671 0.524671 0.524671
0.542609 0.542609 0.542609
0.560547 0.560547 0.560547
0.578486 0.578486 0.578486
0.596424 0.596424 0.596424
0.614362 0.614362 0.614362
0.632300 0.632300 0.632300
0.650238 0.650238 0.650238
0.668176 0.668176 0.668176
0.686114 0.686114 0.686114
0.704052 0.704052 0.704052
0.721991 0.721991 0.721991
0.739929 0.739929 0.739929
0.757867 0.757867 0.757867
0.775805 0.775805 0.775805
0.549140 0.549140 0.549140
0.567078 0.567078 0.567078
0.585016 0.585016 0.585016
0.602954 0.602954 0.602954
0.620893 0.620893 0.620893
0.638831 0.638831 0.638831
0.656769 0.656769 0.656769
0.674707 0.674707 0.674707
0.692645 0.692645 0.692645
0.710583 0.710583 0.710583
0.728521 0.728521 0.728521
0.746459 0.746459 0.746459
0.764397 0.764397 0.764397
0.782336 0.782336 0.782336
0.800274 0.800274 0.800274
0.818212 0.818212 0.818212
0.836150 0.836150 0.836150
0.609485 0.609485 0.609485
0.627423 0.627423 0.627423
0.645361 0.645361 0.645361
0.663299 0.663299 0.663299
0.681237 0.681237 0.681237
0.699176 0.699176 0.699176
0.717114 0.717114 0.717114
0.735052 0.735052 0.735052
0.752990 0.752990 0.752990
0.770928 0.770928 0.770928
0.788866 0.788866 0.788866
0.806804 0.806804 0.806804
0.824742 0.824742 0.824742
0.842681 0.842681 0.842681
0.860619 0.860619 0.860619
0.878557 0.878557 0.878557
0.896495 0.896495 0.896495
0.669830 0.669830 0.669830
0.687768 0.687768 0.687768
0.705706 0.705706 0.705706
0.723644 0.723644 0.723644
0.741582 0.741582 0.741582
0.759521 0.759521 0.759521
0.777459 0.777459 0.777459
0.795397 0.795397 0.795397
0.813335 0.813335 0.813335
0.831273 0.831273 0.831273
0.849211 0.849211 0.849211
0.867149 0.867149 0.867149
0.885087 0.885087 0.885087
0.903026 0.903026 0.903026
0.920964 0.920964 0.920964
0.938902 0.938902 0.938902
0.956840 0.956840 0.956840
0.730175 0.730175 0.730175
0.748113 0.748113 0.748113
0.766051 0.766051 0.766051
0.783989 0.783989 0.783989
0.801928 0.801928 0.801928
0.819866 0.819866 0.819866
0.837804 0.837804 0.837804
0.855742 0.855742 0.855742
0.873680 0.873680 0.873680
0.891618 0.891618 0.891618
0.909556 0.909556 0.909556
0.927494 0.927494 0.927494
0.945433 0.945433 0.945433
0.963371 0.963371 0.963371
0.981309 0.981309 0.981309
0.999247 0.999247 0.999247
1.000000 1.000000 1.000000
0.790520 0.790520 0.790520
0.808458 0.808458 0.808458
0.826396 0.826396 0.826396
0.844334 0.844334 0.844334
0.862272 0.862272 0.862272
0.880211 0.880211 0.880211
0.898149 0.898149 0.898149
0.916087 0.916087 0.916087
0.934025 0.934025 0.934025
0.951963 0.951963 0.951963
0.969901 0.969901 0.969901
0.987839 0.987839 0.987839
1.000000 1.000000 1.000000
1.000000 1.000000 1.000000
1.000000 1.000000 1.000000
1.000000 1.000000 1.000000
1.000000 1.000000 1.000000
0.000000 0.000000 0.000000
0.000000 0.000000 0.000000
0.000000 0.000000 0.000000
0.000000 0.000000 0.000000
0.000000 0.000000 0.000000
0.000000 0.000000 0.000000
0.000000 0.000000 0.000000
0.000000 0.000000 0.000000
0.000000 0.000000 0.000000
0.000000 0.000000 0.000000
0.010473 0.010473 0.010473
0.028411 0.028411 0.028411
0.046349 0.046349 0.046349
0.064287 0.064287 0.064287
0.082226 0.082226 0.082226
0.100164 0.100164 0.100164
0.118102 0.118102 0.118102
0.000000 0.000000 0.000000
0.000000 0.000000 0.000000
0.000000 0.000000 0.000000
0.000000 0.000000 0.000000
0.000000 0.000000 0.000000
0.000000 0.000000 0.000000
0.000000 0.000000 0.000000
0.017004 0.017004 0.017004
0.034942 0.034942 0.034942
0.052880 0.052880 0.052880
0.070818 0.070818 0.070818
0.088756 0.088756 0.088756
0.106694 0.106694 0.106694
0.124632 0.124632 0.124632
0.142571 0.142571 0.142571
0.160509 0.160509 0.160509
0.178447 0.178447 0.178447
0.000000 0.000000 0.000000
0.000000 0.000000 0.000000
0.000000 0.000000 0.000000
0.005596 0.005596 0.005596
0.023534 0.023534 0.023534
0.041472 0.041472 0.041472
0.059411 0.059411 0.059411
0.077349 0.077349 0.077349
0.095287 0.095287 0.095287
0.113225 0.113225 0.113225
0.131163 0.131163 0.131163
0.149101 0.149101 0.149101
0.167039 0.167039 0.167039
0.184977 0.184977 0.184977
0.202916 0.202916 0.202916
0.220854 0.220854 0.220854
0.238792 0.238792 0.238792
0.012127 0.012127 0.012127
0.030065 0.030065 0.030065
0.048003 0.048003 0.048003
0.065941 0.065941 0.065941
0.083879 0.083879 0.083879
0.101818 0.101818 0.101818
0.119756 0.119756 0.119756
0.137694 0.137694 0.137694
0.155632 0.155632 0.155632
0.173570 0.173570 0.173570
0.191508 0.191508 0.191508
0.209446 0.209446 0.209446
0.227384 0.227384 0.227384
0.245322 0.245322 0.245322
0.263261 0.263261 0.263261
0.281199 0.281199 0.281199
0.299137 0.299137 0.299137
0.072472 0.072472 0.072472
0.090410 0.090410 0.090410
0.108348 0.108348 0.108348
0.126286 0.126286 0.126286
0.144224 0.144224 0.144224
0.162162 0.162162 0.162162
0.180101 0.180101 0.180101
0.198039 0.198039 0.198039
0.215977 0.215977 0.215977
0.233915 0.233915 0.233915
0.251853 0.251853 0.251853
0.269791 0.269791 0.269791
0.287729 0.287729 0.287729
0.305667 0.305667 0.305667
0.323606 0.323606 0.323606
0.341544 0.341544 0.341544
0.359482 0.359482 0.359482
0.132817 0.132817 0.132817
0.150755 0.150755 0.150755
0.168693 0.168693 0.168693
0.186631 0.186631 0.186631
0.204569 0.204569 0.204569
0.222507 0.222507 0.222507
0.240446 0.240446 0.240446
0.258384 0.258384 0.258384
0.276322 0.276322 0.276322
0.294260 0.294260 0.294260
0.312198 0.312198 0.312198
0.330136 0.330136 0.330136
0.348074 0.348074 0.348074
0.366012 0.366012 0.366012
0.383951 0.383951 0.383951
0.401889 0.401889 0.401889
0.419827 0.419827 0.419827
0.193162 0.193162 0.193162
0.211100 0.211100 0.211100
0.229038 0.229038 0.229038
0.246976 0.246976 0.246976
0.264914 0.264914 0.264914
0.282853 0.282853 0.282853
0.300791 0.300791 0.300791
0.318729 0.318729 0.318729
0.336667 0.336667 0.336667
0.354605 0.354605 0.354605
0.372543 0.372543 0.372543
0.390481 0.390481 0.390481
0.408419 0.408419 0.408419
0.426357 0.426357 0.426357
0.444296 0.444296 0.444296
0.462234 0.462234 0.462234
0.480172 0.480172 0.480172
0.253507 0.253507 0.253507
0.271445 0.271445 0.271445
0.289383 0.289383 0.289383
0.307321 0.307321 0.307321
0.325259 0.325259 0.325259
0.343197 0.343197 0.343197
0.361136 0.361136 0.361136
0.379074 0.379074 0.379074
0.397012 0.397012 0.397012
0.414950 0.414950 0.414950
0.432888 0.432888 0.432888
0.450826 0.450826 0.450826
0.468764 0.468764 0.468764
0.486702 0.486702 0.486702
0.504641 0.504641 0.504641
0.522579 0.522579 0.522579
0.540517 0.540517 0.540517
0.313852 0.313852 0.313852
0.331790 0.331790 0.331790
0.349728 0.349728 0.349728
0.367666 0.367666 0.367666
0.385604 0.385604 0.385604
0.403542 0.403542 0.403542
0.421481 0.421481 0.421481
0.439419 0.439419 0.439419
0.457357 0.457357 0.457357
0.475295 0.475295 0.475295
0.493233 0.493233 0.493233
0.511171 0.511171 0.511171
0.529109 0.529109 0.529109
0.547048 0.547048 0.547048
0.564986 0.564986 0.564986
0.582924 0.582924 0.582924
0.600862 0.600862 0.600862
0.374197 0.374197 0.374197
0.392135 0.392135 0.392135
0.410073 0.410073 0.410073
0.428011 0.428011 0.428011
0.445949 0.445949 0.445949
0.463888 0.463888 0.463888
0.481826 0.481826 0.481826
0.499764 0.499764 0.499764
0.517702 0.517702 0.517702
0.535640 0.535640 0.535640
0.553578 0.553578 0.553578
0.571516 0.571516 0.571516
0.589454 0.589454 0.589454
0.607393 0.607393 0.607393
0.625331 0.625331 0.625331
0.643269 0.643269 0.643269
0.661207 0.661207 0.661207
0.434542 0.434542 0.434542
0.452480 0.452480 0.452480
0.470418 0.470418 0.470418
0.488356 0.488356 0.488356
0.506294 0.506294 0.506294
0.524232 0.524232 0.524232
0.542171 0.542171 0.542171
0.560109 0.560109 0.560109
0.578047 0.578047 0.578047
0.595985 0.595985 0.595985
0.613923 0.613923 0.613923
0.631861 0.631861 0.631861
0.649799 0.649799 0.649799
0.667737 0.667737 0.667737
0.685676 0.685676 0.685676
0.703614 0.703614 0.703614
0.721552 0.721552 0.721552
0.494887 0.494887 0.494887
0.512825 0.512825 0.512825
0.530763 0.530763 0.530763
0.548701 0.548701 0.548701
0.566639 0.566639 0.566639
0.584577 0.584577 0.584577
0.602516 0.602516 0.602516
0.620454 0.620454 0.620454
0.638392 0.638392 0.638392
0.656330 0.656330 0.656330
0.674268 0.674268 0.674268
0.692206 0.692206 0.692206
0.710144 0.710144 0.710144
0.728083 0.728083 0.728083
0.746021 0.746021 0.746021
0.763959 0.763959 0.763959
0.781897 0.781897 0.781897
0.555232 0.555232 0.555232
0.573170 0.573170 0.573170
0.591108 0.591108 0.591108
0.609046 0.609046 0.609046
0.626984 0.626984 0.626984
0.644923 0.644923 0.644923
0.662861 0.662861 0.662861
0.680799 0.680799 0.680799
0.698737 0.698737 0.698737
0.716675 0.716675 0.716675
0.734613 0.734613 0.734613
0.752551 0.752551 0.752551
0.770489 0.770489 0.770489
0.788428 0.788428 0.788428
0.806366 0.806366 0.806366
0.824304 0.824304 0.824304
0.842242 0.842242 0.842242
0.615577 0.615577 0.615577
0.633515 0.633515 0.633515
0.651453 0.651453 0.651453
0.669391 0.669391 0.669391
0.687329 0.687329 0.687329
0.705268 0.705268 0.705268
0.723206 0.723206 0.723206
0.741144 0.741144 0.741144
0.759082 0.759082 0.759082
0.777020 0.777020 0.777020
0.794958 0.794958 0.794958
0.812896 0.812896 0.812896
0.830834 0.830834 0.830834
0.848772 0.848772 0.848772
0.866711 0.866711 0.866711
0.884649 0.884649 0.884649
0.902587 0.902587 0.902587
0.675922 0.675922 0.675922
0.693860 0.693860 0.693860
0.711798 0.711798 0.711798
0.729736 0.729736 0.729736
0.747674 0.747674 0.747674
0.765613 0.765613 0.765613
0.783551 0.783551 0.783551
0.801489 0.801489 0.801489
0.819427 0.819427 0.819427
0.837365 0.837365 0.837365
0.855303 0.855303 0.855303
0.873241 0.873241 0.873241
0.891179 0.891179 0.891179
0.909117 0.909117 0.909117
0.927056 0.927056 0.927056
0.944994 0.944994 0.944994
0.962932 0.962932 0.962932
0.736267 0.736267 0.736267
0.754205 0.754205 0.754205
0.772143 0.772143 0.772143
0.790081 0.790081 0.790081
0.808019 0.808019 0.808019
0.825958 0.825958 0.825958
0.843896 0.843896 0.843896
0.861834 0.861834 0.861834
0.879772 0.879772 0.879772
0.897710 0.897710 0.897710
0.915648 0.915648 0.915648
0.933586 0.933586 0.933586
0.951524 0.951524 0.951524
0.969463 0.969463 0.969463
0.987401 0.987401 0.987401
1.000000 1.000000 1.000000
1.000000 1.000000 1.000000
0.796612 0.796612 0.796612
0.814550 0.814550 0.814550
0.832488 0.832488 0.832488
0.850426 0.850426 0.850426
0.868364 0.868364 0.868364
0.886302 0.886302 0.886302
0.904241 0.904241 0.904241
0.922179 0.922179 0.922179
0.940117 0.940117 0.940117
0.958055 0.958055 0.958055
0.975993 0.975993 0.975993
0.993931 0.993931 0.993931
1.000000 1.000000 1.000000
1.000000 1.000000 1.000000
1.000000 1.000000 1.000000
1.000000 1.000000 1.000000
1.000000 1.000000 1.000000
0.000000 0.000000 0.000000
0.000000 0.000000 0.000000
0.000000 0.000000 0.000000
0.000000 0.000000 0.000000
0.000000 0.000000 0.000000
0.000000 0.000000 0.000000
0.000000 0.000000 0.000000
0.000000 0.000000 0.000000
0.000000 0.000000 0.000000
0.000000 0.000000 0.000000
0.016565 0.016565 0.016565
0.034503 0.034503 0.034503
0.052441 0.052441 0.052441
0.070379 0.070379 0.070379
0.088317 0.088317 0.088317
0.106256 0.106256 0.106256
0.124194 0.124194 0.124194
0.000000 0.000000 0.000000
0.000000 0.000000 0.000000
0.000000 0.000000 0.000000
0.000000 0.000000 0.000000
0.000000 0.000000 0.000000
0.000000 0.000000 0.000000
0.005157 0.005157 0.005157
0.023096 0.023096 0.023096
0.041034 0.041034 0.041034
0.058972 0.058972 0.058972
0.076910 0.076910 0.076910
0.094848 0.094848 0.094848
0.112786 0.112786 0.112786
0.130724 0.130724 0.130724
0.148662 0.148662 0.148662
0.166601 0.166601 0.166601
0.184539 0.184539 0.184539
0.000000 0.000000 0.000000
0.000000 0.000000 0.000000
0.000000 0.000000 0.000000
0.011688 0.011688 0.011688
0.029626 0.029626 0.029626
0.047564 0.047564 0.047564
0.065503 0.065503 0.065503
0.083441 0.083441 0.083441
0.101379 0.101379 0.101379
0.119317 0.119317 0.119317
0.137255 0.137255 0.137255
0.155193 0.155193 0.155193
0.173131 0.173131 0.173131
0.191069 0.191069 0.191069
0.209007 0.209007 0.209007
0.226946 0.226946 0.226946
0.244884 0.244884 0.244884
0.018219 0.018219 0.018219
0.036157 0.036157 0.036157
0.054095 0.054095 0.054095
0.072033 0.072033 0.072033
0.089971 0.089971 0.089971
0.107909 0.107909 0.107909
0.125847 0.125847 0.125847
0.143786 0.143786 0.143786
0.161724 0.161724 0.161724
0.179662 0.179662 0.179662
0.197600 0.197600 0.197600
0.215538 0.215538 0.215538
0.233476 0.233476 0.233476
0.251414 0.251414 0.251414
0.269352 0.269352 0.269352
0.287291 0.287291 0.287291
0.305229 0.305229 0.305229
0.078564 0.078564 0.078564
0.096502 0.096502 0.096502
0.114440 0.114440 0.114440
0.132378 0.132378 0.132378
0.150316 0.150316 0.150316
0.168254 0.168254 0.168254
0.186192 0.186192 0.186192
0.204131 0.204131 0.204131
0.222069 0.222069 0.222069
0.240007 0.240007 0.240007
0.257945 0.257945 0.257945
0.275883 0.275883 0.275883
0.293821 0.293821 0.293821
0.311759 0.311759 0.311759
0.329697 0.329697 0.329697
0.347636 0.347636 0.347636
0.365574 0.365574 0.365574
0.138909 0.138909 0.138909
0.156847 0.156847 0.156847
0.174785 0.174785 0.174785
0.192723 0.192723 0.192723
0.210661 0.210661 0.210661
0.228599 0.228599 0.228599
0.246537 0.246537 0.246537
0.264476 0.264476 0.264476
0.282414 0.282414 0.282414
0.300352 0.300352 0.300352
0.318290 0.318290 0.318290
0.336228 0.336228 0.336228
0.354166 0.354166 0.354166
0.372104 0.372104 0.372104
0.390042 0.390042 0.390042
0.407981 0.407981 0.407981
0.425919 0.425919 0.425919
0.199254 0.199254 0.199254
0.217192 0.217192 0.217192
0.235130 0.235130 0.235130
0.253068 0.253068 0.253068
0.271006 0.271006 0.271006
0.288944 0.288944 0.288944
0.306882 0.306882 0.306882
0.324821 0.324821 0.324821
0.342759 0.342759 0.342759
0.360697 0.360697 0.360697
0.378635 0.378635 0.378635
0.396573 0.396573 0.396573
0.414511 0.414511 0.414511
0.432449 0.432449 0.432449
0.450387 0.450387 0.450387
0.468326 0.468326 0.468326
0.486264 0.486264 0.486264
0.259599 0.259599 0.259599
0.277537 0.277537 0.277537
0.295475 0.295475 0.295475
0.313413 0.313413 0.313413
0.331351 0.331351 0.331351
0.349289 0.349289 0.349289
0.367227 0.367227 0.367227
0.385166 0.385166 0.385166
0.403104 0.403104 0.403104
0.421042 0.421042 0.421042
0.438980 0.438980 0.438980
0.456918 0.456918 0.456918
0.474856 0.474856 0.474856
0.492794 0.492794 0.492794
0.510732 0.510732 0.510732
0.528671 0.528671 0.528671
0.546609 0.546609 0.546609
0.319944 0.319944 0.319944
0.337882 0.337882 0.337882
0.355820 0.355820 0.355820
0.373758 0.373758 0.373758
0.391696 0.391696 0.391696
0.409634 0.409634 0.409634
0.427572 0.427572 0.427572
0.445511 0.445511 0.445511
0.463449 0.463449 0.463449
0.481387 0.481387 0.481387
0.499325 0.499325 0.499325
0.517263 0.517263 0.517263
0.535201 0.535201 0.535201
0.553139 0.553139 0.553139
0.571078 0.571078 0.571078
0.589016 0.589016 0.589016
0.606954 0.606954 0.606954
0.380289 0.380289 0.380289
0.398227 0.398227 0.398227
0.416165 0.416165 0.416165
0.434103 0.434103 0.434103
0.452041 0.452041 0.452041
0.469979 0.469979 0.469979
0.487918 0.487918 0.487918
0.505856 0.505856 0.505856
0.523794 0.523794 0.523794
0.541732 0.541732 0.541732
0.559670 0.559670 0.559670
0.577608 0.577608 0.577608
0.595546 0.595546 0.595546
0.613484 0.613484 0.613484
0.631422 0.631422 0.631422
0.649361 0.649361 0.649361
0.667299 0.667299 0.667299
0.440634 0.440634 0.440634
0.458572 0.458572 0.458572
0.476510 0.476510 0.476510
0.494448 0.494448 0.494448
0.512386 0.512386 0.512386
0.530324 0.530324 0.530324
0.548262 0.548262 0.548262
0.566201 0.566201 0.566201
0.584139 0.584139 0.584139
0.602077 0.602077 0.602077
0.620015 0.620015 0.620015
0.637953 0.637953 0.637953
0.655891 0.655891 0.655891
0.673829 0.673829 0.673829
0.691767 0.691767 0.691767
0.709706 0.709706 0.709706
0.727644 0.727644 0.727644
0.500979 0.500979 0.500979
0.518917 0.518917 0.518917
0.536855 0.536855 0.536855
0.554793 0.554793 0.554793
0.572731 0.572731 0.572731
0.590669 0.590669 0.590669
0.608607 0.608607 0.608607
0.626546 0.626546 0.626546
0.644484 0.644484 0.644484
0.662422 0.662422 0.662422
0.680360 0.680360 0.680360
0.698298 0.698298 0.698298
0.716236 0.716236 0.716236
0.734174 0.734174 0.734174
0.752112 0.752112 0.752112
0.770051 0.770051 0.770051
0.787989 0.787989 0.787989
0.561324 0.561324 0.561324
0.579262 0.579262 0.579262
0.597200 0.597200 0.597200
0.615138 0.615138 0.615138
0.633076 0.633076 0.633076
0.651014 0.651014 0.651014
0.668952 0.668952 0.668952
0.686891 0.686891 0.686891
0.704829 0.704829 0.704829
0.722767 0.722767 0.722767
0.740705 0.740705 0.740705
0.758643 0.758643 0.758643
0.776581 0.776581 0.776581
0.794519 0.794519 0.794519
0.812457 0.812457 0.812457
0.830396 0.830396 0.830396
0.848334 0.848334 0.848334
0.621669 0.621669 0.621669
0.639607 0.639607 0.639607
0.657545 0.657545 0.657545
0.675483 0.675483 0.675483
0.693421 0.693421 0.693421
0.711359 0.711359 0.711359
0.729297 0.729297 0.729297
0.747236 0.747236 0.747236
0.765174 0.765174 0.765174
0.783112 0.783112 0.783112
0.801050 0.801050 0.801050
0.818988 0.818988 0.818988
0.836926 0.836926 0.836926
0.854864 0.854864 0.854864
0.872802 0.872802 0.872802
0.890741 0.890741 0.890741
0.908679 0.908679 0.908679
0.682014 0.682014 0.682014
0.699952 0.699952 0.699952
0.717890 0.717890 0.717890
0.735828 0.735828 0.735828
0.753766 0.753766 0.753766
0.771704 0.771704 0.771704
0.789642 0.789642 0.789642
0.807581 0.807581 0.807581
0.825519 0.825519 0.825519
0.843457 0.843457 0.843457
0.861395 0.861395 0.861395
0.879333 0.879333 0.879333
0.897271 0.897271 0.897271
0.915209 0.915209 0.915209
0.933147 0.933147 0.933147
0.951086 0.951086 0.951086
0.969024 0.969024 0.969024
0.742359 0.742359 0.742359
0.760297 0.760297 0.760297
0.778235 0.778235 0.778235
0.796173 0.796173 0.796173
0.814111 0.814111 0.814111
0.832049 0.832049 0.832049
0.849988 0.849988 0.849988
0.867926 0.867926 0.867926
0.885864 0.885864 0.885864
0.903802 0.903802 0.903802
0.921740 0.921740 0.921740
0.939678 0.939678 0.939678
0.957616 0.957616 0.957616
0.975554 0.975554 0.975554
0.993492 0.993492 0.993492
1.000000 1.000000 1.000000
1.000000 1.000000 1.000000
0.802704 0.802704 0.802704
0.820642 0.820642 0.820642
0.838580 0.838580 0.838580
0.856518 0.856518 0.856518
0.874456 0.874456 0.874456
0.892394 0.892394 0.892394
0.910332 0.910332 0.910332
0.928271 0.928271 0.928271
0.946209 0.946209 0.946209
0.964147 0.964147 0.964147
0.982085 0.982085 0.982085
1.000000 1.000000 1.000000
1.000000 1.000000 1.000000
1.000000 1.000000 1.000000
1.000000 1.000000 1.000000
1.000000 1.000000 1.000000
1.000000 1.000000 1.000000
0.000000 0.000000 0.000000
0.000000 0.000000 0.000000
0.000000 0.000000 0.000000
0.000000 0.000000 0.000000
0.000000 0.000000 0.000000
0.000000 0.000000 0.000000
0.000000 0.000000 0.000000
0.000000 0.000000 0.000000
0.000000 0.000000 0.000000
0.004719 0.004719 0.004719
0.022657 0.022657 0.022657
0.040595 0.040595 0.040595
0.058533 0.058533 0.058533
0.076471 0.076471 0.076471
0.094409 0.094409 0.094409
0.112347 0.112347 0.112347
0.130286 0.130286 0.130286
0.000000 0.000000 0.000000
