deploy-fix/app/assets/luts/teal_orange.cube
TITLE "Teal & Orange"
LUT_3D_SIZE 17
DOMAIN_MIN 0.0 0.0 0.0
DOMAIN_MAX 1.0 1.0 1.0
0.000000 0.020000 0.100000
0.033058 0.019628 0.098140
0.096116 0.019256 0.096280
0.159174 0.018884 0.094419
0.222232 0.018512 0.092559
0.285290 0.018140 0.090699
0.348348 0.017768 0.088839
0.411407 0.017396 0.086978
0.474465 0.017024 0.085118
0.537523 0.016652 0.083258
0.600581 0.016279 0.081398
0.663639 0.015907 0.079537
0.726697 0.015535 0.077677
0.789755 0.015163 0.075817
0.852813 0.014791 0.073957
0.915871 0.014419 0.072096
0.978929 0.014047 0.070236
0.000000 0.081248 0.093742
0.034935 0.080876 0.091882
0.097994 0.080504 0.090022
0.161052 0.080132 0.088161
0.224110 0.079760 0.086301
0.287168 0.079388 0.084441
0.350226 0.079016 0.082581
0.413284 0.078644 0.080720
0.476342 0.078272 0.078860
0.539400 0.077900 0.077000
0.602458 0.077528 0.075140
0.665516 0.077156 0.073279
0.728574 0.076784 0.071419
0.791632 0.076412 0.069559
0.854690 0.076040 0.067699
0.917749 0.075668 0.065838
0.980807 0.075296 0.063978
0.000000 0.142497 0.087484
0.036813 0.142125 0.085624
0.099871 0.141753 0.083764
0.162929 0.141381 0.081903
0.225987 0.141009 0.080043
0.289045 0.140637 0.078183
0.352103 0.140265 0.076323
0.415161 0.139892 0.074462
0.478219 0.139520 0.072602
0.541277 0.139148 0.070742
0.604336 0.138776 0.068881
0.667394 0.138404 0.067021
0.730452 0.138032 0.065161
0.793510 0.137660 0.063301
0.856568 0.137288 0.061441
0.919626 0.136916 0.059580
0.982684 0.136544 0.057720
0.000000 0.203745 0.081226
0.038690 0.203373 0.079366
0.101748 0.203001 0.077506
0.164806 0.202629 0.075645
0.227864 0.202257 0.073785
0.290923 0.201885 0.071925
0.353981 0.201513 0.070065
0.417039 0.201141 0.068204
0.480097 0.200769 0.066344
0.543155 0.200397 0.064484
0.606213 0.200025 0.062623
0.669271 0.199653 0.060763
0.732329 0.199281 0.058903
0.795387 0.198909 0.057043
0.858445 0.198537 0.055183
0.921503 0.198164 0.053322
0.984561 0.197792 0.051462
0.000000 0.264994 0.074968
0.040568 0.264622 0.073108
0.103626 0.264250 0.071248
0.166684 0.263877 0.069387
0.229742 0.263505 0.067527
0.292800 0.263133 0.065667
0.355858 0.262761 0.063807
0.418916 0.262389 0.061946
0.481974 0.262017 0.060086
0.545032 0.261645 0.058226
0.608090 0.261273 0.056366
0.671148 0.260901 0.054505
0.734206 0.260529 0.052645
0.797265 0.260157 0.050785
0.860323 0.259785 0.048925
0.923381 0.259413 0.047064
0.986439 0.259041 0.045204
0.000000 0.326242 0.068710
0.042445 0.325870 0.066850
0.105503 0.325498 0.064990
0.168561 0.325126 0.063129
0.231619 0.324754 0.061269
0.294677 0.324382 0.059409
0.357735 0.324010 0.057549
0.420794 0.323638 0.055688
0.483852 0.323266 0.053828
0.546910 0.322894 0.051968
0.609968 0.322522 0.050108
0.673026 0.322149 0.048247
0.736084 0.321777 0.046387
0.799142 0.321405 0.044527
0.864029 0.321338 0.041447
0.929638 0.321391 0.037886
0.995247 0.321444 0.034325
0.000000 0.387490 0.062452
0.044322 0.387118 0.060592
0.107381 0.386746 0.058732
0.170439 0.386374 0.056871
0.233497 0.386002 0.055011
0.296555 0.385630 0.053151
0.359613 0.385258 0.051291
0.422671 0.384886 0.049430
0.485729 0.384514 0.047570
0.548787 0.384142 0.045710
0.612052 0.383804 0.043712
0.677661 0.383857 0.040151
0.743270 0.383911 0.036590
0.808879 0.383964 0.033029
0.874489 0.384017 0.029468
0.940098 0.384070 0.025907
1.000000 0.384123 0.022346
0.000000 0.448739 0.056194
0.046200 0.448367 0.054334
0.109258 0.447995 0.052474
0.172316 0.447623 0.050613
0.235374 0.447251 0.048753
0.298432 0.446879 0.046893
0.361490 0.446507 0.045033
0.425684 0.446324 0.042415
0.491293 0.446377 0.038854
0.556902 0.446430 0.035293
0.622511 0.446483 0.031732
0.688121 0.446536 0.028171
0.753730 0.446589 0.024610
0.819339 0.446643 0.021049
0.884948 0.446696 0.017488
0.950558 0.446749 0.013927
1.000000 0.446802 0.010366
0.000000 0.509987 0.049936
0.048077 0.509615 0.048076
0.111135 0.509243 0.046216
0.174193 0.508871 0.044355
0.239316 0.508843 0.041119
0.304925 0.508896 0.037558
0.370534 0.508949 0.033997
0.436143 0.509002 0.030436
0.501753 0.509056 0.026875
0.567362 0.509109 0.023314
0.632971 0.509162 0.019753
0.698580 0.509215 0.016192
0.764190 0.509268 0.012631
0.829799 0.509321 0.009070
0.895408 0.509375 0.005509
0.961018 0.509428 0.001947
1.000000 0.509481 0.000000
0.000000 0.571309 0.043384
0.052947 0.571362 0.039823
0.118557 0.571416 0.036262
0.184166 0.571469 0.032700
0.249775 0.571522 0.029139
0.315385 0.571575 0.025578
0.380994 0.571628 0.022017
0.446603 0.571681 0.018456
0.512212 0.571734 0.014895
0.577822 0.571788 0.011334
0.643431 0.571841 0.007773
0.709040 0.571894 0.004212
0.774649 0.571947 0.000651
0.840259 0.572000 0.000000
0.905868 0.572053 0.000000
0.971477 0.572106 0.000000
1.000000 0.572160 0.000000
0.000000 0.633988 0.031404
0.063407 0.634041 0.027843
0.129017 0.634094 0.024282
0.194626 0.634147 0.020721
0.260235 0.634201 0.017160
0.325844 0.634254 0.013599
0.391454 0.634307 0.010038
0.457063 0.634360 0.006477
0.522672 0.634413 0.002916
0.588281 0.634466 0.000000
0.653891 0.634520 0.000000
0.719500 0.634573 0.000000
0.785109 0.634626 0.000000
0.850719 0.634679 0.000000
0.916328 0.634732 0.000000
0.981937 0.634785 0.000000
1.000000 0.634838 0.000000
0.008258 0.696667 0.019424
0.073867 0.696720 0.015863
0.139476 0.696773 0.012302
0.205086 0.696826 0.008741
0.270695 0.696879 0.005180
0.336304 0.696933 0.001619
0.401913 0.696986 0.000000
0.467523 0.697039 0.000000
0.533132 0.697092 0.000000
0.598741 0.697145 0.000000
0.664351 0.697198 0.000000
0.729960 0.697251 0.000000
0.795569 0.697305 0.000000
0.861178 0.697358 0.000000
0.926788 0.697411 0.000000
0.992397 0.697464 0.000000
1.000000 0.697517 0.000000
0.018718 0.759346 0.007445
0.084327 0.759399 0.003884
0.149936 0.759452 0.000323
0.215545 0.759505 0.000000
0.281155 0.759558 0.000000
0.346764 0.759611 0.000000
0.412373 0.759665 0.000000
0.477983 0.759718 0.000000
0.543592 0.759771 0.000000
0.609201 0.759824 0.000000
0.674810 0.759877 0.000000
0.740420 0.759930 0.000000
0.806029 0.759983 0.000000
0.871638 0.760037 0.000000
0.936906 0.760318 0.000000
1.000000 0.760743 0.000000
1.000000 0.761168 0.000000
0.029177 0.822024 0.000000
0.094787 0.822078 0.000000
0.160396 0.822131 0.000000
0.226005 0.822184 0.000000
0.291614 0.822237 0.000000
0.357224 0.822290 0.000000
0.422833 0.822343 0.000000
0.488442 0.822396 0.000000
0.554052 0.822450 0.000000
0.619661 0.822503 0.000000
0.685270 0.822556 0.000000
0.750334 0.822972 0.000000
0.815386 0.823398 0.000000
0.880437 0.823823 0.000000
0.945488 0.824248 0.000000
1.000000 0.824673 0.000000
1.000000 0.825098 0.000000
0.039637 0.884703 0.000000
0.105246 0.884756 0.000000
0.170856 0.884810 0.000000
0.236465 0.884863 0.000000
0.302074 0.884916 0.000000
0.367684 0.884969 0.000000
0.433293 0.885022 0.000000
0.498712 0.885202 0.000000
0.563763 0.885627 0.000000
0.628814 0.886052 0.000000
0.693866 0.886478 0.000000
0.758917 0.886903 0.000000
0.823968 0.887328 0.000000
0.889019 0.887753 0.000000
0.954070 0.888178 0.000000
1.000000 0.888604 0.000000
1.000000 0.889029 0.000000
0.050097 0.947382 0.000000
0.115706 0.947435 0.000000
0.181316 0.947488 0.000000
0.246925 0.947541 0.000000
0.312141 0.947857 0.000000
0.377192 0.948282 0.000000
0.442243 0.948707 0.000000
0.507294 0.949132 0.000000
0.572346 0.949558 0.000000
0.637397 0.949983 0.000000
0.702448 0.950408 0.000000
0.767499 0.950833 0.000000
0.832550 0.951258 0.000000
0.897602 0.951684 0.000000
0.962653 0.952109 0.000000
1.000000 0.952534 0.000000
1.000000 0.952959 0.000000
0.060518 1.000000 0.000000
0.125570 1.000000 0.000000
0.190621 1.000000 0.000000
0.255672 1.000000 0.000000
0.320723 1.000000 0.000000
0.385774 1.000000 0.000000
0.450826 1.000000 0.000000
0.515877 1.000000 0.000000
0.580928 1.000000 0.000000
0.645979 1.000000 0.000000
0.711030 1.000000 0.000000
0.776082 1.000000 0.000000
0.841133 1.000000 0.000000
0.906184 1.000000 0.000000
0.971235 1.000000 0.000000
1.000000 1.000000 0.000000
1.000000 1.000000 0.000000
0.000000 0.019874 0.161868
0.033248 0.019502 0.160008
0.096306 0.019130 0.158148
0.159364 0.018757 0.156288
0.222422 0.018385 0.154427
0.285480 0.018013 0.152567
0.348538 0.017641 0.150707
0.411596 0.017269 0.148846
0.474654 0.016897 0.146986
0.537712 0.016525 0.145126
0.600770 0.016153 0.143266
0.663828 0.015781 0.141406
0.726886 0.015409 0.139545
0.789945 0.015037 0.137685
0.853003 0.014665 0.135825
0.916061 0.014293 0.133964
0.979119 0.013921 0.132104
0.000000 0.081122 0.155610
0.035125 0.080750 0.153750
0.098183 0.080378 0.151890
0.161241 0.080006 0.150030
0.224299 0.079634 0.148169
0.287357 0.079262 0.146309
0.350415 0.078890 0.144449
0.413473 0.078518 0.142589
0.476532 0.078146 0.140728
0.539590 0.077774 0.138868
0.602648 0.077402 0.137008
0.665706 0.077030 0.135148
0.728764 0.076657 0.133287
0.791822 0.076285 0.131427
0.854880 0.075913 0.129567
0.917938 0.075541 0.127707
0.980996 0.075169 0.125846
0.000000 0.142370 0.149352
0.037002 0.141998 0.147492
0.100060 0.141626 0.145632
0.163119 0.141254 0.143771
0.226177 0.140882 0.141911
0.289235 0.140510 0.140051
0.352293 0.140138 0.138191
0.415351 0.139766 0.136331
0.478409 0.139394 0.134470
0.541467 0.139022 0.132610
0.604525 0.138650 0.130750
0.667583 0.138278 0.128889
0.730641 0.137906 0.127029
0.793699 0.137534 0.125169
0.856757 0.137162 0.123309
0.919815 0.136790 0.121449
0.982874 0.136418 0.119588
0.000000 0.203619 0.143094
0.038880 0.203247 0.141234
0.101938 0.202875 0.139374
0.164996 0.202503 0.137514
0.228054 0.202131 0.135653
0.291112 0.201759 0.133793
0.354170 0.201387 0.131933
0.417228 0.201015 0.130073
0.480286 0.200642 0.128212
0.543344 0.200270 0.126352
0.606402 0.199898 0.124492
0.669461 0.199526 0.122632
0.732519 0.199154 0.120771
0.795577 0.198782 0.118911
0.858635 0.198410 0.117051
0.921693 0.198038 0.115191
0.984751 0.197666 0.113330
0.000000 0.264867 0.136836
0.040757 0.264495 0.134976
0.103815 0.264123 0.133116
0.166873 0.263751 0.131256
0.229931 0.263379 0.129395
0.292990 0.263007 0.127535
0.356048 0.262635 0.125675
0.419106 0.262263 0.123815
0.482164 0.261891 0.121954
0.545222 0.261519 0.120094
0.608280 0.261147 0.118234
0.671338 0.260775 0.116374
0.734396 0.260403 0.114513
0.797454 0.260031 0.112653
0.860512 0.259659 0.110793
0.923570 0.259286 0.108933
0.986628 0.258914 0.107072
0.000000 0.326116 0.130578
0.042635 0.325744 0.128718
0.105693 0.325372 0.126858
0.168751 0.324999 0.124998
0.231809 0.324627 0.123137
0.294867 0.324255 0.121277
0.357925 0.323883 0.119417
0.420983 0.323511 0.117557
0.484041 0.323139 0.115696
0.547099 0.322767 0.113836
0.610157 0.322395 0.111976
0.673215 0.322023 0.110116
0.736273 0.321651 0.108255
0.799476 0.321303 0.106299
0.865085 0.321356 0.102738
0.930694 0.321409 0.099177
0.996303 0.321462 0.095616
0.000000 0.387364 0.124320
0.044512 0.386992 0.122460
0.107570 0.386620 0.120600
0.170628 0.386248 0.118739
0.233686 0.385876 0.116879
0.296744 0.385504 0.115019
0.359802 0.385132 0.113159
0.422860 0.384760 0.111299
0.485919 0.384388 0.109438
0.548977 0.384016 0.107578
0.613107 0.383822 0.105003
0.678717 0.383875 0.101442
0.744326 0.383929 0.097880
0.809935 0.383982 0.094319
0.875545 0.384035 0.090758
0.941154 0.384088 0.087197
1.000000 0.384141 0.083636
0.000000 0.448612 0.118062
0.046389 0.448240 0.116202
0.109447 0.447868 0.114342
0.172506 0.447496 0.112482
0.235564 0.447124 0.110621
0.298622 0.446752 0.108761
0.361680 0.446380 0.106901
0.426739 0.446342 0.103706
0.492349 0.446395 0.100145
0.557958 0.446448 0.096584
0.623567 0.446501 0.093023
0.689177 0.446554 0.089462
0.754786 0.446607 0.085901
0.820395 0.446661 0.082340
0.886004 0.446714 0.078779
0.951614 0.446767 0.075218
1.000000 0.446820 0.071657
0.000000 0.509861 0.111804
0.048267 0.509489 0.109944
0.111325 0.509117 0.108084
0.174762 0.508808 0.105971
0.240371 0.508861 0.102410
0.305981 0.508914 0.098849
0.371590 0.508967 0.095288
0.437199 0.509020 0.091727
0.502809 0.509074 0.088165
0.568418 0.509127 0.084604
0.634027 0.509180 0.081043
0.699636 0.509233 0.077482
0.765246 0.509286 0.073921
0.830855 0.509339 0.070360
0.896464 0.509393 0.066799
0.962073 0.509446 0.063238
1.000000 0.509499 0.059677
0.000000 0.571327 0.104674
0.054003 0.571380 0.101113
0.119613 0.571434 0.097552
0.185222 0.571487 0.093991
0.250831 0.571540 0.090430
0.316441 0.571593 0.086869
0.382050 0.571646 0.083308
0.447659 0.571699 0.079747
0.513268 0.571752 0.076186
0.578878 0.571806 0.072625
0.644487 0.571859 0.069064
0.710096 0.571912 0.065503
0.775705 0.571965 0.061942
0.841315 0.572018 0.058381
0.906924 0.572071 0.054820
0.972533 0.572125 0.051258
1.000000 0.572178 0.047697
0.000000 0.634006 0.092695
0.064463 0.634059 0.089134
0.130072 0.634112 0.085573
0.195682 0.634166 0.082012
0.261291 0.634219 0.078450
0.326900 0.634272 0.074889
0.392510 0.634325 0.071328
0.458119 0.634378 0.067767
0.523728 0.634431 0.064206
0.589337 0.634484 0.060645
0.654947 0.634538 0.057084
0.720556 0.634591 0.053523
0.786165 0.634644 0.049962
0.851774 0.634697 0.046401
0.917384 0.634750 0.042840
0.982993 0.634803 0.039279
1.000000 0.634856 0.035718
0.009314 0.696685 0.080715
0.074923 0.696738 0.077154
0.140532 0.696791 0.073593
0.206142 0.696844 0.070032
0.271751 0.696897 0.066471
0.337360 0.696951 0.062910
0.402969 0.697004 0.059349
0.468579 0.697057 0.055788
0.534188 0.697110 0.052227
0.599797 0.697163 0.048666
0.665406 0.697216 0.045105
0.731016 0.697269 0.041544
0.796625 0.697323 0.037982
0.862234 0.697376 0.034421
0.927844 0.697429 0.030860
0.993453 0.697482 0.027299
1.000000 0.697535 0.023738
0.019774 0.759364 0.068735
0.085383 0.759417 0.065174
0.150992 0.759470 0.061613
0.216601 0.759523 0.058052
0.282211 0.759576 0.054491
0.347820 0.759629 0.050930
0.413429 0.759683 0.047369
0.479038 0.759736 0.043808
0.544648 0.759789 0.040247
0.610257 0.759842 0.036686
0.675866 0.759895 0.033125
0.741476 0.759948 0.029564
0.807085 0.760001 0.026003
0.872694 0.760055 0.022442
0.937772 0.760462 0.020652
1.000000 0.760887 0.018951
1.000000 0.761312 0.017250
0.030233 0.822042 0.056756
0.095843 0.822096 0.053195
0.161452 0.822149 0.049634
0.227061 0.822202 0.046073
0.292670 0.822255 0.042512
0.358280 0.822308 0.038951
0.423889 0.822361 0.035390
0.489498 0.822415 0.031829
0.555108 0.822468 0.028267
0.620717 0.822521 0.024706
0.686150 0.822692 0.021734
0.751201 0.823117 0.020033
0.816252 0.823542 0.018332
0.881303 0.823967 0.016631
0.946354 0.824392 0.014930
1.000000 0.824818 0.013230
1.000000 0.825243 0.011529
0.040693 0.884721 0.044776
0.106302 0.884774 0.041215
0.171912 0.884828 0.037654
0.237521 0.884881 0.034093
0.303130 0.884934 0.030532
0.368739 0.884987 0.026971
0.434349 0.885040 0.023410
0.499578 0.885346 0.021114
0.564630 0.885772 0.019414
0.629681 0.886197 0.017713
0.694732 0.886622 0.016012
0.759783 0.887047 0.014311
0.824834 0.887472 0.012610
0.889886 0.887898 0.010910
0.954937 0.888323 0.009209
1.000000 0.888748 0.007508
1.000000 0.889173 0.005807
0.051153 0.947400 0.032797
0.116762 0.947453 0.029236
0.182371 0.947506 0.025675
0.247956 0.947576 0.022196
0.313007 0.948001 0.020495
0.378058 0.948426 0.018794
0.443110 0.948852 0.017094
0.508161 0.949277 0.015393
0.573212 0.949702 0.013692
0.638263 0.950127 0.011991
0.703314 0.950552 0.010290
0.768366 0.950978 0.008590
0.833417 0.951403 0.006889
0.898468 0.951828 0.005188
0.963519 0.952253 0.003487
1.000000 0.952678 0.001786
1.000000 0.953104 0.000086
0.061385 1.000000 0.021577
0.126436 1.000000 0.019876
0.191487 1.000000 0.018175
0.256538 1.000000 0.016474
0.321590 1.000000 0.014774
0.386641 1.000000 0.013073
0.451692 1.000000 0.011372
0.516743 1.000000 0.009671
0.581794 1.000000 0.007970
0.646846 1.000000 0.006270
0.711897 1.000000 0.004569
0.776948 1.000000 0.002868
0.841999 1.000000 0.001167
0.907050 1.000000 0.000000
0.972102 1.000000 0.000000
1.000000 1.000000 0.000000
1.000000 1.000000 0.000000
0.000000 0.019747 0.223737
0.033437 0.019375 0.221876
0.096495 0.019003 0.220016
0.159553 0.018631 0.218156
0.222611 0.018259 0.216296
0.285669 0.017887 0.214435
0.348728 0.017515 0.212575
0.411786 0.017143 0.210715
0.474844 0.016771 0.208854
0.537902 0.016399 0.206994
0.600960 0.016027 0.205134
0.664018 0.015655 0.203274
0.727076 0.015283 0.201414
0.790134 0.014911 0.199553
0.853192 0.014539 0.197693
0.916250 0.014167 0.195833
0.979308 0.013794 0.193972
0.000000 0.080996 0.217479
0.035315 0.080624 0.215618
0.098373 0.080252 0.213758
0.161431 0.079880 0.211898
0.224489 0.079508 0.210037
0.287547 0.079135 0.208177
0.350605 0.078763 0.206317
0.413663 0.078391 0.204457
0.476721 0.078019 0.202597
0.539779 0.077647 0.200736
0.602837 0.077275 0.198876
0.665895 0.076903 0.197016
0.728953 0.076531 0.195156
0.792011 0.076159 0.193295
0.855070 0.075787 0.191435
0.918128 0.075415 0.189575
0.981186 0.075043 0.187715
0.000000 0.142244 0.211221
0.037192 0.141872 0.209360
0.100250 0.141500 0.207500
0.163308 0.141128 0.205640
0.226366 0.140756 0.203780
0.289424 0.140384 0.201919
0.352482 0.140012 0.200059
0.415540 0.139640 0.198199
0.478598 0.139268 0.196339
0.541657 0.138896 0.194478
0.604715 0.138524 0.192618
0.667773 0.138152 0.190758
0.730831 0.137779 0.188897
0.793889 0.137407 0.187037
0.856947 0.137035 0.185177
0.920005 0.136663 0.183317
0.983063 0.136291 0.181456
0.000000 0.203492 0.204962
0.039069 0.203120 0.203102
0.102127 0.202748 0.201242
0.165185 0.202376 0.199382
0.228244 0.202004 0.197522
0.291302 0.201632 0.195661
0.354360 0.201260 0.193801
0.417418 0.200888 0.191941
0.480476 0.200516 0.190081
0.543534 0.200144 0.188220
0.606592 0.199772 0.186360
0.669650 0.199400 0.184500
0.732708 0.199028 0.182640
0.795766 0.198656 0.180779
0.858824 0.198284 0.178919
0.921882 0.197912 0.177059
0.984940 0.197540 0.175199
0.000000 0.264741 0.198705
0.040947 0.264369 0.196844
0.104005 0.263997 0.194984
0.167063 0.263625 0.193124
0.230121 0.263253 0.191264
0.293179 0.262881 0.189403
0.356237 0.262509 0.187543
0.419295 0.262137 0.185683
0.482353 0.261765 0.183822
0.545411 0.261392 0.181962
0.608469 0.261020 0.180102
0.671527 0.260648 0.178242
0.734586 0.260276 0.176381
0.797644 0.259904 0.174521
0.860702 0.259532 0.172661
0.923760 0.259160 0.170801
0.986899 0.258802 0.168886
0.000000 0.325989 0.192447
0.042824 0.325617 0.190586
0.105882 0.325245 0.188726
0.168940 0.324873 0.186866
0.231998 0.324501 0.185005
0.295056 0.324129 0.183145
0.358115 0.323757 0.181285
0.421173 0.323385 0.179425
0.484231 0.323013 0.177565
0.547289 0.322641 0.175704
0.610347 0.322269 0.173844
0.673405 0.321897 0.171984
0.736463 0.321525 0.170124
0.800531 0.321321 0.167590
0.866141 0.321374 0.164029
0.931750 0.321427 0.160468
0.997359 0.321481 0.156907
0.000000 0.387238 0.186189
0.044702 0.386866 0.184328
0.107760 0.386494 0.182468
0.170818 0.386122 0.180608
0.233876 0.385750 0.178748
0.296934 0.385377 0.176887
0.359992 0.385005 0.175027
0.423050 0.384633 0.173167
0.486108 0.384261 0.171307
0.549166 0.383889 0.169446
0.614163 0.383840 0.166293
0.679773 0.383894 0.162732
0.745382 0.383947 0.159171
0.810991 0.384000 0.155610
0.876601 0.384053 0.152049
0.942210 0.384106 0.148488
1.000000 0.384159 0.144927
0.000000 0.448486 0.179931
0.046579 0.448114 0.178070
0.109637 0.447742 0.176210
0.172695 0.447370 0.174350
0.235753 0.446998 0.172490
0.298811 0.446626 0.170629
0.362186 0.446307 0.168558
0.427795 0.446360 0.164997
0.493405 0.446413 0.161436
0.559014 0.446466 0.157875
0.624623 0.446519 0.154314
0.690232 0.446572 0.150753
0.755842 0.446626 0.147192
0.821451 0.446679 0.143630
0.887060 0.446732 0.140069
0.952670 0.446785 0.136508
1.000000 0.446838 0.132947
0.000000 0.509734 0.173673
0.048456 0.509362 0.171812
0.111514 0.508990 0.169952
0.175818 0.508826 0.167261
0.241427 0.508879 0.163700
0.307037 0.508932 0.160139
0.372646 0.508985 0.156578
0.438255 0.509039 0.153017
0.503864 0.509092 0.149456
0.569474 0.509145 0.145895
0.635083 0.509198 0.142334
0.700692 0.509251 0.138773
0.766302 0.509304 0.135212
0.831911 0.509357 0.131651
0.897520 0.509411 0.128090
0.963129 0.509464 0.124529
1.000000 0.509517 0.120968
0.000000 0.571345 0.165965
0.055059 0.571398 0.162404
0.120669 0.571452 0.158843
0.186278 0.571505 0.155282
0.251887 0.571558 0.151721
0.317496 0.571611 0.148160
0.383106 0.571664 0.144599
0.448715 0.571717 0.141038
0.514324 0.571770 0.137477
0.579934 0.571824 0.133915
0.645543 0.571877 0.130354
0.711152 0.571930 0.126793
0.776761 0.571983 0.123232
0.842371 0.572036 0.119671
0.907980 0.572089 0.116110
0.973589 0.572143 0.112549
1.000000 0.572196 0.108988
0.000000 0.634024 0.153985
0.065519 0.634077 0.150424
0.131128 0.634130 0.146863
0.196738 0.634184 0.143302
0.262347 0.634237 0.139741
0.327956 0.634290 0.136180
0.393565 0.634343 0.132619
0.459175 0.634396 0.129058
0.524784 0.634449 0.125497
0.590393 0.634502 0.121936
0.656003 0.634556 0.118375
0.721612 0.634609 0.114814
0.787221 0.634662 0.111253
0.852830 0.634715 0.107692
0.918440 0.634768 0.104131
0.984049 0.634821 0.100570
1.000000 0.634875 0.097009
0.010370 0.696703 0.142006
0.075979 0.696756 0.138445
0.141588 0.696809 0.134884
0.207197 0.696862 0.131323
0.272807 0.696916 0.127762
0.338416 0.696969 0.124200
0.404025 0.697022 0.120639
0.469635 0.697075 0.117078
0.535244 0.697128 0.113517
0.600853 0.697181 0.109956
0.666462 0.697234 0.106395
0.732072 0.697288 0.102834
0.797681 0.697341 0.099273
0.863290 0.697394 0.095712
0.928899 0.697447 0.092151
0.994509 0.697500 0.088590
1.000000 0.697553 0.085029
0.020829 0.759382 0.130026
0.086439 0.759435 0.126465
0.152048 0.759488 0.122904
0.217657 0.759541 0.119343
0.283267 0.759594 0.115782
0.348876 0.759647 0.112221
0.414485 0.759701 0.108660
0.480094 0.759754 0.105099
0.545704 0.759807 0.101538
0.611313 0.759860 0.097977
0.676922 0.759913 0.094416
0.742531 0.759966 0.090855
0.808141 0.760019 0.087294
0.873587 0.760181 0.084275
0.938638 0.760606 0.082574
1.000000 0.761032 0.080874
1.000000 0.761457 0.079173
0.031289 0.822060 0.118047
0.096899 0.822114 0.114485
0.162508 0.822167 0.110924
0.228117 0.822220 0.107363
0.293726 0.822273 0.103802
0.359336 0.822326 0.100241
0.424945 0.822379 0.096680
0.490554 0.822433 0.093119
0.556163 0.822486 0.089558
0.621773 0.822539 0.085997
0.687016 0.822836 0.083656
0.752067 0.823261 0.081955
0.817118 0.823686 0.080254
0.882170 0.824112 0.078554
0.947221 0.824537 0.076853
1.000000 0.824962 0.075152
1.000000 0.825387 0.073451
0.041749 0.884739 0.106067
0.107358 0.884792 0.102506
0.172968 0.884846 0.098945
0.238577 0.884899 0.095384
0.304186 0.884952 0.091823
0.369795 0.885005 0.088262
0.435394 0.885066 0.084738
0.500445 0.885491 0.083037
0.565496 0.885916 0.081336
0.630547 0.886341 0.079635
0.695598 0.886766 0.077934
0.760650 0.887192 0.076234
0.825701 0.887617 0.074533
0.890752 0.888042 0.072832
0.955803 0.888467 0.071131
1.000000 0.888892 0.069430
1.000000 0.889318 0.067730
0.052209 0.947418 0.094087
0.117818 0.947471 0.090526
0.183427 0.947524 0.086965
0.248822 0.947720 0.084118
0.313874 0.948146 0.082418
0.378925 0.948571 0.080717
0.443976 0.948996 0.079016
0.509027 0.949421 0.077315
0.574078 0.949846 0.075614
0.639130 0.950272 0.073914
0.704181 0.950697 0.072213
0.769232 0.951122 0.070512
0.834283 0.951547 0.068811
0.899334 0.951972 0.067110
0.964386 0.952398 0.065410
1.000000 0.952823 0.063709
1.000000 0.953248 0.062008
0.062251 1.000000 0.083499
0.127302 1.000000 0.081798
0.192354 1.000000 0.080098
0.257405 1.000000 0.078397
0.322456 1.000000 0.076696
0.387507 1.000000 0.074995
0.452558 1.000000 0.073294
0.517610 1.000000 0.071594
0.582661 1.000000 0.069893
0.647712 1.000000 0.068192
0.712763 1.000000 0.066491
0.777814 1.000000 0.064790
0.842866 1.000000 0.063090
0.907917 1.000000 0.061389
0.972968 1.000000 0.059688
1.000000 1.000000 0.057987
1.000000 1.000000 0.056286
0.000000 0.019621 0.285605
0.033627 0.019249 0.283745
0.096685 0.018877 0.281884
0.159743 0.018505 0.280024
0.222801 0.018133 0.278164
0.285859 0.017761 0.276304
0.348917 0.017389 0.274443
0.411975 0.017017 0.272583
0.475033 0.016645 0.270723
0.538091 0.016273 0.268863
0.601149 0.015900 0.267002
0.664207 0.015528 0.265142
0.727265 0.015156 0.263282
0.790324 0.014784 0.261421
0.853382 0.014412 0.259561
0.916440 0.014040 0.257701
0.979498 0.013668 0.255841
0.000000 0.080869 0.279347
