deploy-fix/app/assets/luts/teal_orange.cube
TITLE "Teal & Orange"
LUT_3D_SIZE 5
DOMAIN_MIN 0.0 0.0 0.0
DOMAIN_MAX 1.0 1.0 1.0
0.000000 0.020000 0.100000
0.222232 0.018512 0.092559
0.474465 0.017024 0.085118
0.726697 0.015535 0.077677
0.978929 0.014047 0.070236
0.000000 0.264994 0.074968
0.229742 0.263505 0.067527
0.481974 0.262017 0.060086
0.734206 0.260529 0.052645
0.986439 0.259041 0.045204
0.000000 0.509987 0.049936
0.239316 0.508843 0.041119
0.501753 0.509056 0.026875
0.764190 0.509268 0.012631
1.000000 0.509481 0.000000
0.018718 0.759346 0.007445
0.281155 0.759558 0.000000
0.543592 0.759771 0.000000
0.806029 0.759983 0.000000
1.000000 0.761168 0.000000
0.060518 1.000000 0.000000
0.320723 1.000000 0.000000
0.580928 1.000000 0.000000
0.841133 1.000000 0.000000
1.000000 1.000000 0.000000
0.000000 0.019495 0.347473
0.222990 0.018006 0.340032
0.475223 0.016518 0.332591
0.727455 0.015030 0.325150
0.979687 0.013542 0.317709
0.000000 0.264488 0.322441
0.230500 0.263000 0.315000
0.482732 0.261512 0.307559
0.734965 0.260024 0.300118
0.989011 0.258838 0.291467
0.000000 0.509482 0.297409
0.243539 0.508915 0.286282
0.505976 0.509128 0.272037
0.768413 0.509340 0.257793
1.000000 0.509553 0.243549
0.022941 0.759418 0.252607
0.285378 0.759630 0.238363
0.547816 0.759843 0.224119
0.810253 0.760056 0.209875
1.000000 0.761746 0.203018
0.063984 1.000000 0.207344
0.324189 1.000000 0.200541
0.584394 1.000000 0.193738
0.844598 1.000000 0.186934
1.000000 1.000000 0.180131
0.000000 0.018989 0.594946
0.223748 0.017501 0.587505
0.475981 0.016013 0.580064
0.728213 0.014525 0.572623
0.980445 0.013036 0.565182
0.000000 0.263983 0.569914
0.231258 0.262495 0.562473
0.483490 0.261006 0.555032
0.735723 0.259518 0.547591
0.993235 0.258910 0.536630
0.000000 0.508976 0.544882
0.247763 0.508987 0.531444
0.510200 0.509200 0.517200
0.772637 0.509413 0.502956
1.000000 0.509625 0.488712
0.027165 0.759490 0.497770
0.289602 0.759703 0.483526
0.552039 0.759915 0.469282
0.813734 0.760622 0.457510
1.000000 0.762323 0.450707
0.067450 1.000000 0.455034
0.327654 1.000000 0.448230
0.587859 1.000000 0.441427
0.848064 1.000000 0.434624
1.000000 1.000000 0.427821
0.000000 0.018484 0.842419
0.224507 0.016996 0.834978
0.476739 0.015507 0.827537
0.728971 0.014019 0.820096
0.981204 0.012531 0.812655
0.000000 0.263477 0.817387
0.232016 0.261989 0.809946
0.484248 0.260501 0.802505
0.736481 0.259013 0.795064
0.997459 0.258982 0.781793
0.000000 0.508847 0.790851
0.251987 0.509060 0.776607
0.514424 0.509272 0.762363
0.776861 0.509485 0.748118
1.000000 0.509697 0.733874
0.031389 0.759562 0.742933
0.293826 0.759775 0.728688
0.556263 0.759987 0.714444
0.817200 0.761200 0.705200
1.000000 0.762901 0.698397
0.070915 1.000000 0.702723
0.331120 1.000000 0.695920
0.591325 1.000000 0.689117
0.851530 1.000000 0.682314
1.000000 1.000000 0.675510
0.000000 0.017978 1.000000
0.225265 0.016490 1.000000
0.477497 0.015002 1.000000
0.729729 0.013514 1.000000
0.981962 0.012026 1.000000
0.000000 0.262972 1.000000
0.232774 0.261484 1.000000
0.485007 0.259996 1.000000
0.739245 0.258842 1.000000
1.000000 0.259054 1.000000
0.000000 0.508919 1.000000
0.256210 0.509132 1.000000
0.518647 0.509344 1.000000
0.781085 0.509557 0.993281
1.000000 0.509770 0.979037
0.035612 0.759634 0.988095
0.298050 0.759847 0.973851
0.560461 0.760077 0.959693
0.820666 0.761778 0.952890
1.000000 0.763478 0.946086
0.074381 1.000000 0.950413
0.334586 1.000000 0.943610
0.594790 1.000000 0.936806
0.854995 1.000000 0.930003
1.000000 1.000000 0.923200
