deploy-fix/app/assets/luts/teal_orange.cube
TITLE "Teal & Orange"
LUT_3D_SIZE 9
DOMAIN_MIN 0.0 0.0 0.0
DOMAIN_MAX 1.0 1.0 1.0
0.000000 0.020000 0.100000
0.096116 0.019256 0.096280
0.222232 0.018512 0.092559
0.348348 0.017768 0.088839
0.474465 0.017024 0.085118
0.600581 0.016279 0.081398
0.726697 0.015535 0.077677
0.852813 0.014791 0.073957
0.978929 0.014047 0.070236
0.000000 0.142497 0.087484
0.099871 0.141753 0.083764
0.225987 0.141009 0.080043
0.352103 0.140265 0.076323
0.478219 0.139520 0.072602
0.604336 0.138776 0.068881
0.730452 0.138032 0.065161
0.856568 0.137288 0.061441
0.982684 0.136544 0.057720
0.000000 0.264994 0.074968
0.103626 0.264250 0.071248
0.229742 0.263505 0.067527
0.355858 0.262761 0.063807
0.481974 0.262017 0.060086
0.608090 0.261273 0.056366
0.734206 0.260529 0.052645
0.860323 0.259785 0.048925
0.986439 0.259041 0.045204
0.000000 0.387490 0.062452
0.107381 0.386746 0.058732
0.233497 0.386002 0.055011
0.359613 0.385258 0.051291
0.485729 0.384514 0.047570
0.612052 0.383804 0.043712
0.743270 0.383911 0.036590
0.874489 0.384017 0.029468
1.000000 0.384123 0.022346
0.000000 0.509987 0.049936
0.111135 0.509243 0.046216
0.239316 0.508843 0.041119
0.370534 0.508949 0.033997
0.501753 0.509056 0.026875
0.632971 0.509162 0.019753
0.764190 0.509268 0.012631
0.895408 0.509375 0.005509
1.000000 0.509481 0.000000
0.000000 0.633988 0.031404
0.129017 0.634094 0.024282
0.260235 0.634201 0.017160
0.391454 0.634307 0.010038
0.522672 0.634413 0.002916
0.653891 0.634520 0.000000
0.785109 0.634626 0.000000
0.916328 0.634732 0.000000
1.000000 0.634838 0.000000
0.018718 0.759346 0.007445
0.149936 0.759452 0.000323
0.281155 0.759558 0.000000
0.412373 0.759665 0.000000
0.543592 0.759771 0.000000
0.674810 0.759877 0.000000
0.806029 0.759983 0.000000
0.936906 0.760318 0.000000
1.000000 0.761168 0.000000
0.039637 0.884703 0.000000
0.170856 0.884810 0.000000
0.302074 0.884916 0.000000
0.433293 0.885022 0.000000
0.563763 0.885627 0.000000
0.693866 0.886478 0.000000
0.823968 0.887328 0.000000
0.954070 0.888178 0.000000
1.000000 0.889029 0.000000
0.060518 1.000000 0.000000
0.190621 1.000000 0.000000
0.320723 1.000000 0.000000
0.450826 1.000000 0.000000
0.580928 1.000000 0.000000
0.711030 1.000000 0.000000
0.841133 1.000000 0.000000
0.971235 1.000000 0.000000
1.000000 1.000000 0.000000
0.000000 0.019747 0.223737
0.096495 0.019003 0.220016
0.222611 0.018259 0.216296
0.348728 0.017515 0.212575
0.474844 0.016771 0.208854
0.600960 0.016027 0.205134
0.727076 0.015283 0.201414
0.853192 0.014539 0.197693
0.979308 0.013794 0.193972
0.000000 0.142244 0.211221
0.100250 0.141500 0.207500
0.226366 0.140756 0.203780
0.352482 0.140012 0.200059
0.478598 0.139268 0.196339
0.604715 0.138524 0.192618
0.730831 0.137779 0.188897
0.856947 0.137035 0.185177
0.983063 0.136291 0.181456
0.000000 0.264741 0.198705
0.104005 0.263997 0.194984
0.230121 0.263253 0.191264
0.356237 0.262509 0.187543
0.482353 0.261765 0.183822
0.608469 0.261020 0.180102
0.734586 0.260276 0.176381
0.860702 0.259532 0.172661
0.986899 0.258802 0.168886
0.000000 0.387238 0.186189
0.107760 0.386494 0.182468
0.233876 0.385750 0.178748
0.359992 0.385005 0.175027
0.486108 0.384261 0.171307
0.614163 0.383840 0.166293
0.745382 0.383947 0.159171
0.876601 0.384053 0.152049
1.000000 0.384159 0.144927
0.000000 0.509734 0.173673
0.111514 0.508990 0.169952
0.241427 0.508879 0.163700
0.372646 0.508985 0.156578
0.503864 0.509092 0.149456
0.635083 0.509198 0.142334
0.766302 0.509304 0.135212
0.897520 0.509411 0.128090
1.000000 0.509517 0.120968
0.000000 0.634024 0.153985
0.131128 0.634130 0.146863
0.262347 0.634237 0.139741
0.393565 0.634343 0.132619
0.524784 0.634449 0.125497
0.656003 0.634556 0.118375
0.787221 0.634662 0.111253
0.918440 0.634768 0.104131
1.000000 0.634875 0.097009
0.020829 0.759382 0.130026
0.152048 0.759488 0.122904
0.283267 0.759594 0.115782
0.414485 0.759701 0.108660
0.545704 0.759807 0.101538
0.676922 0.759913 0.094416
0.808141 0.760019 0.087294
0.938638 0.760606 0.082574
1.000000 0.761457 0.079173
0.041749 0.884739 0.106067
0.172968 0.884846 0.098945
0.304186 0.884952 0.091823
0.435394 0.885066 0.084738
0.565496 0.885916 0.081336
0.695598 0.886766 0.077934
0.825701 0.887617 0.074533
0.955803 0.888467 0.071131
1.000000 0.889318 0.067730
0.062251 1.000000 0.083499
0.192354 1.000000 0.080098
0.322456 1.000000 0.076696
0.452558 1.000000 0.073294
0.582661 1.000000 0.069893
0.712763 1.000000 0.066491
0.842866 1.000000 0.063090
0.972968 1.000000 0.059688
1.000000 1.000000 0.056286
0.000000 0.019495 0.347473
0.096874 0.018750 0.343753
0.222990 0.018006 0.340032
0.349107 0.017262 0.336311
0.475223 0.016518 0.332591
0.601339 0.015774 0.328871
0.727455 0.015030 0.325150
0.853571 0.014286 0.321430
0.979687 0.013542 0.317709
0.000000 0.141991 0.334957
0.100629 0.141247 0.331236
0.226745 0.140503 0.327516
0.352861 0.139759 0.323796
0.478978 0.139015 0.320075
0.605094 0.138271 0.316354
0.731210 0.137527 0.312634
0.857326 0.136783 0.308914
0.983442 0.136039 0.305193
0.000000 0.264488 0.322441
0.104384 0.263744 0.318721
0.230500 0.263000 0.315000
0.356616 0.262256 0.311279
0.482732 0.261512 0.307559
0.608848 0.260768 0.303839
0.734965 0.260024 0.300118
0.861081 0.259279 0.296398
0.989011 0.258838 0.291467
0.000000 0.386985 0.309925
0.108139 0.386241 0.306204
0.234255 0.385497 0.302484
0.360371 0.384753 0.298764
0.486487 0.384009 0.295043
0.616275 0.383877 0.288874
0.747494 0.383983 0.281752
0.878712 0.384089 0.274630
1.000000 0.384195 0.267508
0.000000 0.509482 0.297409
0.112321 0.508809 0.293404
0.243539 0.508915 0.286282
0.374758 0.509022 0.279160
0.505976 0.509128 0.272037
0.637195 0.509234 0.264915
0.768413 0.509340 0.257793
0.899632 0.509447 0.250671
1.000000 0.509553 0.243549
0.002022 0.634060 0.276567
0.133240 0.634167 0.269445
0.264459 0.634273 0.262322
0.395677 0.634379 0.255200
0.526896 0.634485 0.248078
0.658114 0.634592 0.240956
0.789333 0.634698 0.233834
0.920552 0.634804 0.226712
1.000000 0.634911 0.219590
0.022941 0.759418 0.252607
0.154160 0.759524 0.245485
0.285378 0.759630 0.238363
0.416597 0.759737 0.231241
0.547816 0.759843 0.224119
0.679034 0.759949 0.216997
0.810253 0.760056 0.209875
0.940371 0.760895 0.206419
1.000000 0.761746 0.203018
0.043861 0.884775 0.228648
0.175079 0.884882 0.221526
0.306298 0.884988 0.214404
0.437126 0.885354 0.208582
0.567229 0.886205 0.205181
0.697331 0.887055 0.201779
0.827434 0.887906 0.198378
0.957536 0.888756 0.194976
1.000000 0.889606 0.191574
0.063984 1.000000 0.207344
0.194086 1.000000 0.203942
0.324189 1.000000 0.200541
0.454291 1.000000 0.197139
0.584394 1.000000 0.193738
0.714496 1.000000 0.190336
0.844598 1.000000 0.186934
0.974701 1.000000 0.183533
1.000000 1.000000 0.180131
0.000000 0.019242 0.471210
0.097253 0.018498 0.467489
0.223369 0.017754 0.463769
0.349486 0.017010 0.460048
0.475602 0.016265 0.456327
0.601718 0.015521 0.452607
0.727834 0.014777 0.448887
0.853950 0.014033 0.445166
0.980066 0.013289 0.441445
0.000000 0.141739 0.458693
0.101008 0.140995 0.454973
0.227124 0.140251 0.451253
0.353240 0.139506 0.447532
0.479357 0.138762 0.443812
0.605473 0.138018 0.440091
0.731589 0.137274 0.436370
0.857705 0.136530 0.432650
0.983821 0.135786 0.428930
0.000000 0.264236 0.446178
0.104763 0.263491 0.442457
0.230879 0.262747 0.438736
0.356995 0.262003 0.435016
0.483111 0.261259 0.431295
0.609228 0.260515 0.427575
0.735344 0.259771 0.423855
0.861460 0.259027 0.420134
0.991123 0.258874 0.414049
0.000000 0.386732 0.433662
0.108518 0.385988 0.429941
0.234634 0.385244 0.426221
0.360750 0.384500 0.422500
0.487169 0.383806 0.418578
0.618387 0.383913 0.411456
0.749606 0.384019 0.404334
0.880824 0.384125 0.397212
1.000000 0.384232 0.390090
0.000000 0.509229 0.421146
0.114432 0.508845 0.415985
0.245651 0.508951 0.408863
0.376870 0.509058 0.401741
0.508088 0.509164 0.394619
0.639307 0.509270 0.387497
0.770525 0.509376 0.380375
0.901744 0.509483 0.373252
1.000000 0.509589 0.366130
0.004134 0.634096 0.399148
0.135352 0.634203 0.392026
0.266571 0.634309 0.384904
0.397789 0.634415 0.377782
0.529008 0.634521 0.370660
0.660226 0.634628 0.363537
0.791445 0.634734 0.356415
0.922663 0.634840 0.349293
1.000000 0.634947 0.342171
0.025053 0.759454 0.375189
0.156272 0.759560 0.368067
0.287490 0.759667 0.360945
0.418709 0.759773 0.353822
0.549927 0.759879 0.346700
0.681146 0.759985 0.339578
0.812002 0.760334 0.333666
0.942104 0.761184 0.330264
1.000000 0.762034 0.326862
0.045973 0.884811 0.351230
0.177191 0.884918 0.344107
0.308410 0.885024 0.336985
0.438859 0.885643 0.332427
0.568962 0.886494 0.329026
0.699064 0.887344 0.325624
0.829166 0.888194 0.322222
0.959269 0.889045 0.318821
1.000000 0.889895 0.315419
0.065717 1.000000 0.331189
0.195819 1.000000 0.327787
0.325922 1.000000 0.324386
0.456024 1.000000 0.320984
0.586126 1.000000 0.317582
0.716229 1.000000 0.314181
0.846331 1.000000 0.310779
0.976434 1.000000 0.307378
1.000000 1.000000 0.303976
0.000000 0.018989 0.594946
0.097632 0.018245 0.591225
0.223748 0.017501 0.587505
0.349865 0.016757 0.583785
0.475981 0.016013 0.580064
0.602097 0.015269 0.576344
0.728213 0.014525 0.572623
0.854329 0.013781 0.568902
0.980445 0.013036 0.565182
0.000000 0.141486 0.582430
0.101387 0.140742 0.578709
0.227503 0.139998 0.574989
0.353619 0.139254 0.571268
0.479736 0.138510 0.567548
0.605852 0.137765 0.563828
0.731968 0.137021 0.560107
0.858084 0.136277 0.556387
0.984200 0.135533 0.552666
0.000000 0.263983 0.569914
0.105142 0.263239 0.566194
0.231258 0.262495 0.562473
0.357374 0.261750 0.558752
0.483490 0.261006 0.555032
0.609607 0.260262 0.551311
0.735723 0.259518 0.547591
0.862016 0.258804 0.543752
0.993235 0.258910 0.536630
0.000000 0.386480 0.557398
0.108897 0.385736 0.553678
0.235013 0.384991 0.549957
0.361129 0.384247 0.546237
0.489280 0.383842 0.541159
0.620499 0.383949 0.534037
0.751718 0.384055 0.526915
0.882936 0.384161 0.519793
1.000000 0.384268 0.512671
0.000000 0.508976 0.544882
0.116544 0.508881 0.538566
0.247763 0.508987 0.531444
0.378981 0.509094 0.524322
0.510200 0.509200 0.517200
0.641419 0.509306 0.510078
0.772637 0.509413 0.502956
0.903856 0.509519 0.495834
1.000000 0.509625 0.488712
0.006245 0.634132 0.521729
0.137464 0.634239 0.514607
0.268682 0.634345 0.507485
0.399901 0.634451 0.500363
0.531120 0.634558 0.493241
0.662338 0.634664 0.486119
0.793557 0.634770 0.478997
0.924775 0.634876 0.471875
1.000000 0.634983 0.464752
0.027165 0.759490 0.497770
0.158384 0.759596 0.490648
0.289602 0.759703 0.483526
0.420821 0.759809 0.476404
0.552039 0.759915 0.469282
0.683258 0.760022 0.462160
0.813734 0.760622 0.457510
0.943837 0.761473 0.454109
1.000000 0.762323 0.450707
0.048085 0.884848 0.473811
0.179303 0.884954 0.466689
0.310490 0.885082 0.459674
0.440592 0.885932 0.456272
0.570694 0.886782 0.452870
0.700797 0.887633 0.449469
0.830899 0.888483 0.446067
0.961002 0.889334 0.442666
1.000000 0.890184 0.439264
0.067450 1.000000 0.455034
0.197552 1.000000 0.451632
0.327654 1.000000 0.448230
0.457757 1.000000 0.444829
0.587859 1.000000 0.441427
0.717962 1.000000 0.438026
0.848064 1.000000 0.434624
0.978166 1.000000 0.431222
1.000000 1.000000 0.427821
0.000000 0.018736 0.718683
0.098011 0.017992 0.714962
0.224128 0.017248 0.711241
0.350244 0.016504 0.707521
0.476360 0.015760 0.703801
0.602476 0.015016 0.700080
0.728592 0.014272 0.696360
0.854708 0.013528 0.692639
0.980824 0.012784 0.688918
0.000000 0.141233 0.706167
0.101766 0.140489 0.702446
0.227882 0.139745 0.698725
0.353998 0.139001 0.695005
0.480115 0.138257 0.691284
0.606231 0.137513 0.687564
0.732347 0.136769 0.683844
0.858463 0.136025 0.680123
0.984579 0.135280 0.676403
0.000000 0.263730 0.693650
0.105521 0.262986 0.689930
0.231637 0.262242 0.686210
0.357753 0.261498 0.682489
0.483869 0.260754 0.678768
0.609986 0.260010 0.675048
0.736102 0.259265 0.671327
0.864128 0.258840 0.666333
0.995347 0.258946 0.659211
0.000000 0.386227 0.681134
0.109276 0.385483 0.677414
0.235392 0.384739 0.673693
0.361508 0.383995 0.669973
0.491392 0.383879 0.663741
0.622611 0.383985 0.656618
0.753829 0.384091 0.649496
0.885048 0.384197 0.642374
1.000000 0.384304 0.635252
0.000000 0.508811 0.668270
0.118656 0.508917 0.661148
0.249875 0.509023 0.654026
0.381093 0.509130 0.646903
0.512312 0.509236 0.639781
0.643530 0.509342 0.632659
0.774749 0.509449 0.625537
0.905968 0.509555 0.618415
1.000000 0.509661 0.611293
0.008357 0.634168 0.644311
0.139576 0.634275 0.637188
0.270794 0.634381 0.630066
0.402013 0.634487 0.622944
0.533231 0.634594 0.615822
0.664450 0.634700 0.608700
0.795669 0.634806 0.601578
0.926887 0.634913 0.594456
1.000000 0.635019 0.587334
0.029277 0.759526 0.620351
0.160495 0.759632 0.613229
0.291714 0.759739 0.606107
0.422932 0.759845 0.598985
0.554151 0.759951 0.591863
0.685365 0.760061 0.584757
0.815467 0.760911 0.581355
0.945570 0.761762 0.577954
1.000000 0.762612 0.574552
0.050196 0.884884 0.596392
0.181415 0.884990 0.589270
0.312222 0.885370 0.583518
0.442325 0.886221 0.580117
0.572427 0.887071 0.576715
0.702530 0.887922 0.573314
0.832632 0.888772 0.569912
0.962734 0.889622 0.566510
1.000000 0.890473 0.563109
0.069182 1.000000 0.578878
0.199285 1.000000 0.575477
0.329387 1.000000 0.572075
0.459490 1.000000 0.568674
0.589592 1.000000 0.565272
0.719694 1.000000 0.561870
0.849797 1.000000 0.558469
0.979899 1.000000 0.555067
1.000000 1.000000 0.551666
0.000000 0.018484 0.842419
0.098390 0.017740 0.838699
0.224507 0.016996 0.834978
0.350623 0.016252 0.831257
0.476739 0.015507 0.827537
0.602855 0.014763 0.823816
0.728971 0.014019 0.820096
0.855087 0.013275 0.816376
0.981204 0.012531 0.812655
0.000000 0.140981 0.829903
0.102145 0.140236 0.826183
0.228261 0.139492 0.822462
0.354378 0.138748 0.818742
0.480494 0.138004 0.815021
0.606610 0.137260 0.811300
0.732726 0.136516 0.807580
0.858842 0.135772 0.803860
0.984958 0.135028 0.800139
0.000000 0.263477 0.817387
0.105900 0.262733 0.813666
0.232016 0.261989 0.809946
0.358132 0.261245 0.806226
0.484248 0.260501 0.802505
0.610365 0.259757 0.798785
0.736481 0.259013 0.795064
0.866240 0.258876 0.788915
0.997459 0.258982 0.781793
0.000000 0.385974 0.804871
0.109655 0.385230 0.801150
0.235771 0.384486 0.797430
0.362286 0.383808 0.793444
0.493504 0.383915 0.786322
0.624723 0.384021 0.779200
0.755941 0.384127 0.772078
0.887160 0.384234 0.764956
1.000000 0.384340 0.757833
0.000000 0.508847 0.790851
0.120768 0.508953 0.783729
0.251987 0.509060 0.776607
0.383205 0.509166 0.769485
0.514424 0.509272 0.762363
0.645642 0.509378 0.755240
0.776861 0.509485 0.748118
0.908079 0.509591 0.740996
1.000000 0.509697 0.733874
0.010469 0.634205 0.766892
0.141688 0.634311 0.759770
0.272906 0.634417 0.752648
0.404125 0.634524 0.745526
0.535343 0.634630 0.738403
0.666562 0.634736 0.731281
0.797780 0.634842 0.724159
0.928999 0.634949 0.717037
1.000000 0.635055 0.709915
0.031389 0.759562 0.742933
0.162607 0.759668 0.735810
0.293826 0.759775 0.728688
0.425044 0.759881 0.721566
0.556263 0.759987 0.714444
0.687098 0.760350 0.708602
0.817200 0.761200 0.705200
0.947302 0.762050 0.701798
1.000000 0.762901 0.698397
0.052308 0.884920 0.718973
0.183527 0.885026 0.711851
0.313955 0.885659 0.707363
0.444058 0.886510 0.703962
0.574160 0.887360 0.700560
0.704262 0.888210 0.697158
0.834365 0.889061 0.693757
0.964467 0.889911 0.690355
1.000000 0.890762 0.686954
0.070915 1.000000 0.702723
0.201018 1.000000 0.699322
0.331120 1.000000 0.695920
0.461222 1.000000 0.692518
0.591325 1.000000 0.689117
0.721427 1.000000 0.685715
0.851530 1.000000 0.682314
0.981632 1.000000 0.678912
1.000000 1.000000 0.675510
0.000000 0.018231 0.966155
0.098770 0.017487 0.962435
0.224886 0.016743 0.958715
0.351002 0.015999 0.954994
0.477118 0.015255 0.951273
0.603234 0.014511 0.947553
0.729350 0.013767 0.943832
0.855466 0.013022 0.940112
0.981583 0.012278 0.936392
0.000000 0.140728 0.953639
0.102524 0.139984 0.949919
0.228640 0.139240 0.946199
0.354757 0.138496 0.942478
0.480873 0.137751 0.938758
0.606989 0.137007 0.935037
0.733105 0.136263 0.931316
0.859221 0.135519 0.927596
0.985337 0.134775 0.923875
0.000000 0.263225 0.941124
0.106279 0.262481 0.937403
0.232395 0.261736 0.933682
0.358511 0.260992 0.929962
0.484628 0.260248 0.926242
0.610744 0.259504 0.922521
0.737133 0.258806 0.918618
0.868352 0.258912 0.911496
0.999571 0.259018 0.904374
0.000000 0.385721 0.928608
0.110034 0.384977 0.924887
0.236150 0.384233 0.921166
0.364397 0.383844 0.916025
0.495616 0.383951 0.908903
0.626834 0.384057 0.901781
0.758053 0.384163 0.894659
0.889272 0.384270 0.887537
1.000000 0.384376 0.880415
0.000000 0.508883 0.913432
0.122880 0.508989 0.906310
0.254098 0.509096 0.899188
0.385317 0.509202 0.892066
0.516536 0.509308 0.884944
0.647754 0.509415 0.877822
0.778973 0.509521 0.870700
0.910191 0.509627 0.863578
1.000000 0.509734 0.856456
0.012581 0.634241 0.889473
0.143799 0.634347 0.882351
0.275018 0.634453 0.875229
0.406237 0.634560 0.868107
0.537455 0.634666 0.860985
0.668674 0.634772 0.853863
0.799892 0.634879 0.846741
0.931111 0.634985 0.839618
1.000000 0.635329 0.833685
0.033501 0.759598 0.865514
0.164719 0.759705 0.858392
0.295938 0.759811 0.851270
0.427156 0.759917 0.844148
0.558375 0.760023 0.837025
0.688830 0.760638 0.832446
0.818933 0.761489 0.829045
0.949035 0.762339 0.825643
1.000000 0.763190 0.822242
0.054420 0.884956 0.841555
0.185586 0.885098 0.834610
0.315688 0.885948 0.831208
0.445790 0.886798 0.827806
0.575893 0.887649 0.824405
0.705995 0.888499 0.821003
0.836098 0.889350 0.817602
0.966200 0.890200 0.814200
1.000000 0.891050 0.810798
0.072648 1.000000 0.826568
0.202750 1.000000 0.823166
0.332853 1.000000 0.819765
0.462955 1.000000 0.816363
0.593058 1.000000 0.812962
0.723160 1.000000 0.809560
0.853262 1.000000 0.806158
0.983365 1.000000 0.802757
1.000000 1.000000 0.799355
0.000000 0.017978 1.000000
0.099149 0.017234 1.000000
0.225265 0.016490 1.000000
0.351381 0.015746 1.000000
0.477497 0.015002 1.000000
0.603613 0.014258 1.000000
0.729729 0.013514 1.000000
0.855845 0.012770 1.000000
0.981962 0.012026 1.000000
0.000000 0.140475 1.000000
0.102903 0.139731 1.000000
0.229019 0.138987 1.000000
0.355136 0.138243 1.000000
0.481252 0.137499 1.000000
0.607368 0.136755 1.000000
0.733484 0.136011 1.000000
0.859600 0.135267 1.000000
0.985716 0.134522 1.000000
0.000000 0.262972 1.000000
0.106658 0.262228 1.000000
0.232774 0.261484 1.000000
0.358890 0.260740 1.000000
0.485007 0.259996 1.000000
0.611123 0.259252 1.000000
0.739245 0.258842 1.000000
0.870464 0.258948 1.000000
1.000000 0.259054 1.000000
0.000000 0.385469 1.000000
0.110413 0.384725 1.000000
0.236529 0.383981 1.000000
0.366509 0.383880 1.000000
0.497728 0.383987 1.000000
0.628946 0.384093 1.000000
0.760165 0.384199 1.000000
0.891383 0.384306 1.000000
1.000000 0.384412 1.000000
0.000000 0.508919 1.000000
0.124992 0.509026 1.000000
0.256210 0.509132 1.000000
0.387429 0.509238 1.000000
0.518647 0.509344 1.000000
0.649866 0.509451 1.000000
0.781085 0.509557 0.993281
0.912303 0.509663 0.986159
1.000000 0.509770 0.979037
0.014693 0.634277 1.000000
0.145911 0.634383 1.000000
0.277130 0.634489 0.997810
0.408348 0.634596 0.990688
0.539567 0.634702 0.983566
0.670786 0.634808 0.976444
0.802004 0.634915 0.969322
0.933223 0.635021 0.962200
1.000000 0.635618 0.957530
0.035612 0.759634 0.988095
0.166831 0.759741 0.980973
0.298050 0.759847 0.973851
0.429268 0.759953 0.966729
0.560461 0.760077 0.959693
0.690563 0.760927 0.956291
0.820666 0.761778 0.952890
0.950768 0.762628 0.949488
1.000000 0.763478 0.946086
0.056532 0.884992 0.964136
0.187318 0.885386 0.958454
0.317421 0.886237 0.955053
0.447523 0.887087 0.951651
0.577626 0.887938 0.948250
0.707728 0.888788 0.944848
0.837830 0.889638 0.941446
0.967933 0.890489 0.938045
1.000000 0.891339 0.934643
0.074381 1.000000 0.950413
0.204483 1.000000 0.947011
0.334586 1.000000 0.943610
0.464688 1.000000 0.940208
0.594790 1.000000 0.936806
0.724893 1.000000 0.933405
0.854995 1.000000 0.930003
0.985098 1.000000 0.926602
1.000000 1.000000 0.923200
